%
(1001)
(T1  D=20. CR=0. - ZMIN=525. - FLAT END MILL)
N10 G90 G94 G17 G91.1
N15 G21
N20 G53 G0 Z0.
(FACE2)
N25 M9
N30 T1 M6
N35 S1460 M3
N40 G54
N45 M8
N55 G0 X739. Y7.565
N60 G43 Z541. H1
N65 G0 Z531.
N70 G1 Z527. F467.
N75 G18 G3 X737. Z525. I-2. K0.
N80 G1 X726.
N85 X399.
N90 G17 G2 Y25.939 I0. J9.187
N95 G1 X726.
N100 G3 Y44.314 I0. J9.187
N105 G1 X399.
N110 G2 Y62.688 I0. J9.187
N115 G1 X726.
N120 G3 Y81.063 I0. J9.187
N125 G1 X399.
N130 G2 Y99.437 I0. J9.187
N135 G1 X726.
N140 G3 Y117.812 I0. J9.187
N145 G1 X399.
N150 G2 Y136.186 I0. J9.187
N155 G1 X726.
N160 G3 Y154.561 I0. J9.187
N165 G1 X399.
N170 G2 Y172.935 I0. J9.187
N175 G1 X726.
N180 G3 Y191.31 I0. J9.187
N185 G1 X399.
N190 G18 G3 X397. Z527. I0. K2.
N195 G0 Z541.
N200 G17
N205 M9
N210 G53 G0 Z0.
N215 M30
%
