%
(FACE-ADAPTIVE)
(T1  D=20. CR=0. - ZMIN=510.5 - FLAT END MILL)
N10 G90 G94 G17 G91.1
N15 G21
N20 G53 G0 Z0.
(2D ADAPTIVE1)
N25 M9
N30 T1 M6
N35 S1460 M3
N40 G54
N45 M8
N55 G0 X552.029 Y40.15
N60 G43 Z541. H1
N65 G0 Z531.
N70 Z528.55
N75 G3 X551.554 Y24.468 Z527.905 I5.118 J-8.003 F467.
N80 X566.335 Y29.732 Z527.261 I5.593 J7.679
N85 X547.959 Y34.562 Z526.219 I-9.188 J2.415
N90 X566.335 Y29.732 Z525.176 I9.188 J-2.415
N95 X558.204 Y41.588 Z524.607 I-9.188 J2.415
N100 X547.652 Y31.824 Z524.037 I-1.057 J-9.441
N105 X560.903 Y23.421 Z523.393 I9.495 J0.323
N110 X563.909 Y38.82 Z522.748 I-3.756 J8.726
N115 X548.471 Y36.018 Z522.104 I-6.762 J-6.673
N120 X565.823 Y28.277 Z521.061 I8.676 J-3.87
N125 X551.045 Y39.428 Z520.17 I-8.676 J3.87
N130 X552.585 Y23.814 Z519.525 I6.102 J-7.281
N135 X566.569 Y30.929 Z518.88 I4.562 J8.333
N140 X547.725 Y33.365 Z517.838 I-9.422 J1.218
N145 X549.394 Y26.656 Z517.591 I9.422 J-1.218
N150 X564.9 Y37.638 Z516.549 I7.753 J5.491
N155 X559.126 Y41.439 Z516.302 I-7.753 J-5.491
N160 X547.772 Y30.61 Z515.657 I-1.979 J-9.292
N165 X561.99 Y23.974 Z515.013 I9.375 J1.538
N170 X562.998 Y39.632 Z514.368 I-4.843 J8.173
N175 X548.047 Y34.874 Z513.723 I-5.851 J-7.485
N180 X566.247 Y29.421 Z512.681 I9.1 J-2.727
N185 X565.686 Y36.311 Z512.434 I-9.1 J2.727
N190 X548.608 Y27.984 Z511.392 I-8.539 J-4.163
N195 X553.691 Y23.298 Z511.145 I8.539 J4.163
N200 X566.647 Y32.147 Z510.5 I3.456 J8.849
N205 X547.647 I-9.5 J0.
N210 X566.644 Y31.904 I9.5 J0.
N215 X566.647 Y32.147 I-9.497 J0.243
N220 G1 X566.65 Y32.563
N225 X566.689 Y32.977
N230 X566.766 Y33.385
N235 X567.215 Y34.986
N240 X567.284 Y35.118
N245 X567.417 Y35.403
N250 X567.54 Y35.731
N255 X567.646 Y36.102
N260 X567.728 Y36.516
N265 X567.782 Y36.971
N270 X567.8 Y37.466
N275 X567.776 Y37.997
N280 X567.706 Y38.561
N285 X567.583 Y39.154
N290 X567.403 Y39.77
N295 X567.16 Y40.404
N300 X566.853 Y41.048
N305 X566.477 Y41.696
N310 X566.03 Y42.339
N315 X565.513 Y42.971
N320 X564.924 Y43.582
N325 X564.264 Y44.165
N330 X563.537 Y44.71
N335 X562.744 Y45.21
N340 X561.891 Y45.657
N345 X560.982 Y46.044
N350 X560.022 Y46.364
N355 X559.02 Y46.61
N360 X557.981 Y46.779
N365 X556.914 Y46.866
N370 X555.828
N375 X554.73 Y46.778
N380 X553.629 Y46.6
N385 X552.534 Y46.332
N390 X551.454 Y45.973
N395 X550.397 Y45.524
N400 X549.371 Y44.988
N405 X548.386 Y44.368
N410 X547.448 Y43.666
N415 X546.565 Y42.887
N420 X545.743 Y42.036
N425 X544.989 Y41.118
N430 X544.309 Y40.139
N435 X543.708 Y39.105
N440 X543.19 Y38.024
N445 X542.76 Y36.902
N450 X542.42 Y35.746
N455 X542.174 Y34.565
N460 X542.023 Y33.366
N465 X541.969 Y32.157
N470 X542.013 Y30.946
N475 X542.153 Y29.741
N480 X542.39 Y28.55
N485 X542.722 Y27.381
N490 X543.146 Y26.242
N495 X543.662 Y25.14
N500 X544.264 Y24.082
N505 X544.95 Y23.075
N510 X545.714 Y22.127
N515 X546.553 Y21.242
N520 X547.46 Y20.427
N525 X548.43 Y19.688
N530 X549.456 Y19.029
N535 X550.533 Y18.454
N540 X551.652 Y17.967
N545 X552.806 Y17.571
N550 X553.989 Y17.269
N555 X555.193 Y17.064
N560 X556.409 Y16.955
N565 X557.63 Y16.945
N570 X558.848 Y17.032
N575 X560.055 Y17.217
N580 X561.244 Y17.498
N585 X562.406 Y17.874
N590 X563.534 Y18.342
N595 X564.622 Y18.899
N600 X565.661 Y19.541
N605 X566.645 Y20.265
N610 X567.568 Y21.065
N615 X568.423 Y21.937
N620 X569.206 Y22.875
N625 X569.912 Y23.873
N630 X570.759 Y25.303
N635 X571.546 Y26.768
N640 X572.262 Y28.269
N645 X572.883 Y29.811
N650 X573.368 Y31.334
N655 X573.701 Y32.771
N660 X573.909 Y34.17
N665 X574.002 Y35.541
N670 X573.984 Y36.883
N675 X573.861 Y38.199
N680 X573.634 Y39.491
N685 X573.305 Y40.759
N690 X572.874 Y41.998
N695 X572.343 Y43.205
N700 X571.712 Y44.374
N705 X570.982 Y45.498
N710 X570.155 Y46.573
N715 X569.233 Y47.591
N720 X568.218 Y48.545
N725 X567.114 Y49.426
N730 X565.927 Y50.227
N735 X564.663 Y50.94
N740 X563.327 Y51.557
N745 X561.927 Y52.072
N750 X560.473 Y52.478
N755 X558.974 Y52.769
N760 X557.441 Y52.941
N765 X555.885 Y52.99
N770 X554.315 Y52.912
N775 X552.742 Y52.708
N780 X551.178 Y52.375
N785 X549.633 Y51.913
N790 X548.12 Y51.326
N795 X546.649 Y50.613
N800 X545.231 Y49.78
N805 X543.877 Y48.831
N810 X542.597 Y47.77
N815 X541.405 Y46.61
N820 X540.311 Y45.358
N825 X539.319 Y44.024
N830 X538.436 Y42.615
N835 X537.667 Y41.14
N840 X537.017 Y39.61
N845 X536.488 Y38.034
N850 X536.084 Y36.421
N855 X535.808 Y34.781
N860 X535.66 Y33.125
N865 X535.642 Y31.462
N870 X535.753 Y29.803
N875 X535.992 Y28.158
N880 X536.358 Y26.536
N885 X536.849 Y24.947
N890 X537.461 Y23.401
N895 X538.191 Y21.907
N900 X539.034 Y20.474
N905 X539.984 Y19.11
N910 X541.038 Y17.823
N915 X542.188 Y16.622
N920 X543.427 Y15.513
N925 X544.748 Y14.503
N930 X546.143 Y13.599
N935 X547.604 Y12.805
N940 X549.121 Y12.126
N945 X550.687 Y11.566
N950 X552.292 Y11.129
N955 X553.925 Y10.817
N960 X555.577 Y10.633
N965 X557.239 Y10.576
N970 X558.9 Y10.648
N975 X560.551 Y10.847
N980 X562.181 Y11.173
N985 X563.782 Y11.624
N990 X565.343 Y12.197
N995 X566.855 Y12.888
N1000 X568.31 Y13.693
N1005 X569.699 Y14.608
N1010 X571.013 Y15.627
N1015 X572.249 Y16.739
N1020 X573.41 Y17.929
N1025 X574.496 Y19.188
N1030 X575.505 Y20.51
N1035 X576.435 Y21.888
N1040 X577.285 Y23.317
N1045 X578.048 Y24.794
N1050 X578.72 Y26.315
N1055 X579.293 Y27.876
N1060 X579.764 Y29.471
N1065 X580.13 Y31.093
N1070 X580.386 Y32.736
N1075 X580.53 Y34.392
N1080 X580.561 Y36.055
N1085 X580.477 Y37.715
N1090 X580.277 Y39.366
N1095 X579.961 Y40.998
N1100 X579.529 Y42.604
N1105 X578.983 Y44.175
N1110 X578.326 Y45.702
N1115 X577.563 Y47.179
N1120 X576.698 Y48.599
N1125 X575.736 Y49.955
N1130 X574.682 Y51.242
N1135 X573.541 Y52.451
N1140 X572.317 Y53.577
N1145 X571.019 Y54.616
N1150 X569.653 Y55.564
N1155 X568.227 Y56.418
N1160 X566.747 Y57.176
N1165 X565.219 Y57.833
N1170 X563.65 Y58.384
N1175 X562.049 Y58.832
N1180 X560.422 Y59.174
N1185 X558.776 Y59.413
N1190 X557.118 Y59.542
N1195 X555.456 Y59.563
N1200 X553.795 Y59.479
N1205 X552.143 Y59.291
N1210 X550.506 Y59.
N1215 X548.891 Y58.603
N1220 X547.304 Y58.107
N1225 X545.751 Y57.514
N1230 X544.237 Y56.827
N1235 X542.769 Y56.045
N1240 X541.353 Y55.175
N1245 X539.991 Y54.22
N1250 X538.69 Y53.185
N1255 X537.455 Y52.071
N1260 X536.292 Y50.883
N1265 X535.201 Y49.628
N1270 X534.187 Y48.311
N1275 X533.255 Y46.933
N1280 X532.41 Y45.502
N1285 X531.651 Y44.022
N1290 X530.98 Y42.501
N1295 X530.402 Y40.942
N1300 X529.92 Y39.35
N1305 X529.534 Y37.733
N1310 X529.242 Y36.096
N1315 X529.049 Y34.445
N1320 X528.956 Y32.784
N1325 X528.962 Y31.122
N1330 X529.064 Y29.462
N1335 X529.264 Y27.811
N1340 X529.563 Y26.176
N1345 X529.96 Y24.561
N1350 X530.449 Y22.972
N1355 X531.03 Y21.414
N1360 X531.704 Y19.894
N1365 X532.467 Y18.416
N1370 X533.315 Y16.986
N1375 X534.244 Y15.607
N1380 X535.254 Y14.287
N1385 X536.342 Y13.029
N1390 X537.501 Y11.837
N1395 X538.727 Y10.714
N1400 X540.018 Y9.665
N1405 X541.369 Y8.696
N1410 X542.775 Y7.808
N1415 X544.23 Y7.003
N1420 X545.729 Y6.285
N1425 X547.269 Y5.659
N1430 X548.844 Y5.124
N1435 X550.447 Y4.682
N1440 X552.073 Y4.333
N1445 X553.716 Y4.084
N1450 X555.372 Y3.932
N1455 X557.034 Y3.876
N1460 X558.696 Y3.917
N1465 X560.353 Y4.057
N1470 X561.999 Y4.296
N1475 X563.628 Y4.63
N1480 X565.234 Y5.057
N1485 X566.813 Y5.579
N1490 X568.358 Y6.194
N1495 X569.864 Y6.899
N1500 X571.328 Y7.688
N1505 X572.745 Y8.558
N1510 X574.111 Y9.506
N1515 X575.423 Y10.527
N1520 X576.68 Y11.615
N1525 X577.88 Y12.766
N1530 X579.021 Y13.975
N1535 X580.1 Y15.241
N1540 X581.112 Y16.56
N1545 X582.058 Y17.927
N1550 X582.936 Y19.339
N1555 X583.743 Y20.793
N1560 X584.473 Y22.287
N1565 X585.126 Y23.816
N1570 X585.701 Y25.377
N1575 X586.196 Y26.964
N1580 X586.608 Y28.575
N1585 X586.933 Y30.205
N1590 X587.172 Y31.851
N1595 X587.325 Y33.507
N1600 X587.391 Y35.168
N1605 X587.365 Y36.831
N1610 X587.249 Y38.489
N1615 X587.044 Y40.139
N1620 X586.752 Y41.776
N1625 X586.37 Y43.394
N1630 X585.898 Y44.989
N1635 X585.34 Y46.555
N1640 X584.699 Y48.09
N1645 X583.977 Y49.587
N1650 X583.173 Y51.043
N1655 X582.29 Y52.451
N1660 X581.332 Y53.811
N1665 X580.303 Y55.117
N1670 X579.205 Y56.365
N1675 X578.04 Y57.552
N1680 X576.813 Y58.674
N1685 X575.528 Y59.73
N1690 X574.19 Y60.717
N1695 X572.801 Y61.63
N1700 X571.365 Y62.468
N1705 X569.886 Y63.229
N1710 X568.371 Y63.913
N1715 X567.447 Y64.274
N1720 X567.057 Y64.399
N1725 X566.655 Y64.475
N1730 X566.246 Y64.5
N1735 X550.611
N1740 X548.95 Y64.417
N1745 X547.297 Y64.24
N1750 X545.662 Y63.937
N1755 X544.052 Y63.519
N1760 X542.475 Y62.993
N1765 X540.935 Y62.367
N1770 X539.436 Y61.647
N1775 X537.982 Y60.841
N1780 X536.575 Y59.954
N1785 X535.219 Y58.992
N1790 X533.917 Y57.958
N1795 X532.672 Y56.855
N1800 X531.487 Y55.689
N1805 X530.363 Y54.464
N1810 X529.301 Y53.185
N1815 X528.305 Y51.853
N1820 X527.377 Y50.473
N1825 X526.52 Y49.048
N1830 X525.733 Y47.584
N1835 X525.017 Y46.083
N1840 X524.375 Y44.549
N1845 X523.81 Y42.985
N1850 X523.322 Y41.396
N1855 X522.91 Y39.785
N1860 X522.575 Y38.156
N1865 X522.318 Y36.513
N1870 X522.142 Y34.86
N1875 X522.046 Y33.2
N1880 X522.028 Y31.537
N1885 X522.088 Y29.876
N1890 X522.126 Y29.429
N1895 X522.186 Y29.024
N1900 X522.295 Y28.629
N1905 X522.452 Y28.252
N1910 X522.655 Y27.896
N1915 X522.893 Y27.533
N1920 X523.039 Y27.301
N1925 X523.638 Y26.323
N1930 X524.237 Y25.345
N1935 X524.36 Y25.139
N1940 X524.837 Y24.302
N1945 X525.039 Y23.942
N1950 X525.436 Y23.222
N1955 X525.697 Y22.745
N1960 X526.036 Y22.113
N1965 X526.333 Y21.548
N1970 X527.234 Y19.728
N1975 X527.515 Y19.153
N1980 X527.834 Y18.445
N1985 X528.052 Y17.956
N1990 X528.581 Y16.759
N1995 X529.085 Y15.562
N2000 X529.79 Y13.767
N2005 X530.024 Y13.168
N2010 X530.51 Y11.986
N2015 X531.204 Y10.622
N2020 X532.074 Y9.205
N2025 X533.054 Y7.862
N2030 X534.129 Y6.594
N2035 X535.289 Y5.402
N2040 X536.524 Y4.288
N2045 X537.825 Y3.253
N2050 X539.184 Y2.295
N2055 X540.595 Y1.416
N2060 X542.051 Y0.613
N2065 X543.549 Y-0.11
N2070 X545.082 Y-0.753
N2075 X546.647 Y-1.316
N2080 X548.238 Y-1.799
N2085 X549.851 Y-2.203
N2090 X551.481 Y-2.527
N2095 X553.126 Y-2.77
N2100 X554.781 Y-2.931
N2105 X556.442 Y-3.012
N2110 X558.105 Y-3.014
N2115 X559.766 Y-2.937
N2120 X561.421 Y-2.779
N2125 X563.067 Y-2.541
N2130 X564.699 Y-2.225
N2135 X566.315 Y-1.833
N2140 X567.911 Y-1.366
N2145 X569.482 Y-0.823
N2150 X571.027 Y-0.207
N2155 X572.541 Y0.48
N2160 X574.022 Y1.236
N2165 X575.469 Y2.056
N2170 X576.876 Y2.941
N2175 X578.243 Y3.887
N2180 X579.568 Y4.893
N2185 X580.847 Y5.955
N2190 X582.08 Y7.07
N2195 X583.266 Y8.236
N2200 X584.4 Y9.452
N2205 X585.482 Y10.715
N2210 X586.509 Y12.022
N2215 X587.481 Y13.371
N2220 X588.396 Y14.759
N2225 X589.028 Y15.811
N2230 X589.232 Y16.208
N2235 X589.38 Y16.629
N2240 X589.47 Y17.066
N2245 X589.5 Y17.511
N2250 Y47.285
N2255 X589.429 Y48.698
N2260 X589.254 Y50.033
N2265 X588.944 Y51.482
N2270 X588.481 Y53.028
N2275 X587.878 Y54.578
N2280 X587.16 Y56.077
N2285 X586.34 Y57.524
N2290 X585.43 Y58.916
N2295 X584.439 Y60.251
N2300 X583.375 Y61.528
N2305 X582.243 Y62.746
N2310 X581.39 Y63.572
N2315 X581.068 Y63.846
N2320 X580.713 Y64.076
N2325 X580.333 Y64.259
N2330 X579.932 Y64.392
N2335 X579.517 Y64.473
N2340 X579.095 Y64.5
N2345 X566.246
N2350 G3 X565.487 Y64.321 I0.07 J-1.999
N2355 X565.153 Y60.874 I0.829 J-1.82
N2360 G1 X586.338 Y45.728
N2365 G3 X589.321 Y46.526 I1.163 J1.627
N2370 X589.5 Y47.285 I-1.82 J0.829
N2375 G1 Y58.059
N2380 X589.456 Y58.936
N2385 X589.331 Y59.894
N2390 X589.111 Y60.92
N2395 X588.8 Y61.96
N2400 X588.432 Y62.905
N2405 X588.202 Y63.294
N2410 X587.914 Y63.643
N2415 X587.574 Y63.941
N2420 X587.191 Y64.181
N2425 X586.774 Y64.357
N2430 X586.335 Y64.464
N2435 X585.884 Y64.5
N2440 G3 X585.125 Y64.321 I0.07 J-1.999
N2445 X584.069 Y61.834 I0.829 J-1.82
N2450 G1 X585.616 Y57.462
N2455 G3 X589.321 Y57.299 I1.885 J0.667
N2460 X589.5 Y58.059 I-1.82 J0.829
N2465 G1 Y62.249
N2470 X589.499 Y62.548
N2475 X589.467 Y62.847
N2480 X589.387 Y63.147
N2485 X589.254 Y63.446
N2490 X589.131 Y63.642
N2495 X588.972 Y63.839
N2500 X588.754 Y64.044
N2505 X588.563 Y64.183
N2510 X588.372 Y64.292
N2515 X588.073 Y64.411
N2520 X587.773 Y64.479
N2525 X587.173 Y64.5
N2530 X579.095
N2535 G3 X578.335 Y64.321 I0.07 J-1.999
N2540 X577.729 Y63.893 I0.829 J-1.82
N2545 G1 X530.496 Y15.161
N2550 G3 X529.939 Y13.944 I1.436 J-1.392
N2555 X530.024 Y13.168 I1.992 J-0.175
N2560 G1 X530.236 Y12.569
N2565 X530.445 Y11.971
N2570 X530.859 Y10.774
N2575 X531.057 Y10.175
N2580 X531.253 Y9.577
N2585 X531.437 Y8.978
N2590 X532.029 Y7.008
N2595 X532.301 Y5.985
N2600 X532.456 Y5.387
N2605 X532.764 Y4.19
N2610 X533.111 Y3.055
N2615 X533.442 Y2.219
N2620 X533.886 Y1.317
N2625 X534.451 Y0.369
N2630 X535.176 Y-0.652
N2635 X536.075 Y-1.722
N2640 X537.148 Y-2.81
N2645 X538.407 Y-3.897
N2650 X539.748 Y-4.88
N2655 X541.155 Y-5.766
N2660 X542.617 Y-6.558
N2665 X544.124 Y-7.261
N2670 X545.668 Y-7.878
N2675 X547.243 Y-8.412
N2680 X548.842 Y-8.865
N2685 X550.463 Y-9.239
N2690 X552.099 Y-9.534
N2695 X553.747 Y-9.754
N2700 X555.404 Y-9.9
N2705 X557.065 Y-9.974
N2710 X558.727 Y-9.976
N2715 X560.389 Y-9.907
N2720 X562.046 Y-9.768
N2725 X563.695 Y-9.56
N2730 X565.335 Y-9.285
N2735 X566.963 Y-8.944
N2740 X568.575 Y-8.539
N2745 X570.17 Y-8.068
N2750 X571.745 Y-7.535
N2755 X573.297 Y-6.94
N2760 X574.826 Y-6.285
N2765 X576.328 Y-5.572
N2770 X577.802 Y-4.803
N2775 X579.246 Y-3.979
N2780 X580.658 Y-3.1
N2785 X582.035 Y-2.169
N2790 X583.378 Y-1.187
N2795 X584.683 Y-0.157
N2800 X585.95 Y0.919
N2805 X587.177 Y2.041
N2810 X588.363 Y3.207
N2815 X588.598 Y3.456
N2820 X588.913 Y3.844
N2825 X589.165 Y4.275
N2830 X589.35 Y4.738
N2835 X589.462 Y5.225
N2840 X589.5 Y5.723
N2845 Y17.511
N2850 G3 X589.321 Y18.271 I-1.999 J-0.07
N2855 X587.029 Y19.385 I-1.82 J-0.829
N2860 G1 X534.247 Y6.553
N2865 G3 X532.752 Y4.97 I0.472 J-1.943
N2870 X532.764 Y4.19 I1.967 J-0.36
N2875 G1 X532.915 Y3.591
N2880 X533.047 Y2.993
N2885 X533.436 Y1.197
N2890 X533.559 Y0.599
N2895 X533.673 Y0.
N2900 X533.784 Y-0.599
N2905 X534.102 Y-2.394
N2910 X534.197 Y-2.993
N2915 X534.338 Y-3.734
N2920 X534.533 Y-4.442
N2925 X534.799 Y-5.176
N2930 X535.178 Y-6.004
N2935 X535.653 Y-6.854
N2940 X536.268 Y-7.773
N2945 X537.04 Y-8.748
N2950 X537.96 Y-9.735
N2955 X539.072 Y-10.751
N2960 X540.386 Y-11.77
N2965 X541.777 Y-12.682
N2970 X543.229 Y-13.492
N2975 X544.73 Y-14.206
N2980 X546.272 Y-14.829
N2985 X547.845 Y-15.366
N2990 X549.445 Y-15.821
N2995 X551.065 Y-16.195
N3000 X552.701 Y-16.493
N3005 X554.348 Y-16.717
N3010 X556.004 Y-16.87
N3015 X557.665 Y-16.955
N3020 X559.327 Y-16.973
N3025 X560.989 Y-16.926
N3030 X562.648 Y-16.815
N3035 X564.302 Y-16.64
N3040 X565.948 Y-16.405
N3045 X567.584 Y-16.11
N3050 X569.209 Y-15.757
N3055 X570.821 Y-15.347
N3060 X572.417 Y-14.881
N3065 X573.996 Y-14.36
N3070 X575.556 Y-13.785
N3075 X577.096 Y-13.157
N3080 X578.613 Y-12.478
N3085 X580.108 Y-11.749
N3090 X581.577 Y-10.971
N3095 X583.021 Y-10.146
N3100 X584.437 Y-9.274
N3105 X585.823 Y-8.357
N3110 X587.18 Y-7.395
N3115 X588.198 Y-6.62
N3120 X588.525 Y-6.335
N3125 X588.812 Y-6.01
N3130 X589.054 Y-5.65
N3135 X589.247 Y-5.262
N3140 X589.387 Y-4.851
N3145 X589.471 Y-4.426
N3150 X589.5 Y-3.993
N3155 Y5.723
N3160 G3 X589.321 Y6.482 I-1.999 J-0.07
N3165 X587.177 Y7.626 I-1.82 J-0.829
N3170 G1 X535.862 Y-0.814
N3175 G3 X534.27 Y-2.216 I0.325 J-1.973
N3180 X534.197 Y-2.993 I1.917 J-0.571
N3185 G1 X534.446 Y-4.788
N3190 X534.526 Y-5.387
N3195 X534.599 Y-5.985
N3200 X534.669 Y-6.584
N3205 X534.849 Y-8.38
N3210 X534.908 Y-8.978
N3215 X534.948 Y-9.577
N3220 X535.02 Y-10.187
N3225 X535.149 Y-10.827
N3230 X535.354 Y-11.546
N3235 X535.637 Y-12.301
N3240 X536.024 Y-13.126
N3245 X536.526 Y-14.004
N3250 X537.146 Y-14.911
N3255 X537.929 Y-15.88
N3260 X538.881 Y-16.881
N3265 X540.004 Y-17.886
N3270 X541.328 Y-18.892
N3275 X542.728 Y-19.79
N3280 X544.188 Y-20.585
N3285 X545.696 Y-21.285
N3290 X547.244 Y-21.894
N3295 X548.822 Y-22.418
N3300 X550.424 Y-22.861
N3305 X552.046 Y-23.227
N3310 X553.683 Y-23.52
N3315 X555.331 Y-23.741
N3320 X556.987 Y-23.894
N3325 X558.647 Y-23.981
N3330 X560.31 Y-24.005
N3335 X561.972 Y-23.967
N3340 X563.632 Y-23.871
N3345 X565.288 Y-23.718
N3350 X566.937 Y-23.509
N3355 X568.579 Y-23.244
N3360 X570.211 Y-22.925
N3365 X571.832 Y-22.554
N3370 X573.44 Y-22.132
N3375 X575.034 Y-21.66
N3380 X576.613 Y-21.139
N3385 X578.176 Y-20.571
N3390 X579.721 Y-19.957
N3395 X581.247 Y-19.296
N3400 X582.752 Y-18.589
N3405 X584.236 Y-17.839
N3410 X585.697 Y-17.046
N3415 X587.132 Y-16.205
N3420 X588.011 Y-15.628
N3425 X588.382 Y-15.345
N3430 X588.709 Y-15.013
N3435 X588.986 Y-14.638
N3440 X589.207 Y-14.227
N3445 X589.369 Y-13.79
N3450 X589.467 Y-13.334
N3455 X589.5 Y-12.869
N3460 Y-3.993
N3465 G3 X589.321 Y-3.234 I-1.999 J-0.07
N3470 X587.287 Y-2.075 I-1.82 J-0.829
N3475 G1 X536.733 Y-7.523
N3480 G3 X535.075 Y-8.807 I0.214 J-1.988
N3485 X534.948 Y-9.577 I1.872 J-0.705
N3490 G1 X534.989 Y-10.175
N3495 X535.063 Y-11.372
N3500 X535.126 Y-12.569
N3505 X535.142 Y-13.168
N3510 X535.186 Y-14.964
N3515 X535.189 Y-15.562
N3520 X535.224 Y-16.286
N3525 X535.307 Y-16.932
N3530 X535.449 Y-17.602
N3535 X535.675 Y-18.36
N3540 X535.98 Y-19.148
N3545 X536.402 Y-20.023
N3550 X536.921 Y-20.909
N3555 X537.591 Y-21.867
N3560 X538.419 Y-22.868
N3565 X539.4 Y-23.877
N3570 X540.582 Y-24.911
N3575 X541.916 Y-25.903
N3580 X543.323 Y-26.79
N3585 X544.786 Y-27.579
N3590 X546.297 Y-28.275
N3595 X547.844 Y-28.884
N3600 X549.421 Y-29.41
N3605 X551.022 Y-29.858
N3610 X552.643 Y-30.231
N3615 X554.278 Y-30.532
N3620 X555.924 Y-30.764
N3625 X557.579 Y-30.932
N3630 X559.238 Y-31.038
N3635 X560.9 Y-31.084
N3640 X562.563 Y-31.073
N3645 X564.224 Y-31.006
N3650 X565.883 Y-30.884
N3655 X567.536 Y-30.709
N3660 X569.183 Y-30.482
N3665 X570.823 Y-30.205
N3670 X572.453 Y-29.88
N3675 X574.074 Y-29.507
N3680 X575.683 Y-29.089
N3685 X577.28 Y-28.625
N3690 X578.863 Y-28.117
N3695 X580.432 Y-27.565
N3700 X581.984 Y-26.97
N3705 X583.52 Y-26.332
N3710 X585.036 Y-25.65
N3715 X586.526 Y-24.912
N3720 X587.972 Y-24.092
N3725 X588.036 Y-24.049
N3730 X588.401 Y-23.766
N3735 X588.723 Y-23.434
N3740 X588.995 Y-23.061
N3745 X589.213 Y-22.654
N3750 X589.371 Y-22.22
N3755 X589.468 Y-21.768
N3760 X589.5 Y-21.307
N3765 Y-12.869
N3770 G3 X589.321 Y-12.109 I-1.999 J-0.07
N3775 X587.394 Y-10.942 I-1.82 J-0.829
N3780 G1 X537.08 Y-13.639
N3785 G3 X535.369 Y-14.803 I0.107 J-1.997
N3790 X535.189 Y-15.562 I1.818 J-0.833
N3795 G1 X535.188 Y-16.161
N3800 X535.181 Y-16.759
N3805 X535.173 Y-17.358
N3810 X535.162 Y-17.956
N3815 X535.151 Y-18.555
N3820 X535.127 Y-19.153
N3825 X535.026 Y-21.091
N3830 X534.994 Y-21.548
N3835 X534.979 Y-22.115
N3840 X535.012 Y-22.744
N3845 X535.099 Y-23.39
N3850 X535.263 Y-24.145
N3855 X535.496 Y-24.914
N3860 X535.839 Y-25.785
N3865 X536.271 Y-26.668
N3870 X536.841 Y-27.629
N3875 X537.557 Y-28.642
N3880 X538.414 Y-29.667
N3885 X539.461 Y-30.734
N3890 X540.717 Y-31.823
N3895 X542.057 Y-32.807
N3900 X543.464 Y-33.693
N3905 X544.926 Y-34.485
N3910 X546.433 Y-35.189
N3915 X547.976 Y-35.809
N3920 X549.548 Y-36.349
N3925 X551.145 Y-36.813
N3930 X552.761 Y-37.206
N3935 X554.392 Y-37.53
N3940 X556.034 Y-37.789
N3945 X557.685 Y-37.986
N3950 X559.342 Y-38.124
N3955 X561.003 Y-38.205
N3960 X562.665 Y-38.23
N3965 X564.328 Y-38.202
N3970 X565.989 Y-38.122
N3975 X567.646 Y-37.991
N3980 X569.299 Y-37.812
N3985 X570.947 Y-37.585
N3990 X572.587 Y-37.313
N3995 X574.219 Y-36.996
N4000 X575.842 Y-36.635
N4005 X577.455 Y-36.232
N4010 X579.057 Y-35.787
N4015 X580.647 Y-35.299
N4020 X582.223 Y-34.769
N4025 X583.782 Y-34.192
N4030 X585.322 Y-33.565
N4035 X586.829 Y-32.862
N4040 X587.796 Y-32.328
N4045 X588.216 Y-32.053
N4050 X588.589 Y-31.717
N4055 X588.906 Y-31.328
N4060 X589.161 Y-30.896
N4065 X589.348 Y-30.429
N4070 X589.462 Y-29.94
N4075 X589.5 Y-29.44
N4080 Y-21.307
N4085 G3 X589.321 Y-20.547 I-1.999 J-0.07
N4090 X587.486 Y-19.377 I-1.82 J-0.829
N4095 G1 X536.966 Y-19.771
N4100 G3 X535.231 Y-20.804 I0.016 J-2.
N4105 X534.994 Y-21.548 I1.751 J-0.967
N4110 G1 X534.948 Y-22.146
N4115 X534.897 Y-22.745
N4120 X534.843 Y-23.343
N4125 X534.786 Y-23.942
N4130 X534.727 Y-24.54
N4135 X534.659 Y-25.139
N4140 X534.42 Y-26.935
N4145 X534.373 Y-27.264
N4150 X534.32 Y-27.838
N4155 X534.312 Y-28.44
N4160 X534.357 Y-29.097
N4165 X534.468 Y-29.844
N4170 X534.649 Y-30.62
N4175 X534.926 Y-31.487
N4180 X535.298 Y-32.395
N4185 X535.788 Y-33.36
N4190 X536.426 Y-34.4
N4195 X537.199 Y-35.46
N4200 X538.145 Y-36.559
N4205 X539.295 Y-37.696
N4210 X540.567 Y-38.766
N4215 X541.915 Y-39.739
N4220 X543.326 Y-40.62
N4225 X544.788 Y-41.412
N4230 X546.291 Y-42.122
N4235 X547.83 Y-42.752
N4240 X549.398 Y-43.306
N4245 X550.989 Y-43.789
N4250 X552.599 Y-44.203
N4255 X554.225 Y-44.552
N4260 X555.862 Y-44.84
N4265 X557.509 Y-45.069
N4270 X559.163 Y-45.24
N4275 X560.822 Y-45.357
N4280 X562.483 Y-45.422
N4285 X564.146 Y-45.435
N4290 X565.809 Y-45.398
N4295 X567.469 Y-45.313
N4300 X569.127 Y-45.182
N4305 X570.78 Y-45.006
N4310 X572.428 Y-44.786
N4315 X574.07 Y-44.524
N4320 X575.705 Y-44.22
N4325 X577.331 Y-43.875
N4330 X578.949 Y-43.488
N4335 X580.555 Y-43.059
N4340 X582.149 Y-42.584
N4345 X583.726 Y-42.059
N4350 X585.282 Y-41.473
N4355 X586.804 Y-40.803
N4360 X587.749 Y-40.3
N4365 X588.128 Y-40.064
N4370 X588.472 Y-39.78
N4375 X588.774 Y-39.452
N4380 X589.029 Y-39.086
N4385 X589.232 Y-38.689
N4390 X589.38 Y-38.268
N4395 X589.47 Y-37.831
N4400 X589.5 Y-37.386
N4405 Y-29.44
N4410 G3 X589.321 Y-28.68 I-1.999 J-0.07
N4415 X587.575 Y-27.511 I-1.82 J-0.829
N4420 G1 X536.415 Y-25.619
N4425 G3 X534.658 Y-26.537 I-0.074 J-1.999
N4430 X534.373 Y-27.264 I1.683 J-1.08
N4435 G1 X534.334 Y-27.533
N4440 X534.236 Y-28.132
N4445 X534.135 Y-28.73
N4450 X534.03 Y-29.329
N4455 X533.922 Y-29.927
N4460 X533.807 Y-30.526
N4465 X533.688 Y-31.124
N4470 X533.421 Y-32.321
N4475 X533.286 Y-32.92
N4480 X533.229 Y-33.249
N4485 X533.174 Y-33.847
N4490 X533.167 Y-34.485
N4495 X533.219 Y-35.227
N4500 X533.334 Y-35.994
N4505 X533.539 Y-36.869
N4510 X533.828 Y-37.771
N4515 X534.234 Y-38.756
N4520 X534.771 Y-39.812
N4525 X535.434 Y-40.889
N4530 X536.27 Y-42.032
N4535 X537.297 Y-43.222
N4540 X538.481 Y-44.389
N4545 X539.75 Y-45.463
N4550 X541.091 Y-46.446
N4555 X542.492 Y-47.342
N4560 X543.943 Y-48.155
N4565 X545.435 Y-48.888
N4570 X546.962 Y-49.546
N4575 X548.518 Y-50.133
N4580 X550.097 Y-50.652
N4585 X551.697 Y-51.106
N4590 X553.313 Y-51.498
N4595 X554.942 Y-51.832
N4600 X556.581 Y-52.108
N4605 X558.229 Y-52.33
N4610 X559.883 Y-52.498
N4615 X561.542 Y-52.615
N4620 X563.203 Y-52.683
N4625 X564.866 Y-52.703
N4630 X566.529 Y-52.677
N4635 X568.19 Y-52.607
N4640 X569.849 Y-52.493
N4645 X571.504 Y-52.338
N4650 X573.155 Y-52.141
N4655 X574.801 Y-51.904
N4660 X576.44 Y-51.624
N4665 X578.072 Y-51.303
N4670 X579.694 Y-50.939
N4675 X581.305 Y-50.529
N4680 X582.904 Y-50.07
N4685 X584.483 Y-49.551
N4690 X586.035 Y-48.954
N4695 X587.455 Y-48.291
N4700 X587.83 Y-48.079
N4705 X588.242 Y-47.802
N4710 X588.608 Y-47.466
N4715 X588.919 Y-47.079
N4720 X589.169 Y-46.65
N4725 X589.351 Y-46.188
N4730 X589.463 Y-45.704
N4735 X589.5 Y-45.209
N4740 Y-37.386
N4745 G3 X589.321 Y-36.627 I-1.999 J-0.07
N4750 X587.655 Y-35.462 I-1.82 J-0.829
N4755 G1 X535.374 Y-31.434
N4760 G3 X533.628 Y-32.218 I-0.154 J-1.994
N4765 X533.286 Y-32.92 I1.593 J-1.209
N4770 G1 X533.228 Y-33.178
N4775 X533.147 Y-33.519
N4780 X532.824 Y-34.716
N4785 X532.629 Y-35.435
N4790 X532.497 Y-35.913
N4795 X532.123 Y-37.11
N4800 X531.928 Y-37.708
N4805 X531.747 Y-38.375
N4810 X531.64 Y-38.948
N4815 X531.576 Y-39.561
N4820 X531.558 Y-40.283
N4825 X531.6 Y-41.032
N4830 X531.72 Y-41.899
N4835 X531.916 Y-42.79
N4840 X532.22 Y-43.783
N4845 X532.638 Y-44.836
N4850 X533.179 Y-45.933
N4855 X533.881 Y-47.109
N4860 X534.76 Y-48.343
N4865 X535.828 Y-49.614
N4870 X536.997 Y-50.797
N4875 X538.248 Y-51.891
N4880 X539.57 Y-52.9
N4885 X540.95 Y-53.827
N4890 X542.38 Y-54.677
N4895 X543.851 Y-55.452
N4900 X545.357 Y-56.156
N4905 X546.893 Y-56.792
N4910 X548.454 Y-57.364
N4915 X550.037 Y-57.874
N4920 X551.638 Y-58.324
N4925 X553.253 Y-58.717
N4930 X554.882 Y-59.053
N4935 X556.52 Y-59.337
N4940 X558.167 Y-59.57
N4945 X559.819 Y-59.753
N4950 X561.476 Y-59.889
N4955 X563.137 Y-59.978
N4960 X564.799 Y-60.024
N4965 X566.462 Y-60.026
N4970 X568.124 Y-59.986
N4975 X569.785 Y-59.904
N4980 X571.443 Y-59.781
N4985 X573.097 Y-59.618
N4990 X574.748 Y-59.414
N4995 X576.392 Y-59.169
N5000 X578.03 Y-58.882
N5005 X579.66 Y-58.553
N5010 X581.279 Y-58.175
N5015 X582.884 Y-57.742
N5020 X584.472 Y-57.247
N5025 X586.031 Y-56.669
N5030 X587.419 Y-56.038
N5035 X587.802 Y-55.825
N5040 X588.22 Y-55.55
N5045 X588.592 Y-55.214
N5050 X588.909 Y-54.825
N5055 X589.163 Y-54.393
N5060 X589.349 Y-53.928
N5065 X589.462 Y-53.44
N5070 X589.5 Y-52.94
N5075 Y-45.209
N5080 G3 X589.321 Y-44.45 I-1.999 J-0.07
N5085 X587.756 Y-43.295 I-1.82 J-0.829
N5090 G1 X534.061 Y-36.41
N5095 G3 X531.928 Y-37.708 I-0.254 J-1.984
N5100 G1 X531.733 Y-38.307
N5105 X531.521 Y-38.905
N5110 X531.304 Y-39.504
N5115 X530.831 Y-40.73
N5120 X530.604 Y-41.3
N5125 X530.351 Y-41.898
N5130 X530.079 Y-42.497
N5135 X529.847 Y-43.087
N5140 X529.683 Y-43.626
N5145 X529.556 Y-44.205
N5150 X529.463 Y-44.894
N5155 X529.424 Y-45.615
N5160 X529.446 Y-46.461
N5165 X529.539 Y-47.33
N5170 X529.725 Y-48.318
N5175 X530.007 Y-49.348
N5180 X530.408 Y-50.456
N5185 X530.955 Y-51.656
N5190 X531.65 Y-52.903
N5195 X532.514 Y-54.197
N5200 X533.545 Y-55.502
N5205 X534.673 Y-56.723
N5210 X535.884 Y-57.862
N5215 X537.164 Y-58.923
N5220 X538.504 Y-59.908
N5225 X539.895 Y-60.819
N5230 X541.329 Y-61.661
N5235 X542.801 Y-62.434
N5240 X544.306 Y-63.142
N5245 X545.838 Y-63.787
N5250 X547.177 Y-64.289
N5255 X547.554 Y-64.406
N5260 X547.943 Y-64.476
N5265 X548.337 Y-64.5
N5270 X578.782
N5275 X580.443 Y-64.417
N5280 X582.101 Y-64.294
N5285 X583.747 Y-64.058
N5290 X585.205 Y-63.734
N5295 X586.466 Y-63.345
N5300 X587.578 Y-62.902
N5305 X587.664 Y-62.859
N5310 X588.059 Y-62.628
N5315 X588.419 Y-62.344
N5320 X588.736 Y-62.014
N5325 X589.004 Y-61.642
N5330 X589.218 Y-61.237
N5335 X589.373 Y-60.807
N5340 X589.468 Y-60.359
N5345 X589.5 Y-59.902
N5350 Y-52.94
N5355 G3 X589.321 Y-52.181 I-1.999 J-0.07
N5360 X586.023 Y-51.663 I-1.82 J-0.829
N5365 G1 X577.374 Y-61.154
N5370 G3 X578.022 Y-64.321 I1.478 J-1.347
N5375 X578.782 Y-64.5 I0.829 J1.82
N5380 G1 X587.173
N5385 X587.773 Y-64.479
N5390 X588.073 Y-64.411
N5395 X588.372 Y-64.292
N5400 X588.563 Y-64.183
N5405 X588.754 Y-64.044
N5410 X588.972 Y-63.839
N5415 X589.131 Y-63.642
N5420 X589.254 Y-63.446
N5425 X589.387 Y-63.147
N5430 X589.467 Y-62.847
N5435 X589.499 Y-62.548
N5440 X589.5 Y-62.249
N5445 Y-59.902
N5450 G3 X589.321 Y-59.142 I-1.999 J-0.07
N5455 X588.073 Y-58.055 I-1.82 J-0.829
N5460 G1 X532.442 Y-41.469
N5465 G3 X530.556 Y-41.879 I-0.571 J-1.917
N5470 X530.079 Y-42.497 I1.315 J-1.507
N5475 G1 X529.808 Y-43.095
N5480 X529.526 Y-43.694
N5485 X529.24 Y-44.292
N5490 X528.606 Y-45.489
N5495 X528.281 Y-46.088
N5500 X527.944 Y-46.687
N5505 X527.834 Y-46.864
N5510 X527.558 Y-47.364
N5515 X527.338 Y-47.853
N5520 X527.147 Y-48.386
N5525 X526.975 Y-49.023
N5530 X526.85 Y-49.701
N5535 X526.768 Y-50.497
N5540 X526.75 Y-51.329
N5545 X526.805 Y-52.284
N5550 X526.945 Y-53.286
N5555 X527.188 Y-54.379
N5560 X527.557 Y-55.574
N5565 X528.05 Y-56.809
N5570 X528.703 Y-58.127
N5575 X529.541 Y-59.524
N5580 X530.508 Y-60.876
N5585 X531.572 Y-62.154
N5590 X532.72 Y-63.357
N5595 X533.004 Y-63.62
N5600 X533.39 Y-63.927
N5605 X533.816 Y-64.174
N5610 X534.275 Y-64.354
N5615 X534.756 Y-64.463
N5620 X535.247 Y-64.5
N5625 X548.337
N5630 G3 X549.096 Y-64.321 I-0.07 J1.999
N5635 X549.491 Y-60.92 I-0.829 J1.82
N5640 G1 X530.721 Y-46.394
N5645 G3 X528.385 Y-46.313 I-1.224 J-1.582
N5650 X527.834 Y-46.864 I1.111 J-1.663
N5655 G1 X527.203 Y-47.884
N5660 X526.828 Y-48.482
N5665 X526.419 Y-49.081
N5670 X525.552 Y-50.278
N5675 X525.08 Y-50.876
N5680 X524.787 Y-51.289
N5685 X524.529 Y-51.722
N5690 X524.27 Y-52.247
N5695 X524.043 Y-52.822
N5700 X523.835 Y-53.501
N5705 X523.675 Y-54.233
N5710 X523.558 Y-55.083
N5715 X523.509 Y-55.98
N5720 X523.534 Y-57.01
N5725 X523.647 Y-58.075
N5730 X523.87 Y-59.264
N5735 X524.219 Y-60.547
N5740 X524.671 Y-61.798
N5745 X525.188 Y-62.936
N5750 X525.442 Y-63.321
N5755 X525.751 Y-63.664
N5760 X526.109 Y-63.955
N5765 X526.507 Y-64.189
N5770 X526.935 Y-64.361
N5775 X527.385 Y-64.465
N5780 X527.845 Y-64.5
N5785 X535.247
N5790 G3 X536.007 Y-64.321 I-0.07 J1.999
N5795 X536.717 Y-61.224 I-0.829 J1.82
N5800 G1 X528.145 Y-50.892
N5805 G3 X525.691 Y-50.391 I-1.539 J-1.277
N5810 X525.08 Y-50.876 I0.915 J-1.778
N5815 G1 X524.607 Y-51.475
N5820 X523.588 Y-52.672
N5825 X523.039 Y-53.25
N5830 X522.421 Y-53.869
N5835 X522.101 Y-54.179
N5840 X521.687 Y-54.624
N5845 X521.376 Y-55.015
N5850 X521.065 Y-55.48
N5855 X520.765 Y-56.017
N5860 X520.482 Y-56.635
N5865 X520.232 Y-57.32
N5870 X520.016 Y-58.105
N5875 X519.867 Y-58.89
N5880 X519.782 Y-59.674
N5885 X519.761 Y-60.421
N5890 X519.801 Y-61.17
N5895 X519.896 Y-61.886
N5900 X520.046 Y-62.575
N5905 X520.203 Y-62.977
N5910 X520.423 Y-63.349
N5915 X520.699 Y-63.682
N5920 X521.024 Y-63.966
N5925 X521.39 Y-64.195
N5930 X521.788 Y-64.363
N5935 X522.208 Y-64.466
N5940 X522.639 Y-64.5
N5945 X527.845
N5950 G3 X528.605 Y-64.321 I-0.07 J1.999
N5955 X529.465 Y-61.431 I-0.829 J1.82
N5960 G1 X525.132 Y-54.592
N5965 G3 X522.771 Y-53.779 I-1.689 J-1.07
N5970 X522.101 Y-54.179 I0.672 J-1.884
N5975 G1 X521.84 Y-54.433
N5980 X521.24 Y-54.999
N5985 X521.162 Y-55.066
N5990 X520.443 Y-55.665
N5995 X520.042 Y-55.998
N6000 X519.714 Y-56.263
N6005 X518.843 Y-56.898
N6010 X518.44 Y-57.213
N6015 X518.126 Y-57.501
N6020 X517.818 Y-57.834
N6025 X517.507 Y-58.229
N6030 X517.238 Y-58.634
N6035 X516.994 Y-59.075
N6040 X516.792 Y-59.52
N6045 X516.62 Y-59.996
N6050 X516.492 Y-60.47
N6055 X516.398 Y-60.969
N6060 X516.347 Y-61.46
N6065 X516.335 Y-61.969
N6070 X516.344 Y-62.139
N6075 X516.403 Y-62.555
N6080 X516.531 Y-62.956
N6085 X516.724 Y-63.329
N6090 X516.977 Y-63.665
N6095 X517.283 Y-63.954
N6100 X517.633 Y-64.188
N6105 X518.016 Y-64.36
N6110 X518.424 Y-64.465
N6115 X518.843 Y-64.5
N6120 X522.639
N6125 G3 X523.398 Y-64.321 I-0.07 J1.999
N6130 X524.23 Y-61.388 I-0.829 J1.82
N6135 G1 X521.597 Y-57.459
N6140 G3 X518.843 Y-56.898 I-1.661 J-1.114
N6145 G1 X518.243 Y-57.32
N6150 X517.644 Y-57.727
N6155 X517.111 Y-58.059
N6160 X516.445 Y-58.446
N6165 X516.069 Y-58.657
N6170 X515.846 Y-58.78
N6175 X515.485 Y-59.002
N6180 X515.241 Y-59.181
N6185 X515. Y-59.389
N6190 X514.781 Y-59.612
N6195 X514.563 Y-59.872
N6200 X514.372 Y-60.14
N6205 X514.193 Y-60.441
N6210 X514.04 Y-60.753
N6215 X513.908 Y-61.085
N6220 X513.802 Y-61.435
N6225 X513.724 Y-61.79
N6230 X513.672 Y-62.17
N6235 X513.671 Y-62.202
N6240 X513.685 Y-62.595
N6245 X513.769 Y-62.978
N6250 X513.921 Y-63.341
N6255 X514.135 Y-63.67
N6260 X514.405 Y-63.956
N6265 X514.722 Y-64.188
N6270 X515.076 Y-64.359
N6275 X515.454 Y-64.465
N6280 X515.846 Y-64.5
N6285 X518.843
N6290 G3 X519.594 Y-64.295 I-0.059 J1.691
N6295 X520.168 Y-63.781 I-0.81 J1.485
N6300 X516.582 Y-58.51 I-2.789 J1.958
N6305 X515.846 Y-58.78 I0.798 J-3.313
N6310 G1 X515.246 Y-59.109
N6315 X514.961 Y-59.256
N6320 X514.048 Y-59.677
N6325 X513.448 Y-59.937
N6330 X513.155 Y-60.082
N6335 X512.965 Y-60.195
N6340 X512.784 Y-60.324
N6345 X512.596 Y-60.482
N6350 X512.426 Y-60.65
N6355 X512.258 Y-60.845
N6360 X512.103 Y-61.057
N6365 X511.966 Y-61.28
N6370 X511.837 Y-61.533
N6375 X511.732 Y-61.788
N6380 X511.642 Y-62.07
N6385 X511.592 Y-62.422
N6390 X511.607 Y-62.778
N6395 X511.685 Y-63.125
N6400 X511.824 Y-63.453
N6405 X512.019 Y-63.751
N6410 X512.264 Y-64.008
N6415 X512.552 Y-64.218
N6420 X512.872 Y-64.373
N6425 X513.215 Y-64.468
N6430 X513.57 Y-64.5
N6435 X515.846
N6440 G3 X516.577 Y-64.247 I-0.046 J1.317
N6445 X516.988 Y-63.754 I-0.777 J1.064
N6450 X514.21 Y-59.757 I-2.521 J1.211
N6455 X513.448 Y-59.937 I0.257 J-2.785
N6460 G1 X512.849 Y-60.196
N6465 X512.25 Y-60.434
N6470 X511.65 Y-60.641
N6475 X511.35 Y-60.796
N6480 X511.201 Y-60.901
N6485 X511.051 Y-61.028
N6490 X511.026 Y-61.052
N6495 X510.886 Y-61.201
N6500 X510.772 Y-61.351
N6505 X510.601 Y-61.65
N6510 X510.51 Y-61.886
N6515 X510.451 Y-62.122
N6520 X510.432 Y-62.249
N6525 X510.418 Y-62.548
N6530 X510.45 Y-62.847
N6535 X510.451 Y-62.854
N6540 X510.53 Y-63.15
N6545 X510.662 Y-63.446
N6550 X510.824 Y-63.697
N6555 X511.051 Y-63.948
N6560 X511.159 Y-64.044
N6565 X511.405 Y-64.217
N6570 X511.65 Y-64.342
N6575 X511.95 Y-64.442
N6580 X512.25 Y-64.492
N6585 X512.849 Y-64.5
N6590 X513.57
N6595 G3 X514.33 Y-64.321 I-0.07 J1.999
N6600 G1 X514.488 Y-64.249 Z510.508
N6605 X514.646 Y-64.177 Z510.53
N6610 X514.801 Y-64.106 Z510.568
N6615 X514.952 Y-64.037 Z510.621
N6620 X515.099 Y-63.971 Z510.687
N6625 X515.239 Y-63.906 Z510.768
N6630 X515.373 Y-63.845 Z510.862
N6635 X515.499 Y-63.788 Z510.968
N6640 X515.616 Y-63.735 Z511.086
N6645 X515.724 Y-63.686 Z511.214
N6650 X515.82 Y-63.642 Z511.353
N6655 X515.906 Y-63.603 Z511.5
N6660 X515.979 Y-63.569 Z511.655
N6665 X516.04 Y-63.542 Z511.816
N6670 X516.087 Y-63.52 Z511.982
N6675 X516.122 Y-63.504 Z512.153
N6680 X516.142 Y-63.495 Z512.326
N6685 X516.149 Y-63.492 Z512.5
N6690 G0 Z531.
N6695 X553.083 Y63.257
N6700 Z514.5
N6705 G1 Z512.5 F467.
N6710 X553.077 Y63.26 Z512.326
N6715 X553.057 Y63.272 Z512.153
N6720 X553.025 Y63.291 Z511.982
N6725 X552.98 Y63.318 Z511.816
N6730 X552.922 Y63.352 Z511.655
N6735 X552.853 Y63.393 Z511.5
N6740 X552.772 Y63.441 Z511.353
N6745 X552.681 Y63.496 Z511.214
N6750 X552.58 Y63.556 Z511.086
N6755 X552.469 Y63.622 Z510.968
N6760 X552.35 Y63.692 Z510.862
N6765 X552.224 Y63.768 Z510.768
N6770 X552.091 Y63.847 Z510.687
N6775 X551.952 Y63.929 Z510.621
N6780 X551.809 Y64.014 Z510.568
N6785 X551.663 Y64.101 Z510.53
N6790 X551.514 Y64.19 Z510.508
N6795 X551.364 Y64.279 Z510.5
N6800 G3 X550.611 Y64.5 I-0.809 J-1.36
N6805 G1 X538.023
N6810 X536.935 Y64.446
N6815 X535.904 Y64.31
N6820 X534.801 Y64.074
N6825 X533.576 Y63.707
N6830 X532.238 Y63.186
N6835 X530.803 Y62.49
N6840 X529.37 Y61.646
N6845 X528.005 Y60.697
N6850 X526.71 Y59.654
N6855 X525.484 Y58.531
N6860 X524.327 Y57.337
N6865 X523.238 Y56.08
N6870 X522.216 Y54.768
N6875 X521.261 Y53.407
N6880 X520.373 Y52.001
N6885 X519.554 Y50.555
N6890 X518.802 Y49.072
N6895 X518.117 Y47.556
N6900 X517.499 Y46.013
N6905 X516.947 Y44.444
N6910 X516.461 Y42.854
N6915 X516.044 Y41.244
N6920 X515.695 Y39.619
N6925 X515.572 Y38.9
N6930 X515.525 Y38.404
N6935 X515.553 Y37.907
N6940 X515.656 Y37.419
N6945 X515.831 Y36.953
N6950 X516.074 Y36.518
N6955 X516.379 Y36.125
N6960 X516.572 Y35.913
N6965 X517.045 Y35.384
N6970 X517.644 Y34.661
N6975 X518.243 Y33.935
N6980 X519.063 Y32.92
N6985 X519.442 Y32.432
N6990 X520.641 Y30.829
N6995 X520.863 Y30.526
N7000 X521.24 Y29.991
N7005 X522.473 Y28.172
N7010 X522.526 Y28.092
N7015 X522.655 Y27.896
N7020 G3 X523.221 Y27.359 I1.633 J1.154
N7025 X526.139 Y28.294 I1.067 J1.692
N7030 G1 X539.805 Y61.745
N7035 G3 X538.783 Y64.321 I-1.851 J0.756
N7040 X538.023 Y64.5 I-0.829 J-1.82
N7045 G1 X529.032
N7050 X527.953 Y64.446
N7055 X527.091 Y64.333
N7060 X526.17 Y64.136
N7065 X525.133 Y63.825
N7070 X524.014 Y63.39
N7075 X522.824 Y62.812
N7080 X521.54 Y62.056
N7085 X520.179 Y61.1
N7090 X518.899 Y60.038
N7095 X517.699 Y58.887
N7100 X516.577 Y57.661
N7105 X515.529 Y56.37
N7110 X514.554 Y55.023
N7115 X513.651 Y53.626
N7120 X512.818 Y52.187
N7125 X512.053 Y50.711
N7130 X511.354 Y49.202
N7135 X510.72 Y47.665
N7140 X510.163 Y46.099
N7145 X509.856 Y45.013
N7150 X509.763 Y44.562
N7155 X509.732 Y44.103
N7160 X509.767 Y43.644
N7165 X509.864 Y43.194
N7170 X510.023 Y42.762
N7175 X510.241 Y42.357
N7180 X510.513 Y41.985
N7185 X510.835 Y41.655
N7190 X511.051 Y41.463
N7195 X511.893 Y40.701
N7200 X512.25 Y40.376
N7205 X512.544 Y40.103
N7210 X512.849 Y39.807
N7215 X514.354 Y38.307
N7220 X514.647 Y38.009
N7225 X514.934 Y37.708
N7230 X515.246 Y37.372
N7235 X516.222 Y36.299
N7240 X516.379 Y36.125
N7245 G3 X517.022 Y35.683 I1.434 J1.394
N7250 X519.64 Y36.704 I0.791 J1.837
N7255 G1 X530.789 Y61.686
N7260 G3 X529.032 Y64.5 I-1.826 J0.815
N7265 G1 X520.641
N7270 X519.869 Y64.461
N7275 X519.065 Y64.356
N7280 X518.217 Y64.175
N7285 X517.256 Y63.887
N7290 X516.231 Y63.488
N7295 X515.133 Y62.955
N7300 X513.946 Y62.256
N7305 X512.686 Y61.37
N7310 X511.406 Y60.308
N7315 X510.213 Y59.15
N7320 X509.103 Y57.912
N7325 X508.074 Y56.607
N7330 X507.123 Y55.242
N7335 X506.253 Y53.825
N7340 X505.472 Y52.357
N7345 X505.141 Y51.595
N7350 X504.667 Y50.355
N7355 X504.33 Y49.202
N7360 X504.321 Y49.162
N7365 X504.259 Y48.696
N7370 X504.263 Y48.226
N7375 X504.335 Y47.761
N7380 X504.471 Y47.311
N7385 X504.67 Y46.886
N7390 X504.927 Y46.493
N7395 X505.238 Y46.14
N7400 X505.596 Y45.835
N7405 X506.875 Y44.891
N7410 X507.454 Y44.451
N7415 X508.417 Y43.694
N7420 X509.852 Y42.52
N7425 G3 X510.553 Y42.177 I1.212 J1.591
N7430 X512.84 Y43.193 I0.511 J1.934
N7435 G1 X522.348 Y61.583
N7440 G3 X520.641 Y64.5 I-1.777 J0.918
N7445 G1 X512.849
N7450 X512.158 Y64.465
N7455 X511.384 Y64.364
N7460 X510.572 Y64.19
N7465 X509.655 Y63.916
N7470 X508.675 Y63.534
N7475 X507.634 Y63.029
N7480 X506.512 Y62.368
N7485 X505.344 Y61.548
N7490 X504.226 Y60.62
N7495 X503.11 Y59.531
N7500 X502.07 Y58.338
N7505 X501.208 Y57.174
N7510 X500.532 Y56.087
N7515 X499.993 Y55.044
N7520 X499.573 Y54.039
N7525 X499.259 Y53.076
N7530 X499.038 Y52.154
N7535 X499.002 Y51.714
N7540 X499.032 Y51.274
N7545 X499.127 Y50.843
N7550 X499.285 Y50.431
N7555 X499.502 Y50.047
N7560 X499.773 Y49.7
N7565 X500.093 Y49.396
N7570 X500.455 Y49.144
N7575 X502.06 Y48.189
N7580 X502.551 Y47.884
N7585 X503.465 Y47.285
N7590 X504.457 Y46.626
N7595 X505.057 Y46.222
N7600 X505.252 Y46.088
N7605 X505.596 Y45.835
N7610 G3 X506.313 Y45.528 I1.129 J1.651
N7615 X508.58 Y46.738 I0.411 J1.957
N7620 G1 X514.634 Y61.753
N7625 G3 X513.608 Y64.321 I-1.855 J0.748
N7630 X512.849 Y64.5 I-0.829 J-1.82
N7635 G1 X505.656
N7640 X504.728 Y64.454
N7645 X504.016 Y64.36
N7650 X503.264 Y64.199
N7655 X502.454 Y63.957
N7660 X501.593 Y63.621
N7665 X500.734 Y63.205
N7670 X499.844 Y62.681
N7675 X498.948 Y62.051
N7680 X498.082 Y61.332
N7685 X497.255 Y60.526
N7690 X496.508 Y59.669
N7695 X495.878 Y58.819
N7700 X495.361 Y57.986
N7705 X494.94 Y57.17
N7710 X494.594 Y56.343
N7715 X494.33 Y55.536
N7720 X494.142 Y54.751
N7725 X494.106 Y54.269
N7730 X494.148 Y53.788
N7735 X494.266 Y53.319
N7740 X494.458 Y52.876
N7745 X494.719 Y52.469
N7750 X495.041 Y52.109
N7755 X495.417 Y51.805
N7760 X495.837 Y51.566
N7765 X496.066 Y51.459
N7770 X496.665 Y51.173
N7775 X497.269 Y50.876
N7780 X499.063 Y49.927
N7785 X499.528 Y49.679
N7790 X499.662 Y49.605
N7795 X500.294 Y49.239
N7800 X500.455 Y49.144
N7805 G3 X501.199 Y48.91 I0.961 J1.754
N7810 X503.298 Y50.221 I0.216 J1.988
N7815 G1 X507.469 Y61.825
N7820 G3 X506.416 Y64.321 I-1.882 J0.677
N7825 X505.656 Y64.5 I-0.829 J-1.82
N7830 G1 X498.464
N7835 X498.13 Y64.483
N7840 X497.521 Y64.403
N7845 X496.895 Y64.27
N7850 X496.23 Y64.07
N7855 X495.529 Y63.798
N7860 X494.83 Y63.458
N7865 X494.124 Y63.043
N7870 X493.412 Y62.542
N7875 X492.715 Y61.964
N7880 X492.103 Y61.367
N7885 X491.544 Y60.726
N7890 X491.069 Y60.084
N7895 X490.654 Y59.417
N7900 X490.305 Y58.74
N7905 X490.022 Y58.063
N7910 X489.794 Y57.365
N7915 X489.632 Y56.689
N7920 X489.584 Y56.383
N7925 X489.553 Y55.936
N7930 X489.599 Y55.49
N7935 X489.721 Y55.059
N7940 X489.916 Y54.655
N7945 X490.176 Y54.29
N7950 X490.496 Y53.976
N7955 X490.864 Y53.721
N7960 X491.271 Y53.533
N7965 X491.922 Y53.271
N7970 X493.668 Y52.556
N7975 X494.268 Y52.294
N7980 X494.753 Y52.073
N7985 X495.837 Y51.566
N7990 G3 X498.584 Y53.023 I0.784 J1.84
N7995 G1 X500.357 Y62.119
N8000 G3 X499.223 Y64.321 I-1.963 J0.383
N8005 X498.464 Y64.5 I-0.829 J-1.82
N8010 G1 X493.069
N8015 X492.436 Y64.468
N8020 X491.932 Y64.402
N8025 X491.414 Y64.292
N8030 X490.867 Y64.128
N8035 X490.292 Y63.904
N8040 X489.716 Y63.624
N8045 X489.139 Y63.284
N8050 X488.556 Y62.875
N8055 X488.013 Y62.424
N8060 X487.502 Y61.925
N8065 X487.06 Y61.419
N8070 X486.653 Y60.869
N8075 X486.313 Y60.323
N8080 X486.012 Y59.739
N8085 X485.773 Y59.167
N8090 X485.575 Y58.562
N8095 X485.435 Y57.978
N8100 X485.384 Y57.649
N8105 X485.356 Y57.218
N8110 X485.405 Y56.789
N8115 X485.53 Y56.375
N8120 X485.726 Y55.99
N8125 X485.989 Y55.646
N8130 X486.308 Y55.355
N8135 X486.674 Y55.125
N8140 X487.075 Y54.964
N8145 X487.674 Y54.784
N8150 X488.274 Y54.599
N8155 X488.873 Y54.389
N8160 X490.072 Y53.966
N8165 X491.271 Y53.533
N8170 G3 X493.86 Y55.125 I0.614 J1.903
N8175 G1 X494.975 Y62.19
N8180 G3 X493.829 Y64.321 I-1.976 J0.312
N8185 X493.069 Y64.5 I-0.829 J-1.82
N8190 G1 X487.944
N8195 X487.552 Y64.48
N8200 X487.128 Y64.425
N8205 X486.677 Y64.328
N8210 X486.198 Y64.185
N8215 X485.71 Y63.995
N8220 X485.217 Y63.755
N8225 X484.713 Y63.459
N8230 X484.229 Y63.119
N8235 X483.766 Y62.734
N8240 X483.35 Y62.329
N8245 X482.967 Y61.89
N8250 X482.629 Y61.432
N8255 X482.33 Y60.952
N8260 X482.073 Y60.455
N8265 X481.861 Y59.948
N8270 X481.69 Y59.423
N8275 X481.565 Y58.902
N8280 X481.557 Y58.852
N8285 X481.526 Y58.429
N8290 X481.565 Y58.008
N8295 X481.673 Y57.598
N8300 X481.846 Y57.212
N8305 X482.08 Y56.859
N8310 X482.369 Y56.549
N8315 X482.704 Y56.291
N8320 X483.078 Y56.091
N8325 X483.479 Y55.956
N8330 X484.078 Y55.806
N8335 X484.677 Y55.655
N8340 X485.277 Y55.502
N8345 X486.736 Y55.066
N8350 X487.075 Y54.964
N8355 G3 X489.58 Y56.795 I0.508 J1.934
N8360 G1 X489.872 Y62.397
N8365 G3 X488.704 Y64.321 I-1.997 J0.104
N8370 X487.944 Y64.5 I-0.829 J-1.82
N8375 G1 X483.479
N8380 X483.242 Y64.488
N8385 X482.86 Y64.438
N8390 X482.457 Y64.352
N8395 X482.042 Y64.228
N8400 X481.612 Y64.06
N8405 X481.168 Y63.844
N8410 X480.753 Y63.6
N8415 X480.345 Y63.313
N8420 X479.971 Y63.003
N8425 X479.615 Y62.656
N8430 X479.295 Y62.289
N8435 X478.999 Y61.889
N8440 X478.741 Y61.474
N8445 X478.513 Y61.033
N8450 X478.324 Y60.58
N8455 X478.17 Y60.11
N8460 X478.055 Y59.631
N8465 X478.02 Y59.401
N8470 X477.992 Y59.004
N8475 X478.032 Y58.607
N8480 X478.138 Y58.223
N8485 X478.308 Y57.863
N8490 X478.536 Y57.536
N8495 X478.816 Y57.253
N8500 X479.141 Y57.021
N8505 X479.499 Y56.848
N8510 X479.882 Y56.738
N8515 X481.081 Y56.499
N8520 X481.681 Y56.377
N8525 X482.28 Y56.242
N8530 X482.879 Y56.105
N8535 X483.479 Y55.956
N8540 G3 X485.883 Y58.122 I0.416 J1.956
N8545 G1 X485.398 Y62.712
N8550 G3 X484.238 Y64.321 I-1.989 J-0.21
N8555 X483.479 Y64.5 I-0.829 J-1.82
N8560 G1 X479.882
N8565 X479.391 Y64.475
N8570 X479.056 Y64.432
N8575 X478.705 Y64.356
N8580 X478.329 Y64.244
N8585 X477.943 Y64.093
N8590 X477.557 Y63.906
N8595 X477.182 Y63.686
N8600 X476.813 Y63.426
N8605 X476.478 Y63.148
N8610 X476.152 Y62.83
N8615 X475.864 Y62.5
N8620 X475.592 Y62.132
N8625 X475.359 Y61.758
N8630 X475.149 Y61.351
N8635 X474.977 Y60.939
N8640 X474.835 Y60.506
N8645 X474.73 Y60.067
N8650 X474.701 Y59.633
N8655 X474.749 Y59.2
N8660 X474.872 Y58.783
N8665 X475.066 Y58.393
N8670 X475.326 Y58.044
N8675 X475.643 Y57.745
N8680 X476.007 Y57.507
N8685 X476.408 Y57.337
N8690 X476.832 Y57.239
N8695 X476.885 Y57.232
N8700 X478.084 Y57.049
N8705 X478.684 Y56.956
N8710 G3 X479.468 Y56.939 I0.477 J3.971
N8715 X482.927 Y62.275 I-0.307 J3.988
N8720 X480.657 Y64.381 I-3.162 J-1.132
N8725 X479.882 Y64.5 I-0.892 J-3.238
N8730 G1 X476.286
N8735 X475.89 Y64.48
N8740 X475.574 Y64.439
N8745 X475.245 Y64.368
N8750 X474.904 Y64.266
N8755 X474.544 Y64.126
N8760 X474.209 Y63.964
N8765 X473.869 Y63.763
N8770 X473.551 Y63.54
N8775 X473.246 Y63.287
N8780 X472.957 Y63.004
N8785 X472.696 Y62.706
N8790 X472.447 Y62.369
N8795 X472.234 Y62.027
N8800 X472.038 Y61.647
N8805 X471.878 Y61.264
N8810 X471.746 Y60.859
N8815 X471.646 Y60.443
N8820 X471.58 Y60.023
N8825 X471.585 Y59.639
N8830 X471.654 Y59.261
N8835 X471.787 Y58.9
N8840 X471.98 Y58.568
N8845 X472.226 Y58.273
N8850 X472.519 Y58.024
N8855 X472.85 Y57.829
N8860 X473.209 Y57.693
N8865 X473.586 Y57.621
N8870 X475.108 Y57.46
N8875 X475.687 Y57.394
N8880 X476.286 Y57.315
N8885 X476.832 Y57.239
N8890 G3 X477.606 Y57.328 I0.186 J1.802
N8895 X477.828 Y57.421 I-0.589 J1.713
N8900 X476.286 Y64.5 I-1.673 J3.343
N8905 G1 X472.959
N8910 X472.657 Y64.485
N8915 X472.367 Y64.447
N8920 X472.056 Y64.38
N8925 X471.736 Y64.284
N8930 X471.406 Y64.156
N8935 X471.064 Y63.99
N8940 X470.749 Y63.805
N8945 X470.431 Y63.581
N8950 X470.141 Y63.341
N8955 X469.862 Y63.068
N8960 X469.606 Y62.775
N8965 X469.373 Y62.46
N8970 X469.162 Y62.121
N8975 X468.982 Y61.771
N8980 X468.824 Y61.394
N8985 X468.701 Y61.018
N8990 X468.604 Y60.613
N8995 X468.542 Y60.217
N9000 X468.548 Y59.824
N9005 X468.622 Y59.438
N9010 X468.764 Y59.071
N9015 X468.967 Y58.734
N9020 X469.227 Y58.439
N9025 X469.535 Y58.194
N9030 X469.881 Y58.007
N9035 X470.254 Y57.884
N9040 X470.644 Y57.828
N9045 X470.891 Y57.815
N9050 X471.491 Y57.779
N9055 X472.09 Y57.741
N9060 X472.69 Y57.702
N9065 X473.289 Y57.652
N9070 X473.586 Y57.621
N9075 G3 X474.355 Y57.744 I0.119 J1.71
N9080 X474.517 Y57.821 I-0.649 J1.586
N9085 X472.959 Y64.5 I-1.682 J3.129
N9090 G1 X469.962
N9095 X469.547 Y64.479
N9100 X469.269 Y64.443
N9105 X468.97 Y64.379
N9110 X468.658 Y64.285
N9115 X468.339 Y64.161
N9120 X468.015 Y64.004
N9125 X467.714 Y63.827
N9130 X467.408 Y63.612
N9135 X467.131 Y63.382
N9140 X466.86 Y63.118
N9145 X466.614 Y62.836
N9150 X466.389 Y62.532
N9155 X466.185 Y62.203
N9160 X466.011 Y61.867
N9165 X465.857 Y61.499
N9170 X465.738 Y61.134
N9175 X465.644 Y60.74
N9180 X465.583 Y60.351
N9185 X465.59 Y59.941
N9190 X465.67 Y59.539
N9195 X465.821 Y59.158
N9200 X466.038 Y58.811
N9205 X466.315 Y58.508
N9210 X466.641 Y58.26
N9215 X467.007 Y58.075
N9220 X467.4 Y57.958
N9225 X467.808 Y57.915
N9230 X469.093 Y57.894
N9235 X469.693 Y57.874
N9240 X470.292 Y57.847
N9245 X470.644 Y57.828
N9250 G3 X471.451 Y58.021 I0.03 J1.661
N9255 X470.737 Y64.384 I-1.608 J3.041
N9260 X469.962 Y64.5 I-0.895 J-3.322
N9265 G1 X466.817
N9270 X466.541 Y64.486
N9275 X466.271 Y64.451
N9280 X465.98 Y64.389
N9285 X465.675 Y64.297
N9290 X465.362 Y64.175
N9295 X465.05 Y64.024
N9300 X464.757 Y63.851
N9305 X464.458 Y63.642
N9310 X464.188 Y63.417
N9315 X463.923 Y63.158
N9320 X463.681 Y62.882
N9325 X463.461 Y62.584
N9330 X463.259 Y62.259
N9335 X463.089 Y61.93
N9340 X462.936 Y61.564
N9345 X462.818 Y61.202
N9350 X462.725 Y60.816
N9355 X462.664 Y60.425
N9360 X462.65 Y60.236
N9365 X462.658 Y59.829
N9370 X462.74 Y59.431
N9375 X462.895 Y59.055
N9380 X463.117 Y58.714
N9385 X463.398 Y58.42
N9390 X463.729 Y58.183
N9395 X464.097 Y58.012
N9400 X464.492 Y57.911
N9405 X464.898 Y57.886
N9410 X465.497 Y57.902
N9415 X466.096 Y57.914
N9420 X466.696 Y57.926
N9425 X467.295 Y57.923
N9430 X467.808 Y57.915
N9435 G3 X468.56 Y58.113 I-0.03 J1.638
N9440 X468.744 Y58.23 I-0.782 J1.439
N9445 X467.592 Y64.384 I-2.048 J2.802
N9450 X466.817 Y64.5 I-0.896 J-3.353
N9455 G1 X463.969
N9460 X463.592 Y64.481
N9465 X463.327 Y64.446
N9470 X463.043 Y64.386
N9475 X462.742 Y64.296
N9480 X462.434 Y64.175
N9485 X462.123 Y64.025
N9490 X461.822 Y63.848
N9495 X461.516 Y63.633
N9500 X461.238 Y63.402
N9505 X460.971 Y63.141
N9510 X460.723 Y62.857
N9515 X460.503 Y62.559
N9520 X460.296 Y62.227
N9525 X460.123 Y61.892
N9530 X459.971 Y61.528
N9535 X459.85 Y61.157
N9540 X459.759 Y60.778
N9545 X459.697 Y60.38
N9550 X459.668 Y59.993
N9555 X459.669 Y59.804
N9560 X459.705 Y59.427
N9565 X459.809 Y59.063
N9570 X459.977 Y58.724
N9575 X460.204 Y58.421
N9580 X460.481 Y58.163
N9585 X460.801 Y57.96
N9590 X461.151 Y57.818
N9595 X461.522 Y57.742
N9600 X461.901 Y57.734
N9605 X463.099 Y57.818
N9610 X463.699 Y57.845
N9615 X464.298 Y57.868
N9620 X464.898 Y57.886
N9625 G3 X465.64 Y58.118 I-0.107 J1.645
N9630 X465.657 Y58.128 I-0.849 J1.413
N9635 X463.969 Y64.5 I-1.808 J2.931
N9640 G1 X460.972
N9645 X460.641 Y64.483
N9650 X460.374 Y64.448
N9655 X460.086 Y64.387
N9660 X459.783 Y64.296
N9665 X459.472 Y64.175
N9670 X459.156 Y64.022
N9675 X458.835 Y63.833
N9680 X458.527 Y63.616
N9685 X458.224 Y63.365
N9690 X457.946 Y63.094
N9695 X457.69 Y62.8
N9700 X457.453 Y62.48
N9705 X457.249 Y62.151
N9710 X457.062 Y61.789
N9715 X456.911 Y61.429
N9720 X456.784 Y61.04
N9725 X456.691 Y60.652
N9730 X456.629 Y60.252
N9735 X456.598 Y59.846
N9740 X456.601 Y59.446
N9745 X456.668 Y59.067
N9750 X456.8 Y58.705
N9755 X456.995 Y58.373
N9760 X457.245 Y58.08
N9765 X457.543 Y57.836
N9770 X457.879 Y57.648
N9775 X458.243 Y57.523
N9780 X458.623 Y57.464
N9785 X459.008 Y57.472
N9790 X459.503 Y57.528
N9795 X460.702 Y57.648
N9800 X461.301 Y57.692
N9805 X461.901 Y57.734
N9810 G3 X462.541 Y57.935 I-0.177 J1.681
N9815 X462.636 Y57.99 I-1.691 J3.066
N9820 X460.972 Y64.5 I-1.787 J3.011
N9825 G1 X457.975
N9830 X457.621 Y64.482
N9835 X457.346 Y64.446
N9840 X457.048 Y64.383
N9845 X456.738 Y64.29
N9850 X456.421 Y64.166
N9855 X456.097 Y64.009
N9860 X455.765 Y63.814
N9865 X455.434 Y63.581
N9870 X455.128 Y63.327
N9875 X454.837 Y63.043
N9880 X454.569 Y62.736
N9885 X454.329 Y62.411
N9890 X454.109 Y62.058
N9895 X453.924 Y61.7
N9900 X453.761 Y61.309
N9905 X453.635 Y60.923
N9910 X453.536 Y60.51
N9915 X453.472 Y60.101
N9920 X453.44 Y59.68
N9925 X453.443 Y59.259
N9930 X453.479 Y58.842
N9935 X453.572 Y58.481
N9940 X453.726 Y58.142
N9945 X453.936 Y57.835
N9950 X454.195 Y57.568
N9955 X454.497 Y57.35
N9960 X454.832 Y57.187
N9965 X455.19 Y57.084
N9970 X455.56 Y57.045
N9975 X455.932 Y57.069
N9980 X457.105 Y57.25
N9985 X458.304 Y57.393
N9990 X459.008 Y57.472
N9995 G3 X459.743 Y57.735 I-0.292 J1.979
N10000 X460.649 Y59.965 I-1.027 J1.716
N10005 G1 X459.838 Y63.015
N10010 G3 X458.734 Y64.321 I-1.933 J-0.514
N10015 X457.975 Y64.5 I-0.829 J-1.82
N10020 G1 X454.708
N10025 X454.524 Y64.491
N10030 X454.237 Y64.453
N10035 X453.93 Y64.388
N10040 X453.612 Y64.292
N10045 X453.287 Y64.165
N10050 X452.951 Y64.003
N10055 X452.608 Y63.801
N10060 X452.268 Y63.562
N10065 X451.935 Y63.286
N10070 X451.616 Y62.974
N10075 X451.33 Y62.647
N10080 X451.063 Y62.286
N10085 X450.835 Y61.919
N10090 X450.628 Y61.519
N10095 X450.462 Y61.12
N10100 X450.322 Y60.692
N10105 X450.221 Y60.27
N10110 X450.152 Y59.828
N10115 X450.119 Y59.392
N10120 X450.122 Y58.949
N10125 X450.16 Y58.51
N10130 X450.171 Y58.445
N10135 X450.275 Y58.047
N10140 X450.447 Y57.672
N10145 X450.684 Y57.335
N10150 X450.976 Y57.044
N10155 X451.315 Y56.809
N10160 X451.689 Y56.638
N10165 X452.089 Y56.536
N10170 X452.5 Y56.506
N10175 X452.91 Y56.548
N10180 X453.509 Y56.665
N10185 X454.595 Y56.862
N10190 X454.708 Y56.881
N10195 X455.932 Y57.069
N10200 G3 X457.492 Y59.547 I-0.373 J1.965
N10205 G1 X456.571 Y63.014
N10210 G3 X454.708 Y64.5 I-1.933 J-0.513
N10215 G1 X451.711
N10220 X451.299 Y64.479
N10225 X450.996 Y64.44
N10230 X450.677 Y64.371
N10235 X450.347 Y64.273
N10240 X450.005 Y64.139
N10245 X449.65 Y63.967
N10250 X449.293 Y63.757
N10255 X448.94 Y63.509
N10260 X448.593 Y63.221
N10265 X448.252 Y62.888
N10270 X447.948 Y62.54
N10275 X447.661 Y62.152
N10280 X447.415 Y61.756
N10285 X447.196 Y61.333
N10290 X447.016 Y60.9
N10295 X446.87 Y60.454
N10300 X446.759 Y59.994
N10305 X446.688 Y59.536
N10310 X446.652 Y59.06
N10315 X446.655 Y58.602
N10320 X446.696 Y58.124
N10325 X446.772 Y57.673
N10330 X446.912 Y57.269
N10335 X447.119 Y56.895
N10340 X447.388 Y56.562
N10345 X447.709 Y56.281
N10350 X448.075 Y56.059
N10355 X448.473 Y55.903
N10360 X448.892 Y55.819
N10365 X449.319 Y55.807
N10370 X449.742 Y55.869
N10375 X450.512 Y56.052
N10380 X451.112 Y56.189
N10385 X452.31 Y56.431
N10390 X452.91 Y56.548
N10395 G3 X453.621 Y56.87 I-0.452 J1.948
N10400 X454.417 Y58.896 I-1.163 J1.627
N10405 G1 X453.601 Y62.901
N10410 G3 X452.471 Y64.321 I-1.96 J-0.4
N10415 X451.711 Y64.5 I-0.829 J-1.82
N10420 G1 X448.384
N10425 X447.944 Y64.478
N10430 X447.626 Y64.436
N10435 X447.295 Y64.365
N10440 X446.949 Y64.262
N10445 X446.584 Y64.12
N10450 X446.213 Y63.94
N10455 X445.841 Y63.721
N10460 X445.471 Y63.46
N10465 X445.102 Y63.154
N10470 X444.742 Y62.803
N10475 X444.399 Y62.41
N10480 X444.09 Y61.992
N10485 X443.817 Y61.553
N10490 X443.579 Y61.092
N10495 X443.382 Y60.622
N10500 X443.221 Y60.13
N10505 X443.104 Y59.641
N10510 X443.024 Y59.13
N10515 X442.987 Y58.635
N10520 X442.99 Y58.118
N10525 X443.033 Y57.627
N10530 X443.118 Y57.12
N10535 X443.238 Y56.644
N10540 X443.256 Y56.591
N10545 X443.425 Y56.203
N10550 X443.657 Y55.849
N10555 X443.946 Y55.539
N10560 X444.282 Y55.281
N10565 X444.656 Y55.084
N10570 X445.059 Y54.953
N10575 X445.478 Y54.891
N10580 X445.901 Y54.901
N10585 X446.316 Y54.981
N10590 X446.916 Y55.148
N10595 X447.515 Y55.313
N10600 X448.115 Y55.472
N10605 X448.714 Y55.626
N10610 X449.742 Y55.869
N10615 G3 X451.178 Y58.174 I-0.529 J1.929
N10620 G1 X450.279 Y62.877
N10625 G3 X449.144 Y64.321 I-1.964 J-0.375
N10630 X448.384 Y64.5 I-0.829 J-1.82
N10635 G1 X444.788
N10640 X444.432 Y64.482
N10645 X444.101 Y64.439
N10650 X443.752 Y64.364
N10655 X443.377 Y64.252
N10660 X442.991 Y64.101
N10665 X442.601 Y63.912
N10670 X442.205 Y63.679
N10675 X441.804 Y63.398
N10680 X441.41 Y63.071
N10685 X441.031 Y62.7
N10690 X440.669 Y62.286
N10695 X440.325 Y61.821
N10700 X440.008 Y61.311
N10705 X439.742 Y60.797
N10710 X439.513 Y60.249
N10715 X439.338 Y59.711
N10720 X439.202 Y59.146
N10725 X439.117 Y58.598
N10730 X439.074 Y58.03
N10735 X439.077 Y57.486
N10740 X439.126 Y56.927
N10745 X439.214 Y56.399
N10750 X439.349 Y55.864
N10755 X439.519 Y55.363
N10760 X439.561 Y55.265
N10765 X439.758 Y54.897
N10770 X440.012 Y54.566
N10775 X440.318 Y54.281
N10780 X440.666 Y54.05
N10785 X441.047 Y53.88
N10790 X441.451 Y53.775
N10795 X441.867 Y53.738
N10800 X442.283 Y53.769
N10805 X442.689 Y53.869
N10810 X444.558 Y54.468
N10815 X445.118 Y54.641
N10820 X445.717 Y54.812
N10825 X446.316 Y54.981
N10830 G3 X446.999 Y55.36 I-0.611 J1.904
N10835 X447.675 Y57.232 I-1.293 J1.526
N10840 G1 X446.688 Y62.848
N10845 G3 X445.548 Y64.321 I-1.97 J-0.346
N10850 X444.788 Y64.5 I-0.829 J-1.82
N10855 G1 X441.192
N10860 X440.732 Y64.477
N10865 X440.384 Y64.431
N10870 X440.001 Y64.349
N10875 X439.601 Y64.23
N10880 X439.194 Y64.071
N10885 X438.769 Y63.865
N10890 X438.335 Y63.61
N10895 X437.907 Y63.308
N10900 X437.486 Y62.96
N10905 X437.074 Y62.558
N10910 X436.676 Y62.101
N10915 X436.304 Y61.598
N10920 X435.964 Y61.051
N10925 X435.659 Y60.461
N10930 X435.396 Y59.831
N10935 X435.19 Y59.202
N10940 X435.036 Y58.559
N10945 X434.938 Y57.929
N10950 X434.891 Y57.298
N10955 X434.894 Y56.679
N10960 X434.946 Y56.073
N10965 X435.046 Y55.477
N10970 X435.19 Y54.906
N10975 X435.38 Y54.347
N10980 X435.607 Y53.821
N10985 X435.847 Y53.445
N10990 X436.145 Y53.113
N10995 X436.492 Y52.834
N11000 X436.88 Y52.615
N11005 X437.298 Y52.461
N11010 X437.736 Y52.377
N11015 X438.181 Y52.364
N11020 X438.623 Y52.424
N11025 X439.049 Y52.554
N11030 X439.124 Y52.584
N11035 X439.723 Y52.813
N11040 X440.323 Y53.035
N11045 X440.974 Y53.271
N11050 X441.521 Y53.466
N11055 X442.121 Y53.679
N11060 X442.689 Y53.869
N11065 G3 X443.352 Y54.28 I-0.702 J1.873
N11070 X443.971 Y55.996 I-1.365 J1.462
N11075 G1 X443.106 Y62.755
N11080 G3 X441.192 Y64.5 I-1.984 J-0.254
N11085 G1 X437.326
N11090 X436.818 Y64.475
N11095 X436.438 Y64.425
N11100 X436.03 Y64.338
N11105 X435.61 Y64.212
N11110 X435.16 Y64.037
N11115 X434.698 Y63.812
N11120 X434.236 Y63.54
N11125 X433.769 Y63.212
N11130 X433.301 Y62.824
N11135 X432.849 Y62.383
N11140 X432.42 Y61.891
N11145 X432.016 Y61.344
N11150 X431.64 Y60.741
N11155 X431.303 Y60.088
N11160 X431.012 Y59.392
N11165 X430.772 Y58.658
N11170 X430.596 Y57.923
N11175 X430.482 Y57.189
N11180 X430.429 Y56.486
N11185 X430.433 Y55.773
N11190 X430.491 Y55.103
N11195 X430.604 Y54.429
N11200 X430.763 Y53.798
N11205 X430.973 Y53.178
N11210 X431.225 Y52.596
N11215 X431.52 Y52.039
N11220 X431.653 Y51.83
N11225 X431.902 Y51.5
N11230 X432.2 Y51.213
N11235 X432.538 Y50.975
N11240 X432.91 Y50.793
N11245 X433.305 Y50.67
N11250 X433.714 Y50.611
N11255 X434.128 Y50.616
N11260 X434.536 Y50.685
N11265 X434.928 Y50.817
N11270 X438.524 Y52.346
N11275 X439.049 Y52.554
N11280 G3 X440.232 Y54.629 I-0.802 J1.832
N11285 G1 X439.241 Y62.744
N11290 G3 X438.085 Y64.321 I-1.985 J-0.242
N11295 X437.326 Y64.5 I-0.829 J-1.82
N11300 G1 X433.13
N11305 X432.655 Y64.476
N11310 X432.247 Y64.423
N11315 X431.824 Y64.332
N11320 X431.364 Y64.194
N11325 X430.882 Y64.007
N11330 X430.394 Y63.77
N11335 X429.884 Y63.47
N11340 X429.371 Y63.109
N11345 X428.87 Y62.694
N11350 X428.379 Y62.214
N11355 X427.9 Y61.666
N11360 X427.451 Y61.059
N11365 X427.041 Y60.399
N11370 X426.674 Y59.688
N11375 X426.355 Y58.926
N11380 X426.091 Y58.116
N11385 X425.887 Y57.266
N11390 X425.75 Y56.385
N11395 X425.685 Y55.523
N11400 X425.69 Y54.667
N11405 X425.759 Y53.865
N11410 X425.888 Y53.098
N11415 X426.074 Y52.361
N11420 X426.305 Y51.679
N11425 X426.592 Y51.015
N11430 X426.914 Y50.406
N11435 X427.281 Y49.833
N11440 X427.504 Y49.537
N11445 X427.769 Y49.239
N11450 X428.077 Y48.985
N11455 X428.421 Y48.781
N11460 X428.791 Y48.633
N11465 X429.18 Y48.544
N11470 X429.578 Y48.516
N11475 X429.976 Y48.55
N11480 X430.364 Y48.645
N11485 X430.732 Y48.799
N11490 X432.53 Y49.718
N11495 X433.675 Y50.278
N11500 G3 X434.279 Y50.772 I-0.94 J1.765
N11505 X434.734 Y51.981 I-1.544 J1.271
N11510 G1 X435.059 Y62.439
N11515 G3 X433.889 Y64.321 I-1.999 J0.062
N11520 X433.13 Y64.5 I-0.829 J-1.82
N11525 G1 X428.604
N11530 X428.238 Y64.482
N11535 X427.817 Y64.426
N11540 X427.361 Y64.329
N11545 X426.867 Y64.181
N11550 X426.367 Y63.986
N11555 X425.832 Y63.727
N11560 X425.286 Y63.405
N11565 X424.745 Y63.025
N11570 X424.189 Y62.563
N11575 X423.643 Y62.031
N11580 X423.125 Y61.437
N11585 X422.628 Y60.765
N11590 X422.164 Y60.019
N11595 X421.747 Y59.212
N11600 X421.388 Y58.353
N11605 X421.092 Y57.447
N11610 X420.865 Y56.501
N11615 X420.712 Y55.518
N11620 X420.636 Y54.51
N11625 X420.642 Y53.487
N11630 X420.728 Y52.497
N11635 X420.883 Y51.572
N11640 X421.102 Y50.704
N11645 X421.371 Y49.912
N11650 X421.692 Y49.167
N11655 X422.059 Y48.476
N11660 X422.457 Y47.852
N11665 X422.903 Y47.263
N11670 X423.082 Y47.063
N11675 X423.386 Y46.771
N11680 X423.73 Y46.53
N11685 X424.107 Y46.344
N11690 X424.508 Y46.218
N11695 X424.924 Y46.154
N11700 X425.344 Y46.155
N11705 X425.76 Y46.221
N11710 X426.16 Y46.349
N11715 X426.536 Y46.536
N11720 X427.136 Y46.895
N11725 X427.735 Y47.25
N11730 X428.335 Y47.566
N11735 X428.941 Y47.884
N11740 X430.732 Y48.799
N11745 G3 X431.327 Y49.304 I-0.972 J1.748
N11750 X431.75 Y50.751 I-1.567 J1.243
N11755 G1 X430.524 Y62.705
N11760 G3 X428.604 Y64.5 I-1.99 J-0.204
N11765 G1 X424.139
N11770 X423.574 Y64.472
N11775 X423.13 Y64.413
N11780 X422.631 Y64.307
N11785 X422.123 Y64.155
N11790 X421.572 Y63.94
N11795 X421.001 Y63.663
N11800 X420.427 Y63.325
N11805 X419.825 Y62.902
N11810 X419.232 Y62.41
N11815 X418.651 Y61.843
N11820 X418.072 Y61.179
N11825 X417.522 Y60.436
N11830 X417.018 Y59.625
N11835 X416.554 Y58.728
N11840 X416.146 Y57.752
N11845 X415.808 Y56.715
N11850 X415.549 Y55.634
N11855 X415.374 Y54.518
N11860 X415.289 Y53.378
N11865 X415.296 Y52.225
N11870 X415.395 Y51.071
N11875 X415.583 Y49.956
N11880 X415.845 Y48.916
N11885 X416.162 Y47.981
N11890 X416.529 Y47.13
N11895 X416.949 Y46.338
N11900 X417.402 Y45.63
N11905 X417.89 Y44.985
N11910 X418.417 Y44.395
N11915 X418.958 Y43.879
N11920 X419.29 Y43.651
N11925 X419.653 Y43.479
N11930 X420.04 Y43.366
N11935 X420.44 Y43.316
N11940 X420.842 Y43.33
N11945 X421.237 Y43.408
N11950 X421.615 Y43.547
N11955 X421.966 Y43.745
N11960 X422.341 Y43.997
N11965 X422.792 Y44.292
N11970 X423.789 Y44.891
N11975 X426.536 Y46.536
N11980 G3 X427.096 Y47.08 I-1.087 J1.679
N11985 X427.44 Y48.408 I-1.647 J1.135
N11990 G1 X426.06 Y62.694
N11995 G3 X424.899 Y64.321 I-1.991 J-0.192
N12000 X424.139 Y64.5 I-0.829 J-1.82
N12005 G1 X419.344
N12010 X418.668 Y64.466
N12015 X418.182 Y64.402
N12020 X417.671 Y64.293
N12025 X417.122 Y64.129
N12030 X416.532 Y63.899
N12035 X415.938 Y63.611
N12040 X415.298 Y63.234
N12045 X414.666 Y62.79
N12050 X414.027 Y62.259
N12055 X413.377 Y61.625
N12060 X412.761 Y60.919
N12065 X412.167 Y60.116
N12070 X411.599 Y59.203
N12075 X411.084 Y58.206
N12080 X410.639 Y57.141
N12085 X410.262 Y55.988
N12090 X409.969 Y54.763
N12095 X409.77 Y53.49
N12100 X409.673 Y52.189
N12105 X409.68 Y50.876
N12110 X409.793 Y49.568
N12115 X410.01 Y48.278
N12120 X410.328 Y47.016
N12125 X410.741 Y45.799
N12130 X411.196 Y44.744
N12135 X411.683 Y43.825
N12140 X412.214 Y42.994
N12145 X412.77 Y42.261
N12150 X413.341 Y41.621
N12155 X413.948 Y41.042
N12160 X414.314 Y40.745
N12165 X414.673 Y40.5
N12170 X415.068 Y40.318
N12175 X415.487 Y40.204
N12180 X415.92 Y40.16
N12185 X416.354 Y40.188
N12190 X416.777 Y40.288
N12195 X417.178 Y40.456
N12200 X417.546 Y40.688
N12205 X417.564 Y40.701
N12210 X418.145 Y41.114
N12215 X421.142 Y43.181
N12220 X421.741 Y43.594
N12225 X421.966 Y43.745
N12230 G3 X422.497 Y44.317 I-1.173 J1.62
N12235 X422.785 Y45.541 I-1.704 J1.048
N12240 G1 X421.266 Y62.678
N12245 G3 X420.103 Y64.321 I-1.992 J-0.177
N12250 X419.344 Y64.5 I-0.829 J-1.82
N12255 G1 X413.949
N12260 X413.519 Y64.478
N12265 X413.005 Y64.411
N12270 X412.472 Y64.297
N12275 X411.874 Y64.118
N12280 X411.271 Y63.883
N12285 X410.615 Y63.565
N12290 X409.951 Y63.174
N12295 X409.273 Y62.698
N12300 X408.568 Y62.112
N12305 X407.893 Y61.454
N12310 X407.215 Y60.676
N12315 X406.553 Y59.782
N12320 X405.949 Y58.812
N12325 X405.39 Y57.727
N12330 X404.887 Y56.525
N12335 X404.464 Y55.229
N12340 X404.138 Y53.87
N12345 X403.915 Y52.444
N12350 X403.804 Y50.949
N12355 X403.812 Y49.426
N12360 X403.943 Y47.906
N12365 X404.195 Y46.41
N12370 X404.561 Y44.956
N12375 X405.034 Y43.561
N12380 X405.597 Y42.258
N12385 X406.208 Y41.106
N12390 X406.829 Y40.133
N12395 X407.464 Y39.295
N12400 X408.13 Y38.549
N12405 X408.796 Y37.914
N12410 X409.477 Y37.362
N12415 X409.557 Y37.307
N12420 X409.946 Y37.079
N12425 X410.363 Y36.908
N12430 X410.8 Y36.796
N12435 X411.248 Y36.747
N12440 X411.698 Y36.762
N12445 X412.142 Y36.839
N12450 X412.571 Y36.978
N12455 X412.976 Y37.176
N12460 X413.35 Y37.429
N12465 X416.347 Y39.779
N12470 X416.769 Y40.103
N12475 X417.546 Y40.688
N12480 G3 X418.045 Y41.287 I-1.258 J1.555
N12485 X418.273 Y42.478 I-1.757 J0.955
N12490 G1 X415.866 Y62.737
N12495 G3 X413.949 Y64.5 I-1.986 J-0.236
N12500 G1 X408.555
N12505 X408.115 Y64.478
N12510 X407.596 Y64.41
N12515 X407.019 Y64.287
N12520 X406.41 Y64.104
N12525 X405.764 Y63.853
N12530 X405.073 Y63.517
N12535 X404.38 Y63.109
N12540 X403.635 Y62.586
N12545 X402.913 Y61.987
N12550 X402.172 Y61.264
N12555 X401.434 Y60.418
N12560 X400.746 Y59.488
N12565 X400.075 Y58.41
N12570 X399.449 Y57.197
N12575 X398.909 Y55.904
N12580 X398.448 Y54.493
N12585 X398.081 Y52.962
N12590 X397.827 Y51.333
N12595 X397.703 Y49.675
N12600 X397.709 Y48.012
N12605 X397.844 Y46.355
N12610 X398.104 Y44.713
N12615 X398.488 Y43.095
N12620 X398.995 Y41.512
N12625 X399.62 Y39.987
N12630 X400.339 Y38.566
N12635 X401.08 Y37.356
N12640 X401.819 Y36.341
N12645 X402.563 Y35.475
N12650 X403.326 Y34.72
N12655 X404.094 Y34.073
N12660 X404.861 Y33.526
N12665 X405.63 Y33.065
N12670 X406.021 Y32.907
N12675 X406.43 Y32.808
N12680 X406.849 Y32.77
N12685 X407.269 Y32.795
N12690 X407.681 Y32.881
N12695 X408.076 Y33.027
N12700 X408.445 Y33.23
N12705 X408.78 Y33.485
N12710 X411.552 Y35.932
N12715 X412.151 Y36.448
N12720 X412.75 Y36.955
N12725 X412.943 Y37.11
N12730 X413.35 Y37.429
N12735 G3 X413.837 Y38.038 I-1.288 J1.53
N12740 X414.039 Y39.259 I-1.776 J0.92
N12745 G1 X410.462 Y62.802
N12750 G3 X409.314 Y64.321 I-1.977 J-0.3
N12755 X408.555 Y64.5 I-0.829 J-1.82
N12760 G1 X403.16
N12765 X402.496 Y64.467
N12770 X401.964 Y64.397
N12775 X401.352 Y64.266
N12780 X400.731 Y64.08
N12785 X400.032 Y63.808
N12790 X399.333 Y63.469
N12795 X398.576 Y63.023
N12800 X397.815 Y62.489
N12805 X397.04 Y61.845
N12810 X396.238 Y61.063
N12815 X395.48 Y60.194
N12820 X394.716 Y59.161
N12825 X393.986 Y57.989
N12830 X393.332 Y56.72
N12835 X392.734 Y55.29
N12840 X392.218 Y53.711
N12845 X391.831 Y52.094
N12850 X391.567 Y50.453
N12855 X391.425 Y48.796
N12860 X391.403 Y47.133
N12865 X391.493 Y45.473
N12870 X391.692 Y43.822
N12875 X391.999 Y42.188
N12880 X392.414 Y40.578
N12885 X392.937 Y39.
N12890 X393.566 Y37.46
N12895 X394.303 Y35.97
N12900 X395.146 Y34.537
N12905 X396.096 Y33.172
N12910 X397.037 Y32.025
N12915 X397.928 Y31.101
N12920 X398.803 Y30.329
N12925 X399.662 Y29.686
N12930 X400.501 Y29.157
N12935 X401.321 Y28.728
N12940 X401.722 Y28.592
N12945 X402.138 Y28.516
N12950 X402.561 Y28.502
N12955 X402.981 Y28.551
N12960 X403.39 Y28.661
N12965 X403.778 Y28.829
N12970 X404.137 Y29.053
N12975 X404.459 Y29.327
N12980 X407.494 Y32.321
N12985 X407.955 Y32.755
N12990 X408.78 Y33.485
N12995 G3 X409.38 Y35.245 I-1.376 J1.451
N13000 G1 X405.066 Y62.81
N13005 G3 X403.16 Y64.5 I-1.976 J-0.309
N13010 G1 X397.166
N13015 X396.709 Y64.477
N13020 X396.141 Y64.403
N13025 X395.519 Y64.27
N13030 X394.854 Y64.07
N13035 X394.137 Y63.791
N13040 X393.4 Y63.434
N13045 X392.602 Y62.963
N13050 X391.815 Y62.411
N13055 X390.968 Y61.708
N13060 X390.155 Y60.915
N13065 X389.328 Y59.967
N13070 X388.507 Y58.857
N13075 X387.749 Y57.638
N13080 X387.038 Y56.261
N13085 X386.397 Y54.726
N13090 X385.879 Y53.146
N13095 X385.48 Y51.532
N13100 X385.193 Y49.894
N13105 X385.017 Y48.241
N13110 X384.948 Y46.58
N13115 X384.983 Y44.917
N13120 X385.116 Y43.26
N13125 X385.344 Y41.613
N13130 X385.67 Y39.982
N13135 X386.091 Y38.374
N13140 X386.603 Y36.792
N13145 X387.204 Y35.241
N13150 X387.896 Y33.729
N13155 X388.679 Y32.262
N13160 X389.554 Y30.848
N13165 X390.52 Y29.496
N13170 X391.579 Y28.214
N13175 X392.668 Y27.077
N13180 X393.668 Y26.187
N13185 X394.627 Y25.464
N13190 X395.559 Y24.872
N13195 X396.458 Y24.397
N13200 X397.327 Y24.024
N13205 X398.189 Y23.733
N13210 X398.507 Y23.69
N13215 X398.828 Y23.715
N13220 X399.135 Y23.808
N13225 X399.415 Y23.964
N13230 X399.655 Y24.177
N13235 X402.712 Y27.533
N13240 X403.16 Y28.012
N13245 X403.854 Y28.73
N13250 X404.459 Y29.327
N13255 G3 X404.874 Y29.988 I-1.454 J1.374
N13260 X404.972 Y31.066 I-1.869 J0.713
N13265 G1 X399.063 Y62.867
N13270 G3 X397.166 Y64.5 I-1.966 J-0.365
N13275 G1 X391.172
N13280 X390.726 Y64.478
N13285 X390.121 Y64.398
N13290 X389.497 Y64.265
N13295 X388.79 Y64.053
N13300 X388.071 Y63.773
N13305 X387.28 Y63.389
N13310 X386.479 Y62.918
N13315 X385.633 Y62.324
N13320 X384.763 Y61.602
N13325 X383.91 Y60.769
N13330 X383.034 Y59.764
N13335 X382.173 Y58.601
N13340 X381.366 Y57.304
N13345 X380.605 Y55.829
N13350 X379.963 Y54.295
N13355 X379.437 Y52.718
N13360 X379.021 Y51.108
N13365 X378.708 Y49.475
N13370 X378.496 Y47.826
N13375 X378.382 Y46.167
N13380 X378.363 Y44.504
N13385 X378.436 Y42.843
N13390 X378.596 Y41.188
N13395 X378.84 Y39.543
N13400 X379.168 Y37.913
N13405 X379.58 Y36.302
N13410 X380.073 Y34.714
N13415 X380.645 Y33.153
N13420 X381.295 Y31.622
N13425 X382.023 Y30.128
N13430 X382.831 Y28.674
N13435 X383.715 Y27.266
N13440 X384.678 Y25.911
N13445 X385.721 Y24.615
N13450 X386.844 Y23.39
N13455 X388.049 Y22.243
N13460 X389.333 Y21.187
N13465 X390.475 Y20.388
N13470 X391.487 Y19.795
N13475 X392.451 Y19.329
N13480 X392.633 Y19.259
N13485 X393.071 Y19.123
N13490 X393.524 Y19.05
N13495 X393.983 Y19.04
N13500 X394.439 Y19.093
N13505 X394.883 Y19.21
N13510 X395.306 Y19.387
N13515 X395.701 Y19.621
N13520 X396.059 Y19.907
N13525 X396.375 Y20.241
N13530 X398.365 Y22.663
N13535 X398.929 Y23.343
N13540 G3 X399.275 Y24.042 I-1.584 J1.221
N13545 X399.318 Y24.889 I-1.931 J0.522
N13550 G1 X393.076 Y62.826
N13555 G3 X391.932 Y64.321 I-1.973 J-0.325
N13560 X391.172 Y64.5 I-0.829 J-1.82
N13565 G1 X385.178
N13570 X384.575 Y64.47
N13575 X383.952 Y64.388
N13580 X383.313 Y64.252
N13585 X382.582 Y64.033
N13590 X381.847 Y63.746
N13595 X381.02 Y63.345
N13600 X380.204 Y62.864
N13605 X379.315 Y62.24
N13610 X378.432 Y61.507
N13615 X377.533 Y60.63
N13620 X376.616 Y59.579
N13625 X375.716 Y58.362
N13630 X374.859 Y56.986
N13635 X374.097 Y55.508
N13640 X373.448 Y53.977
N13645 X372.908 Y52.405
N13650 X372.47 Y50.8
N13655 X372.13 Y49.173
N13660 X371.883 Y47.529
N13665 X371.725 Y45.873
N13670 X371.656 Y44.212
N13675 X371.671 Y42.549
N13680 X371.768 Y40.889
N13685 X371.942 Y39.236
N13690 X372.193 Y37.592
N13695 X372.517 Y35.961
N13700 X372.916 Y34.347
N13705 X373.387 Y32.752
N13710 X373.929 Y31.18
N13715 X374.539 Y29.634
N13720 X375.217 Y28.115
N13725 X375.964 Y26.63
N13730 X376.781 Y25.182
N13735 X377.664 Y23.773
N13740 X378.614 Y22.408
N13745 X379.63 Y21.092
N13750 X380.715 Y19.832
N13755 X381.867 Y18.633
N13760 X383.088 Y17.505
N13765 X384.371 Y16.465
N13770 X385.534 Y15.668
N13775 X386.623 Y15.044
N13780 X387.657 Y14.557
N13785 X388.645 Y14.186
N13790 X389.602 Y13.911
N13795 X390.044 Y13.859
N13800 X390.489 Y13.878
N13805 X390.925 Y13.969
N13810 X391.341 Y14.129
N13815 X391.725 Y14.354
N13820 X392.069 Y14.637
N13825 X392.362 Y14.973
N13830 X394.576 Y17.956
N13835 X395.022 Y18.555
N13840 X395.368 Y19.011
N13845 X395.481 Y19.153
N13850 X396.375 Y20.241
N13855 G3 X396.719 Y20.941 I-1.589 J1.215
N13860 X396.733 Y21.915 I-1.933 J0.515
N13865 G1 X387.055 Y62.96
N13870 G3 X385.178 Y64.5 I-1.947 J-0.459
N13875 G1 X378.855
N13880 X378.297 Y64.472
N13885 X377.666 Y64.389
N13890 X377.002 Y64.247
N13895 X376.265 Y64.027
N13900 X375.494 Y63.726
N13905 X374.658 Y63.32
N13910 X373.809 Y62.821
N13915 X372.89 Y62.175
N13920 X371.983 Y61.422
N13925 X371.046 Y60.508
N13930 X370.092 Y59.415
N13935 X369.152 Y58.144
N13940 X368.273 Y56.732
N13945 X367.507 Y55.256
N13950 X366.849 Y53.729
N13955 X366.293 Y52.162
N13960 X365.834 Y50.564
N13965 X365.466 Y48.943
N13970 X365.187 Y47.304
N13975 X364.99 Y45.653
N13980 X364.875 Y43.994
N13985 X364.839 Y42.331
N13990 X364.879 Y40.669
N13995 X364.992 Y39.01
N14000 X365.175 Y37.358
N14005 X365.427 Y35.714
N14010 X365.745 Y34.082
N14015 X366.13 Y32.464
N14020 X366.579 Y30.863
N14025 X367.092 Y29.282
N14030 X367.667 Y27.722
N14035 X368.303 Y26.185
N14040 X368.998 Y24.675
N14045 X369.754 Y23.194
N14050 X370.57 Y21.745
N14055 X371.445 Y20.331
N14060 X372.378 Y18.955
N14065 X373.368 Y17.619
N14070 X374.417 Y16.329
N14075 X375.528 Y15.091
N14080 X376.7 Y13.912
N14085 X377.935 Y12.799
N14090 X379.234 Y11.761
N14095 X380.597 Y10.808
N14100 X381.309 Y10.38
N14105 X382.545 Y9.703
N14110 X383.689 Y9.191
N14115 X384.752 Y8.815
N14120 X385.744 Y8.551
N14125 X386.197 Y8.503
N14130 X386.652 Y8.521
N14135 X387.1 Y8.605
N14140 X387.531 Y8.753
N14145 X387.935 Y8.962
N14150 X388.305 Y9.228
N14155 X388.632 Y9.545
N14160 X388.91 Y9.906
N14165 X389.087 Y10.175
N14170 X391.491 Y13.767
N14175 X391.772 Y14.175
N14180 X392.362 Y14.973
N14185 G3 X392.651 Y16.604 I-1.648 J1.134
N14190 G1 X380.722 Y62.999
N14195 G3 X379.614 Y64.321 I-1.937 J-0.498
N14200 X378.855 Y64.5 I-0.829 J-1.82
N14205 G1 X372.591
N14210 X371.889 Y64.465
N14215 X371.258 Y64.382
N14220 X370.566 Y64.234
N14225 X369.829 Y64.013
N14230 X369.026 Y63.7
N14235 X368.184 Y63.292
N14240 X367.303 Y62.773
N14245 X366.361 Y62.112
N14250 X365.427 Y61.336
N14255 X364.457 Y60.39
N14260 X363.471 Y59.26
N14265 X362.492 Y57.937
N14270 X361.614 Y56.526
N14275 X360.842 Y55.053
N14280 X360.173 Y53.531
N14285 X359.601 Y51.969
N14290 X359.12 Y50.378
N14295 X358.727 Y48.762
N14300 X358.417 Y47.128
N14305 X358.186 Y45.482
N14310 X358.031 Y43.826
N14315 X357.949 Y42.166
N14320 X357.939 Y40.503
N14325 X357.997 Y38.841
N14330 X358.122 Y37.183
N14335 X358.311 Y35.531
N14340 X358.562 Y33.887
N14345 X358.873 Y32.254
N14350 X359.244 Y30.633
N14355 X359.673 Y29.027
N14360 X360.16 Y27.437
N14365 X360.703 Y25.865
N14370 X361.302 Y24.314
N14375 X361.954 Y22.785
N14380 X362.659 Y21.279
N14385 X363.417 Y19.799
N14390 X364.229 Y18.348
N14395 X365.093 Y16.927
N14400 X366.01 Y15.54
N14405 X366.978 Y14.188
N14410 X367.998 Y12.875
N14415 X369.072 Y11.605
N14420 X370.199 Y10.383
N14425 X371.379 Y9.211
N14430 X372.614 Y8.098
N14435 X373.903 Y7.048
N14440 X375.246 Y6.068
N14445 X376.645 Y5.17
N14450 X378.073 Y4.377
N14455 X379.339 Y3.802
N14460 X380.499 Y3.383
N14465 X381.579 Y3.089
N14470 X382.607 Y2.896
N14475 X383.038 Y2.882
N14480 X383.467 Y2.929
N14485 X383.885 Y3.036
N14490 X384.283 Y3.202
N14495 X384.653 Y3.423
N14500 X384.989 Y3.694
N14505 X385.282 Y4.011
N14510 X385.527 Y4.365
N14515 X385.778 Y4.79
N14520 X388.175 Y8.773
N14525 G3 X388.414 Y9.516 I-1.748 J0.971
N14530 X388.361 Y10.254 I-1.987 J0.228
N14535 G1 X374.455 Y63.011
N14540 G3 X373.351 Y64.321 I-1.934 J-0.51
N14545 X372.591 Y64.5 I-0.829 J-1.82
N14550 G1 X365.998
N14555 X365.386 Y64.469
N14560 X364.755 Y64.387
N14565 X364.035 Y64.233
N14570 X363.297 Y64.012
N14575 X362.468 Y63.689
N14580 X361.618 Y63.276
N14585 X360.709 Y62.741
N14590 X359.746 Y62.065
N14595 X358.784 Y61.266
N14600 X357.783 Y60.289
N14605 X356.765 Y59.122
N14610 X355.776 Y57.786
N14615 X354.894 Y56.376
N14620 X354.115 Y54.907
N14625 X353.433 Y53.39
N14630 X352.844 Y51.835
N14635 X352.342 Y50.25
N14640 X351.924 Y48.641
N14645 X351.586 Y47.013
N14650 X351.322 Y45.371
N14655 X351.131 Y43.719
N14660 X351.008 Y42.061
N14665 X350.953 Y40.399
N14670 X350.963 Y38.737
N14675 X351.035 Y37.075
N14680 X351.168 Y35.418
N14685 X351.359 Y33.766
N14690 X351.607 Y32.122
N14695 X351.911 Y30.487
N14700 X352.268 Y28.863
N14705 X352.679 Y27.252
N14710 X353.142 Y25.655
N14715 X353.656 Y24.074
N14720 X354.221 Y22.51
N14725 X354.835 Y20.965
N14730 X355.497 Y19.44
N14735 X356.207 Y17.936
N14740 X356.965 Y16.456
N14745 X357.771 Y15.002
N14750 X358.624 Y13.575
N14755 X359.524 Y12.177
N14760 X360.471 Y10.81
N14765 X361.464 Y9.476
N14770 X362.503 Y8.178
N14775 X363.589 Y6.919
N14780 X364.723 Y5.703
N14785 X365.903 Y4.531
N14790 X367.129 Y3.408
N14795 X368.401 Y2.337
N14800 X369.722 Y1.328
N14805 X371.093 Y0.387
N14810 X372.514 Y-0.477
N14815 X373.983 Y-1.256
N14820 X375.435 Y-1.908
N14825 X376.722 Y-2.365
N14830 X377.898 Y-2.679
N14835 X378.987 Y-2.878
N14840 X379.483 Y-2.928
N14845 X379.952 Y-2.939
N14850 X380.417 Y-2.878
N14855 X380.867 Y-2.747
N14860 X381.291 Y-2.548
N14865 X381.681 Y-2.288
N14870 X382.026 Y-1.97
N14875 X382.318 Y-1.604
N14880 X382.551 Y-1.197
N14885 X382.781 Y-0.73
N14890 X383.167 Y0.
N14895 X385.178 Y3.745
N14900 X385.424 Y4.19
N14905 X385.527 Y4.365
N14910 G3 X385.76 Y5.11 I-1.757 J0.956
N14915 X385.68 Y5.918 I-1.989 J0.211
N14920 G1 X367.837 Y63.097
N14925 G3 X366.758 Y64.321 I-1.909 J-0.596
N14930 X365.998 Y64.5 I-0.829 J-1.82
N14935 G1 X359.405
N14940 X358.782 Y64.469
N14945 X358.15 Y64.386
N14950 X357.415 Y64.229
N14955 X356.668 Y64.005
N14960 X355.822 Y63.675
N14965 X354.96 Y63.257
N14970 X354.029 Y62.709
N14975 X353.045 Y62.018
N14980 X352.056 Y61.197
N14985 X351.028 Y60.194
N14990 X349.98 Y58.993
N14995 X348.991 Y57.656
N15000 X348.106 Y56.248
N15005 X347.319 Y54.784
N15010 X346.625 Y53.273
N15015 X346.02 Y51.724
N15020 X345.5 Y50.145
N15025 X345.059 Y48.541
N15030 X344.694 Y46.919
N15035 X344.402 Y45.282
N15040 X344.178 Y43.635
N15045 X344.02 Y41.979
N15050 X343.925 Y40.319
N15055 X343.892 Y38.657
N15060 X343.918 Y36.994
N15065 X344.002 Y35.334
N15070 X344.142 Y33.677
N15075 X344.335 Y32.025
N15080 X344.58 Y30.381
N15085 X344.876 Y28.745
N15090 X345.222 Y27.118
N15095 X345.616 Y25.503
N15100 X346.058 Y23.9
N15105 X346.548 Y22.311
N15110 X347.084 Y20.737
N15115 X347.665 Y19.179
N15120 X348.291 Y17.639
N15125 X348.961 Y16.117
N15130 X349.674 Y14.615
N15135 X350.43 Y13.134
N15140 X351.229 Y11.676
N15145 X352.071 Y10.242
N15150 X352.956 Y8.834
N15155 X353.882 Y7.453
N15160 X354.851 Y6.102
N15165 X355.86 Y4.78
N15170 X356.91 Y3.491
N15175 X358.003 Y2.238
N15180 X359.137 Y1.022
N15185 X360.313 Y-0.154
N15190 X361.53 Y-1.287
N15195 X362.788 Y-2.374
N15200 X364.088 Y-3.41
N15205 X365.432 Y-4.39
N15210 X366.817 Y-5.309
N15215 X368.245 Y-6.16
N15220 X369.717 Y-6.935
N15225 X371.231 Y-7.623
N15230 X372.745 Y-8.19
N15235 X374.071 Y-8.569
N15240 X375.284 Y-8.813
N15245 X376.397 Y-8.944
N15250 X377.109 Y-8.971
N15255 X377.532 Y-8.955
N15260 X377.948 Y-8.874
N15265 X378.346 Y-8.731
N15270 X378.718 Y-8.529
N15275 X379.056 Y-8.273
N15280 X379.35 Y-7.969
N15285 X379.595 Y-7.624
N15290 X379.784 Y-7.245
N15295 X380.3 Y-5.985
N15300 X380.383 Y-5.788
N15305 X380.569 Y-5.387
N15310 X380.85 Y-4.788
N15315 X382.267 Y-1.796
N15320 X382.551 Y-1.197
N15325 G3 X382.715 Y-0.434 I-1.836 J0.794
N15330 X382.609 Y0.241 I-2. J0.031
N15335 G1 X361.228 Y63.145
N15340 G3 X359.405 Y64.5 I-1.894 J-0.644
N15345 G1 X352.811
N15350 X352.094 Y64.464
N15355 X351.457 Y64.381
N15360 X350.714 Y64.222
N15365 X349.956 Y63.995
N15370 X349.096 Y63.66
N15375 X348.221 Y63.235
N15380 X347.271 Y62.676
N15385 X346.268 Y61.971
N15390 X345.254 Y61.13
N15395 X344.2 Y60.101
N15400 X343.124 Y58.868
N15405 X342.135 Y57.531
N15410 X341.246 Y56.126
N15415 X340.453 Y54.664
N15420 X339.749 Y53.158
N15425 X339.13 Y51.615
N15430 X338.593 Y50.041
N15435 X338.133 Y48.443
N15440 X337.745 Y46.826
N15445 X337.427 Y45.194
N15450 X337.175 Y43.551
N15455 X336.986 Y41.899
N15460 X336.858 Y40.241
N15465 X336.788 Y38.58
N15470 X336.774 Y36.917
N15475 X336.815 Y35.255
N15480 X336.909 Y33.595
N15485 X337.054 Y31.938
N15490 X337.249 Y30.287
N15495 X337.492 Y28.642
N15500 X337.782 Y27.005
N15505 X338.118 Y25.376
N15510 X338.499 Y23.758
N15515 X338.923 Y22.15
N15520 X339.392 Y20.555
N15525 X339.903 Y18.973
N15530 X340.457 Y17.405
N15535 X341.051 Y15.852
N15540 X341.686 Y14.315
N15545 X342.362 Y12.796
N15550 X343.076 Y11.294
N15555 X343.83 Y9.812
N15560 X344.623 Y8.351
N15565 X345.455 Y6.911
N15570 X346.325 Y5.494
N15575 X347.234 Y4.102
N15580 X348.18 Y2.735
N15585 X349.164 Y1.394
N15590 X350.185 Y0.082
N15595 X351.242 Y-1.201
N15600 X352.338 Y-2.452
N15605 X353.471 Y-3.669
N15610 X354.641 Y-4.851
N15615 X355.848 Y-5.994
N15620 X357.092 Y-7.097
N15625 X358.373 Y-8.158
N15630 X359.691 Y-9.171
N15635 X361.048 Y-10.132
N15640 X362.441 Y-11.04
N15645 X363.871 Y-11.888
N15650 X365.339 Y-12.669
N15655 X366.846 Y-13.373
N15660 X368.389 Y-13.991
N15665 X369.968 Y-14.514
N15670 X371.41 Y-14.878
N15675 X372.681 Y-15.092
N15680 X373.827 Y-15.191
N15685 X374.885 Y-15.197
N15690 X375.327 Y-15.132
N15695 X375.755 Y-15.002
N15700 X376.16 Y-14.812
N15705 X376.532 Y-14.564
N15710 X376.864 Y-14.265
N15715 X377.149 Y-13.921
N15720 X377.381 Y-13.539
N15725 X377.555 Y-13.127
N15730 X378.148 Y-11.372
N15735 X378.354 Y-10.774
N15740 X378.593 Y-10.175
N15745 X378.833 Y-9.577
N15750 X379.784 Y-7.245
N15755 G3 X379.905 Y-6.474 I-1.877 J0.69
N15760 X379.786 Y-5.87 I-1.998 J-0.081
N15765 G1 X354.621 Y63.186
N15770 G3 X353.571 Y64.321 I-1.879 J-0.685
N15775 X352.811 Y64.5 I-0.829 J-1.82
N15780 G1 X346.218
N15785 X345.33 Y64.456
N15790 X344.687 Y64.371
N15795 X343.937 Y64.211
N15800 X343.167 Y63.98
N15805 X342.296 Y63.641
N15810 X341.409 Y63.211
N15815 X340.442 Y62.641
N15820 X339.422 Y61.924
N15825 X338.385 Y61.064
N15830 X337.307 Y60.012
N15835 X336.214 Y58.759
N15840 X336.149 Y58.671
N15845 X335.92 Y58.318
N15850 X335.739 Y57.939
N15855 X335.607 Y57.539
N15860 X335.527 Y57.126
N15865 X335.5 Y56.706
N15870 Y17.358
N15875 X335.583 Y15.697
N15880 X335.768 Y14.045
N15885 X336.07 Y12.41
N15890 X336.472 Y10.796
N15895 X336.962 Y9.207
N15900 X337.528 Y7.644
N15905 X338.162 Y6.107
N15910 X338.858 Y4.597
N15915 X339.61 Y3.114
N15920 X340.414 Y1.658
N15925 X341.265 Y0.23
N15930 X342.162 Y-1.17
N15935 X343.103 Y-2.541
N15940 X344.085 Y-3.883
N15945 X345.108 Y-5.194
N15950 X346.169 Y-6.474
N15955 X347.267 Y-7.723
N15960 X348.402 Y-8.938
N15965 X349.572 Y-10.119
N15970 X350.778 Y-11.264
N15975 X352.019 Y-12.37
N15980 X353.296 Y-13.436
N15985 X354.606 Y-14.459
N15990 X355.95 Y-15.438
N15995 X357.328 Y-16.369
N16000 X358.74 Y-17.247
N16005 X360.186 Y-18.068
N16010 X361.665 Y-18.829
N16015 X363.176 Y-19.523
N16020 X364.719 Y-20.141
N16025 X366.294 Y-20.675
N16030 X367.897 Y-21.114
N16035 X369.364 Y-21.403
N16040 X370.652 Y-21.55
N16045 X371.829 Y-21.59
N16050 X372.919 Y-21.539
N16055 X373.152 Y-21.509
N16060 X373.612 Y-21.415
N16065 X374.054 Y-21.253
N16070 X374.466 Y-21.026
N16075 X374.839 Y-20.741
N16080 X375.166 Y-20.403
N16085 X375.439 Y-20.02
N16090 X375.651 Y-19.6
N16095 X375.798 Y-19.153
N16100 X376.422 Y-16.759
N16105 X376.581 Y-16.161
N16110 X376.743 Y-15.562
N16115 X376.935 Y-14.964
N16120 X377.137 Y-14.365
N16125 X377.555 Y-13.127
N16130 G3 X377.629 Y-12.35 I-1.916 J0.574
N16135 X376.872 Y-10.978 I-1.99 J-0.203
N16140 G1 X338.731 Y18.863
N16145 G3 X335.679 Y18.117 I-1.232 J-1.575
N16150 X335.5 Y17.358 I1.82 J-0.829
N16155 G1 Y3.591
N16160 X335.583 Y1.931
N16165 X335.68 Y1.105
N16170 X335.92 Y-0.301
N16175 X336.327 Y-1.897
N16180 X336.865 Y-3.47
N16185 X337.512 Y-5.002
N16190 X338.25 Y-6.491
N16195 X339.068 Y-7.939
N16200 X339.955 Y-9.345
N16205 X340.905 Y-10.71
N16210 X341.91 Y-12.034
N16215 X342.967 Y-13.318
N16220 X344.072 Y-14.561
N16225 X345.22 Y-15.764
N16230 X346.408 Y-16.927
N16235 X347.636 Y-18.048
N16240 X348.9 Y-19.129
N16245 X350.2 Y-20.165
N16250 X351.535 Y-21.156
N16255 X352.904 Y-22.1
N16260 X354.306 Y-22.995
N16265 X355.738 Y-23.838
N16270 X357.202 Y-24.628
N16275 X358.696 Y-25.357
N16280 X360.22 Y-26.022
N16285 X361.773 Y-26.615
N16290 X363.354 Y-27.13
N16295 X364.961 Y-27.557
N16300 X366.591 Y-27.887
N16305 X368.086 Y-28.078
N16310 X369.391 Y-28.138
N16315 X370.578 Y-28.098
N16320 X371.672 Y-27.973
N16325 X372.211 Y-27.867
N16330 X372.635 Y-27.752
N16335 X373.039 Y-27.578
N16340 X373.414 Y-27.349
N16345 X373.754 Y-27.07
N16350 X374.05 Y-26.746
N16355 X374.298 Y-26.383
N16360 X374.493 Y-25.989
N16365 X374.63 Y-25.572
N16370 X374.707 Y-25.139
N16375 X374.789 Y-24.54
N16380 X374.878 Y-23.942
N16385 X375.287 Y-21.548
N16390 X375.391 Y-20.949
N16395 X375.505 Y-20.351
N16400 G3 X375.471 Y-19.571 I-1.977 J0.305
N16405 X374.623 Y-18.371 I-1.943 J-0.474
N16410 G1 X338.594 Y5.195
N16415 G3 X335.679 Y4.351 I-1.095 J-1.674
N16420 X335.5 Y3.591 I1.82 J-0.829
N16425 G1 Y-7.781
N16430 X335.573 Y-9.233
N16435 X335.715 Y-10.316
N16440 X335.977 Y-11.542
N16445 X336.386 Y-12.909
N16450 X336.977 Y-14.425
N16455 X337.703 Y-15.921
N16460 X338.533 Y-17.361
N16465 X339.453 Y-18.746
N16470 X340.449 Y-20.078
N16475 X341.512 Y-21.356
N16480 X342.635 Y-22.583
N16485 X343.81 Y-23.759
N16490 X345.033 Y-24.885
N16495 X346.3 Y-25.962
N16500 X347.607 Y-26.99
N16505 X348.952 Y-27.967
N16510 X350.334 Y-28.893
N16515 X351.749 Y-29.765
N16520 X353.197 Y-30.583
N16525 X354.675 Y-31.344
N16530 X356.182 Y-32.047
N16535 X357.717 Y-32.686
N16540 X359.279 Y-33.256
N16545 X360.866 Y-33.752
N16550 X362.477 Y-34.166
N16555 X364.108 Y-34.49
N16560 X365.755 Y-34.714
N16565 X367.343 Y-34.82
N16570 X368.701 Y-34.802
N16575 X369.91 Y-34.688
N16580 X371.016 Y-34.493
N16585 X372.023 Y-34.231
N16590 X372.94 Y-33.911
N16595 X373.779 Y-33.541
N16600 X374.017 Y-33.382
N16605 X374.22 Y-33.179
N16610 X374.38 Y-32.942
N16615 X374.492 Y-32.678
N16620 X374.551 Y-32.398
N16625 X374.556 Y-32.112
N16630 X374.525 Y-31.723
N16635 X374.494 Y-31.124
N16640 X374.47 Y-30.526
N16645 X374.453 Y-29.927
N16650 X374.454 Y-29.329
N16655 X374.46 Y-28.73
N16660 X374.478 Y-28.132
N16665 X374.501 Y-27.533
N16670 X374.537 Y-26.935
N16675 X374.589 Y-26.336
N16680 X374.643 Y-25.737
N16685 X374.707 Y-25.139
N16690 G3 X374.609 Y-24.365 I-1.995 J0.141
N16695 X373.587 Y-23.2 I-1.897 J-0.633
N16700 G1 X338.374 Y-6.053
N16705 G3 X335.679 Y-7.022 I-0.876 J-1.798
N16710 X335.5 Y-7.781 I1.82 J-0.829
N16715 G1 Y-17.956
N16720 X335.547 Y-18.901
N16725 X335.673 Y-19.857
N16730 X335.902 Y-20.928
N16735 X336.251 Y-22.095
N16740 X336.756 Y-23.392
N16745 X337.448 Y-24.818
N16750 X338.292 Y-26.251
N16755 X339.239 Y-27.617
N16760 X340.274 Y-28.919
N16765 X341.383 Y-30.157
N16770 X342.558 Y-31.334
N16775 X343.79 Y-32.451
N16780 X345.073 Y-33.508
N16785 X346.402 Y-34.507
N16790 X347.773 Y-35.448
N16795 X349.182 Y-36.331
N16800 X350.626 Y-37.155
N16805 X352.102 Y-37.921
N16810 X353.608 Y-38.626
N16815 X355.143 Y-39.266
N16820 X356.704 Y-39.839
N16825 X358.288 Y-40.343
N16830 X359.894 Y-40.775
N16835 X361.519 Y-41.126
N16840 X363.161 Y-41.387
N16845 X364.816 Y-41.552
N16850 X366.478 Y-41.613
N16855 X368.14 Y-41.563
N16860 X369.71 Y-41.404
N16865 X370.991 Y-41.169
N16870 X372.09 Y-40.875
N16875 X373.038 Y-40.537
N16880 X373.884 Y-40.157
N16885 X374.637 Y-39.743
N16890 X375.303 Y-39.304
N16895 X375.521 Y-39.086
N16900 X375.679 Y-38.821
N16905 X375.769 Y-38.526
N16910 X375.784 Y-38.217
N16915 X375.724 Y-37.915
N16920 X375.588 Y-37.499
N16925 X375.462 Y-37.11
N16930 X375.308 Y-36.511
N16935 X375.155 Y-35.913
N16940 X374.989 Y-35.139
N16945 X374.902 Y-34.716
N16950 X374.807 Y-34.117
N16955 X374.716 Y-33.519
N16960 X374.643 Y-32.92
N16965 X374.573 Y-32.321
N16970 X374.556 Y-32.112
N16975 G3 X374.317 Y-31.369 I-1.987 J-0.229
N16980 X373.325 Y-30.489 I-1.748 J-0.972
N16985 G1 X338.255 Y-16.174
N16990 G3 X335.679 Y-17.197 I-0.756 J-1.852
N16995 X335.5 Y-17.956 I1.82 J-0.829
N17000 G1 Y-26.935
N17005 X335.542 Y-27.775
N17010 X335.658 Y-28.661
N17015 X335.862 Y-29.614
N17020 X336.181 Y-30.677
N17025 X336.638 Y-31.853
N17030 X337.255 Y-33.123
N17035 X338.055 Y-34.482
N17040 X339.011 Y-35.843
N17045 X340.066 Y-37.128
N17050 X341.204 Y-38.34
N17055 X342.414 Y-39.481
N17060 X343.684 Y-40.553
N17065 X345.009 Y-41.559
N17070 X346.38 Y-42.499
N17075 X347.793 Y-43.376
N17080 X349.244 Y-44.188
N17085 X350.729 Y-44.935
N17090 X352.246 Y-45.617
N17095 X353.79 Y-46.233
N17100 X355.359 Y-46.783
N17105 X356.951 Y-47.264
N17110 X358.563 Y-47.67
N17115 X360.193 Y-48.001
N17120 X361.836 Y-48.254
N17125 X363.49 Y-48.428
N17130 X365.151 Y-48.513
N17135 X366.813 Y-48.503
N17140 X368.472 Y-48.39
N17145 X370.12 Y-48.166
N17150 X371.747 Y-47.824
N17155 X373.072 Y-47.435
N17160 X374.171 Y-47.013
N17165 X375.112 Y-46.563
N17170 X375.924 Y-46.091
N17175 X376.636 Y-45.596
N17180 X376.928 Y-45.356
N17185 X377.234 Y-45.061
N17190 X377.489 Y-44.721
N17195 X377.686 Y-44.345
N17200 X377.822 Y-43.943
N17205 X377.891 Y-43.524
N17210 X377.893 Y-43.099
N17215 X377.828 Y-42.68
N17220 X377.696 Y-42.276
N17225 X377.502 Y-41.898
N17230 X377.386 Y-41.711
N17235 X377.169 Y-41.3
N17240 X376.855 Y-40.701
N17245 X376.308 Y-39.504
N17250 G3 X375.83 Y-38.887 I-1.789 J-0.894
N17255 X375.199 Y-38.517 I-1.311 J-1.51
N17260 G1 X338.179 Y-25.124
N17265 G3 X335.679 Y-26.175 I-0.68 J-1.881
N17270 X335.5 Y-26.935 I1.82 J-0.829
N17275 G1 Y-35.314
N17280 X335.539 Y-36.099
N17285 X335.648 Y-36.93
N17290 X335.837 Y-37.812
N17295 X336.135 Y-38.806
N17300 X336.557 Y-39.89
N17305 X337.115 Y-41.04
N17310 X337.849 Y-42.286
N17315 X338.783 Y-43.617
N17320 X339.845 Y-44.896
N17325 X340.998 Y-46.095
N17330 X342.226 Y-47.215
N17335 X343.52 Y-48.26
N17340 X344.87 Y-49.231
N17345 X346.268 Y-50.13
N17350 X347.71 Y-50.959
N17355 X349.189 Y-51.719
N17360 X350.701 Y-52.41
N17365 X352.242 Y-53.034
N17370 X353.809 Y-53.591
N17375 X355.398 Y-54.08
N17380 X357.007 Y-54.5
N17385 X358.633 Y-54.848
N17390 X360.273 Y-55.124
N17395 X361.923 Y-55.327
N17400 X363.581 Y-55.454
N17405 X365.243 Y-55.497
N17410 X366.905 Y-55.458
N17415 X368.563 Y-55.331
N17420 X370.211 Y-55.11
N17425 X371.842 Y-54.786
N17430 X373.448 Y-54.354
N17435 X374.938 Y-53.834
N17440 X376.161 Y-53.293
N17445 X377.198 Y-52.732
N17450 X378.115 Y-52.136
N17455 X378.914 Y-51.519
N17460 X379.604 Y-50.892
N17465 X380.217 Y-50.239
N17470 X380.749 Y-49.571
N17475 X380.791 Y-49.508
N17480 X381.018 Y-49.107
N17485 X381.18 Y-48.675
N17490 X381.274 Y-48.224
N17495 X381.296 Y-47.764
N17500 X381.247 Y-47.306
N17505 X381.127 Y-46.861
N17510 X380.94 Y-46.44
N17515 X380.69 Y-46.053
N17520 X380.383 Y-45.709
N17525 X380.168 Y-45.489
N17530 X379.784 Y-45.061
N17535 X379.147 Y-44.292
N17540 X378.69 Y-43.694
N17545 X378.266 Y-43.095
N17550 G3 X377.119 Y-42.357 I-1.591 J-1.211
N17555 G1 X337.943 Y-33.434
N17560 G3 X335.679 Y-34.555 I-0.444 J-1.95
N17565 X335.5 Y-35.314 I1.82 J-0.829
N17570 G1 Y-43.095
N17575 X335.547 Y-44.036
N17580 X335.651 Y-44.83
N17585 X335.83 Y-45.667
N17590 X336.113 Y-46.611
N17595 X336.51 Y-47.63
N17600 X337.035 Y-48.712
N17605 X337.724 Y-49.883
N17610 X338.599 Y-51.128
N17615 X339.661 Y-52.408
N17620 X340.82 Y-53.6
N17625 X342.061 Y-54.707
N17630 X343.37 Y-55.732
N17635 X344.737 Y-56.678
N17640 X346.154 Y-57.548
N17645 X347.613 Y-58.345
N17650 X349.11 Y-59.07
N17655 X350.638 Y-59.725
N17660 X352.194 Y-60.312
N17665 X353.773 Y-60.831
N17670 X355.374 Y-61.282
N17675 X356.992 Y-61.664
N17680 X358.625 Y-61.978
N17685 X360.27 Y-62.223
N17690 X361.923 Y-62.4
N17695 X363.582 Y-62.505
N17700 X365.245 Y-62.536
N17705 X366.907 Y-62.49
N17710 X368.565 Y-62.368
N17715 X370.216 Y-62.167
N17720 X371.853 Y-61.878
N17725 X373.472 Y-61.498
N17730 X375.065 Y-61.022
N17735 X376.624 Y-60.444
N17740 X378.14 Y-59.762
N17745 X379.603 Y-58.971
N17750 X380.859 Y-58.16
N17755 X381.889 Y-57.371
N17760 X382.767 Y-56.579
N17765 X383.513 Y-55.789
N17770 X384.139 Y-55.008
N17775 X384.668 Y-54.228
N17780 X385.118 Y-53.434
N17785 X385.478 Y-52.659
N17790 X385.767 Y-51.879
N17795 X385.847 Y-51.47
N17800 X385.859 Y-51.053
N17805 X385.803 Y-50.64
N17810 X385.68 Y-50.242
N17815 X385.495 Y-49.869
N17820 X385.251 Y-49.531
N17825 X384.955 Y-49.237
N17830 X384.615 Y-48.996
N17835 X383.98 Y-48.618
N17840 X383.762 Y-48.482
N17845 X382.781 Y-47.79
N17850 X382.182 Y-47.342
N17855 X381.582 Y-46.827
N17860 G3 X380.889 Y-46.468 I-1.249 J-1.562
N17865 X380.575 Y-46.403 I-0.557 J-1.921
N17870 G1 X337.741 Y-41.18
N17875 G3 X335.679 Y-42.336 I-0.242 J-1.985
N17880 X335.5 Y-43.095 I1.82 J-0.829
N17885 G1 Y-50.876
N17890 X335.54 Y-51.683
N17895 X335.641 Y-52.452
N17900 X335.814 Y-53.258
N17905 X336.086 Y-54.168
N17910 X336.465 Y-55.142
N17915 X336.969 Y-56.179
N17920 X337.63 Y-57.303
N17925 X338.468 Y-58.495
N17930 X339.496 Y-59.734
N17935 X340.658 Y-60.924
N17940 X341.904 Y-62.025
N17945 X343.222 Y-63.039
N17950 X344.599 Y-63.971
N17955 X344.701 Y-64.032
N17960 X345.097 Y-64.234
N17965 X345.516 Y-64.381
N17970 X345.951 Y-64.47
N17975 X346.394 Y-64.5
N17980 X376.787
N17985 X378.213 Y-64.429
N17990 X379.249 Y-64.293
N17995 X380.344 Y-64.059
N18000 X381.471 Y-63.721
N18005 X382.6 Y-63.281
N18010 X383.71 Y-62.743
N18015 X384.789 Y-62.107
N18020 X385.826 Y-61.379
N18025 X386.806 Y-60.566
N18030 X387.659 Y-59.733
N18035 X388.383 Y-58.903
N18040 X388.982 Y-58.095
N18045 X389.472 Y-57.306
N18050 X389.885 Y-56.505
N18055 X390.21 Y-55.729
N18060 X390.46 Y-54.963
N18065 X390.643 Y-54.2
N18070 X390.684 Y-53.938
N18075 X390.717 Y-53.503
N18080 X390.681 Y-53.069
N18085 X390.577 Y-52.646
N18090 X390.407 Y-52.245
N18095 X390.176 Y-51.875
N18100 X389.889 Y-51.547
N18105 X389.554 Y-51.268
N18110 X389.18 Y-51.045
N18115 X388.775 Y-50.885
N18120 X388.747 Y-50.876
N18125 X388.175 Y-50.67
N18130 X387.19 Y-50.278
N18135 X386.977 Y-50.184
N18140 X386.377 Y-49.918
N18145 X385.866 Y-49.679
N18150 X385.178 Y-49.311
N18155 X384.758 Y-49.081
N18160 X384.615 Y-48.996
N18165 G3 X381.923 Y-49.748 I-0.961 J-1.754
N18170 G1 X375.126 Y-61.5
N18175 G3 X376.787 Y-64.5 I1.731 J-1.001
N18180 G1 X385.778
N18185 X386.186 Y-64.48
N18190 X386.829 Y-64.395
N18195 X387.53 Y-64.245
N18200 X388.26 Y-64.027
N18205 X388.995 Y-63.74
N18210 X389.752 Y-63.373
N18215 X390.518 Y-62.922
N18220 X391.268 Y-62.395
N18225 X391.992 Y-61.794
N18230 X392.672 Y-61.131
N18235 X393.278 Y-60.436
N18240 X393.792 Y-59.742
N18245 X394.241 Y-59.021
N18250 X394.607 Y-58.31
N18255 X394.906 Y-57.595
N18260 X395.142 Y-56.874
N18265 X395.31 Y-56.174
N18270 X395.421 Y-55.458
N18275 X395.473 Y-54.773
N18280 X395.435 Y-54.323
N18285 X395.327 Y-53.885
N18290 X395.152 Y-53.469
N18295 X394.915 Y-53.085
N18300 X394.62 Y-52.743
N18305 X394.276 Y-52.451
N18310 X393.891 Y-52.217
N18315 X393.473 Y-52.045
N18320 X393.034 Y-51.941
N18325 X392.971 Y-51.931
N18330 X392.371 Y-51.811
N18335 X391.772 Y-51.69
N18340 X390.806 Y-51.475
N18345 X390.573 Y-51.418
N18350 X389.974 Y-51.244
N18355 X389.374 Y-51.069
N18360 X388.775 Y-50.885
N18365 G3 X387.996 Y-50.833 I-0.52 J-1.931
N18370 X386.314 Y-52.334 I0.258 J-1.983
N18375 G1 X383.907 Y-62.019
N18380 G3 X385.778 Y-64.5 I1.941 J-0.482
N18385 G1 X391.772
N18390 X392.204 Y-64.478
N18395 X392.724 Y-64.41
N18400 X393.276 Y-64.292
N18405 X393.867 Y-64.115
N18410 X394.464 Y-63.883
N18415 X395.071 Y-63.588
N18420 X395.694 Y-63.221
N18425 X396.312 Y-62.787
N18430 X396.91 Y-62.291
N18435 X397.486 Y-61.729
N18440 X398.031 Y-61.104
N18445 X398.498 Y-60.473
N18450 X398.9 Y-59.827
N18455 X399.244 Y-59.16
N18460 X399.519 Y-58.502
N18465 X399.743 Y-57.817
N18470 X399.903 Y-57.15
N18475 X400.009 Y-56.472
N18480 X400.058 Y-55.806
N18485 X400.055 Y-55.15
N18490 X399.998 Y-54.499
N18495 X399.891 Y-54.082
N18500 X399.715 Y-53.689
N18505 X399.476 Y-53.331
N18510 X399.179 Y-53.018
N18515 X398.834 Y-52.761
N18520 X398.45 Y-52.565
N18525 X398.039 Y-52.436
N18530 X397.612 Y-52.379
N18535 X396.567 Y-52.328
N18540 X395.368 Y-52.255
N18545 X394.169 Y-52.103
N18550 X393.57 Y-52.024
N18555 X393.034 Y-51.941
N18560 G3 X392.256 Y-52.001 I-0.239 J-1.986
N18565 X390.807 Y-53.706 I0.539 J-1.926
N18570 G1 X389.854 Y-62.28
N18575 G3 X391.012 Y-64.321 I1.988 J-0.221
N18580 X391.772 Y-64.5 I0.829 J1.82
N18585 G1 X396.897
N18590 X397.369 Y-64.476
N18595 X397.834 Y-64.415
N18600 X398.335 Y-64.308
N18605 X398.846 Y-64.155
N18610 X399.382 Y-63.946
N18615 X399.937 Y-63.677
N18620 X400.489 Y-63.352
N18625 X401.035 Y-62.968
N18630 X401.58 Y-62.517
N18635 X402.109 Y-62.
N18640 X402.611 Y-61.425
N18645 X403.077 Y-60.795
N18650 X403.492 Y-60.128
N18655 X403.839 Y-59.456
N18660 X404.119 Y-58.786
N18665 X404.341 Y-58.104
N18670 X404.5 Y-57.442
N18675 X404.606 Y-56.764
N18680 X404.654 Y-56.118
N18685 X404.651 Y-55.459
N18690 X404.597 Y-54.838
N18695 X404.548 Y-54.546
N18700 X404.449 Y-54.153
N18705 X404.289 Y-53.78
N18710 X404.073 Y-53.438
N18715 X403.804 Y-53.134
N18720 X403.491 Y-52.877
N18725 X403.141 Y-52.672
N18730 X402.763 Y-52.526
N18735 X402.366 Y-52.441
N18740 X401.961 Y-52.421
N18745 X400.763 Y-52.455
N18750 X400.163 Y-52.47
N18755 X399.564 Y-52.458
N18760 X398.964 Y-52.445
N18765 X397.612 Y-52.379
N18770 G3 X396.845 Y-52.521 I-0.027 J-2.
N18775 X395.591 Y-54.227 I0.74 J-1.858
N18780 G1 X394.972 Y-62.349
N18785 G3 X396.137 Y-64.321 I1.994 J-0.152
N18790 X396.897 Y-64.5 I0.829 J1.82
N18795 G1 X401.692
N18800 X402.143 Y-64.477
N18805 X402.579 Y-64.42
N18810 X403.059 Y-64.318
N18815 X403.557 Y-64.168
N18820 X404.067 Y-63.97
N18825 X404.601 Y-63.711
N18830 X405.14 Y-63.393
N18835 X405.67 Y-63.021
N18840 X406.194 Y-62.586
N18845 X406.706 Y-62.087
N18850 X407.196 Y-61.525
N18855 X407.651 Y-60.91
N18860 X408.059 Y-60.254
N18865 X408.411 Y-59.573
N18870 X408.693 Y-58.896
N18875 X408.92 Y-58.204
N18880 X409.08 Y-57.534
N18885 X409.187 Y-56.851
N18890 X409.236 Y-56.191
N18895 X409.232 Y-55.536
N18900 X409.177 Y-54.898
N18905 X409.074 Y-54.282
N18910 X408.937 Y-53.876
N18915 X408.74 Y-53.496
N18920 X408.485 Y-53.152
N18925 X408.181 Y-52.851
N18930 X407.833 Y-52.601
N18935 X407.451 Y-52.407
N18940 X407.044 Y-52.276
N18945 X406.621 Y-52.208
N18950 X406.193
N18955 X405.558 Y-52.256
N18960 X404.958 Y-52.299
N18965 X404.359 Y-52.337
N18970 X403.76 Y-52.369
N18975 X401.961 Y-52.421
N18980 G3 X401.207 Y-52.621 I0.127 J-1.996
N18985 X400.09 Y-54.336 I0.881 J-1.795
N18990 G1 X399.763 Y-62.42
N18995 G3 X401.692 Y-64.5 I1.998 J-0.081
N19000 G1 X406.157
N19005 X406.788 Y-64.468
N19010 X407.215 Y-64.412
N19015 X407.682 Y-64.312
N19020 X408.176 Y-64.165
N19025 X408.677 Y-63.969
N19030 X409.202 Y-63.715
N19035 X409.737 Y-63.4
N19040 X410.263 Y-63.03
N19045 X410.78 Y-62.601
N19050 X411.287 Y-62.106
N19055 X411.774 Y-61.548
N19060 X412.227 Y-60.936
N19065 X412.641 Y-60.272
N19070 X412.998 Y-59.579
N19075 X413.29 Y-58.881
N19080 X413.513 Y-58.196
N19085 X413.682 Y-57.491
N19090 X413.789 Y-56.811
N19095 X413.84 Y-56.125
N19100 X413.836 Y-55.457
N19105 X413.78 Y-54.806
N19110 X413.672 Y-54.164
N19115 X413.519 Y-53.557
N19120 X413.345 Y-53.157
N19125 X413.106 Y-52.792
N19130 X412.81 Y-52.473
N19135 X412.465 Y-52.207
N19140 X412.079 Y-52.003
N19145 X411.666 Y-51.866
N19150 X411.235 Y-51.8
N19155 X410.799 Y-51.808
N19160 X409.154 Y-51.974
N19165 X408.555 Y-52.027
N19170 X406.307 Y-52.199
N19175 X406.193 Y-52.208
N19180 G3 X405.449 Y-52.444 I0.221 J-1.988
N19185 X404.415 Y-54.15 I0.965 J-1.752
N19190 G1 X404.227 Y-62.456
N19195 G3 X405.398 Y-64.321 I2. J-0.045
N19200 X406.157 Y-64.5 I0.829 J1.82
N19205 G1 X410.952
N19210 X411.374 Y-64.479
N19215 X411.8 Y-64.423
N19220 X412.268 Y-64.323
N19225 X412.763 Y-64.175
N19230 X413.266 Y-63.979
N19235 X413.792 Y-63.723
N19240 X414.329 Y-63.407
N19245 X414.858 Y-63.036
N19250 X415.378 Y-62.604
N19255 X415.891 Y-62.103
N19260 X416.382 Y-61.54
N19265 X416.839 Y-60.923
N19270 X417.256 Y-60.253
N19275 X417.629 Y-59.53
N19280 X417.949 Y-58.764
N19285 X418.192 Y-58.021
N19290 X418.369 Y-57.282
N19295 X418.483 Y-56.552
N19300 X418.536 Y-55.846
N19305 X418.532 Y-55.142
N19310 X418.474 Y-54.476
N19315 X418.362 Y-53.808
N19320 X418.206 Y-53.189
N19325 X418.045 Y-52.809
N19330 X417.828 Y-52.458
N19335 X417.561 Y-52.143
N19340 X417.251 Y-51.871
N19345 X416.903 Y-51.649
N19350 X416.526 Y-51.482
N19355 X416.128 Y-51.373
N19360 X415.718 Y-51.325
N19365 X415.305 Y-51.338
N19370 X413.949 Y-51.486
N19375 X412.75 Y-51.61
N19380 X410.799 Y-51.808
N19385 G3 X409.07 Y-53.778 I0.271 J-1.982
N19390 G1 X409.022 Y-62.49
N19395 G3 X410.193 Y-64.321 I2. J-0.011
N19400 X410.952 Y-64.5 I0.829 J1.82
N19405 G1 X415.478
N19410 X415.981 Y-64.475
N19415 X416.408 Y-64.419
N19420 X416.881 Y-64.318
N19425 X417.379 Y-64.168
N19430 X417.89 Y-63.969
N19435 X418.432 Y-63.706
N19440 X418.978 Y-63.385
N19445 X419.517 Y-63.007
N19450 X420.057 Y-62.558
N19455 X420.587 Y-62.041
N19460 X421.09 Y-61.465
N19465 X421.558 Y-60.831
N19470 X421.988 Y-60.141
N19475 X422.374 Y-59.393
N19480 X422.708 Y-58.594
N19485 X422.96 Y-57.823
N19490 X423.144 Y-57.056
N19495 X423.262 Y-56.297
N19500 X423.316 Y-55.569
N19505 X423.312 Y-54.839
N19510 X423.252 Y-54.141
N19515 X423.139 Y-53.466
N19520 X422.972 Y-52.806
N19525 X422.967 Y-52.791
N19530 X422.799 Y-52.395
N19535 X422.573 Y-52.028
N19540 X422.295 Y-51.698
N19545 X421.972 Y-51.414
N19550 X421.609 Y-51.181
N19555 X421.216 Y-51.005
N19560 X420.801 Y-50.889
N19565 X420.374 Y-50.836
N19570 X419.943 Y-50.847
N19575 X418.744 Y-50.969
N19580 X417.546 Y-51.095
N19585 X415.305 Y-51.338
N19590 G3 X414.57 Y-51.598 I0.285 J-1.98
N19595 X413.591 Y-53.309 I1.021 J-1.72
N19600 G1 X413.548 Y-62.492
N19605 G3 X415.478 Y-64.5 I2. J-0.009
N19610 G1 X420.273
N19615 X420.645 Y-64.481
N19620 X421.079 Y-64.424
N19625 X421.565 Y-64.32
N19630 X422.067 Y-64.17
N19635 X422.595 Y-63.965
N19640 X423.151 Y-63.695
N19645 X423.704 Y-63.369
N19650 X424.26 Y-62.979
N19655 X424.82 Y-62.514
N19660 X425.362 Y-61.985
N19665 X425.876 Y-61.396
N19670 X426.358 Y-60.745
N19675 X426.803 Y-60.029
N19680 X427.202 Y-59.255
N19685 X427.547 Y-58.43
N19690 X427.809 Y-57.629
N19695 X428.002 Y-56.821
N19700 X428.125 Y-56.037
N19705 X428.181 Y-55.28
N19710 X428.177 Y-54.522
N19715 X428.115 Y-53.802
N19720 X427.997 Y-53.099
N19725 X427.825 Y-52.418
N19730 X427.653 Y-52.011
N19735 X427.423 Y-51.635
N19740 X427.14 Y-51.296
N19745 X426.81 Y-51.002
N19750 X426.441 Y-50.759
N19755 X426.041 Y-50.574
N19760 X425.617 Y-50.449
N19765 X425.18 Y-50.388
N19770 X424.738 Y-50.392
N19775 X424.139 Y-50.441
N19780 X423.54 Y-50.493
N19785 X422.94 Y-50.547
N19790 X422.341 Y-50.604
N19795 X419.943 Y-50.847
N19800 G3 X418.215 Y-52.855 I0.271 J-1.982
N19805 G1 X418.343 Y-62.528
N19810 G3 X420.273 Y-64.5 I2. J0.027
N19815 G1 X424.738
N19820 X425.402 Y-64.467
N19825 X425.845 Y-64.409
N19830 X426.34 Y-64.303
N19835 X426.846 Y-64.151
N19840 X427.389 Y-63.94
N19845 X427.954 Y-63.666
N19850 X428.515 Y-63.335
N19855 X429.09 Y-62.932
N19860 X429.665 Y-62.454
N19865 X430.217 Y-61.915
N19870 X430.742 Y-61.313
N19875 X431.241 Y-60.64
N19880 X431.701 Y-59.9
N19885 X432.113 Y-59.102
N19890 X432.466 Y-58.256
N19895 X432.738 Y-57.424
N19900 X432.939 Y-56.586
N19905 X433.065 Y-55.779
N19910 X433.123 Y-54.997
N19915 X433.119 Y-54.217
N19920 X433.055 Y-53.478
N19925 X432.934 Y-52.754
N19930 X432.758 Y-52.057
N19935 X432.591 Y-51.66
N19940 X432.368 Y-51.291
N19945 X432.095 Y-50.958
N19950 X431.776 Y-50.668
N19955 X431.42 Y-50.426
N19960 X431.032 Y-50.238
N19965 X430.621 Y-50.108
N19970 X430.196 Y-50.038
N19975 X429.766 Y-50.03
N19980 X428.934 Y-50.074
N19985 X427.735 Y-50.145
N19990 X424.738 Y-50.392
N19995 G3 X422.972 Y-52.346 I0.234 J-1.986
N20000 G1 X422.808 Y-62.469
N20005 G3 X423.979 Y-64.321 I2. J-0.032
N20010 X424.738 Y-64.5 I0.829 J1.82
N20015 G1 X429.863
N20020 X430.211 Y-64.483
N20025 X430.669 Y-64.423
N20030 X431.173 Y-64.315
N20035 X431.688 Y-64.16
N20040 X432.25 Y-63.942
N20045 X432.822 Y-63.664
N20050 X433.398 Y-63.325
N20055 X433.993 Y-62.907
N20060 X434.579 Y-62.42
N20065 X435.143 Y-61.87
N20070 X435.686 Y-61.248
N20075 X436.201 Y-60.551
N20080 X436.675 Y-59.789
N20085 X437.097 Y-58.973
N20090 X437.459 Y-58.105
N20095 X437.744 Y-57.234
N20100 X437.951 Y-56.372
N20105 X438.08 Y-55.544
N20110 X438.14 Y-54.739
N20115 X438.135 Y-53.943
N20120 X438.07 Y-53.187
N20125 X437.947 Y-52.453
N20130 X437.768 Y-51.742
N20135 X437.593 Y-51.335
N20140 X437.356 Y-50.96
N20145 X437.064 Y-50.627
N20150 X436.723 Y-50.344
N20155 X436.342 Y-50.118
N20160 X435.93 Y-49.954
N20165 X435.498 Y-49.857
N20170 X435.055 Y-49.829
N20175 X434.329 Y-49.84
N20180 X433.13 Y-49.861
N20185 X432.53 Y-49.883
N20190 X429.766 Y-50.03
N20195 G3 X429.016 Y-50.249 I0.176 J-1.992
