%
(TWITCHYPONE)
(T1  D=5. CR=0. - ZMIN=400.463 - FLAT END MILL)
N10 G90 G94 G17 G91.1
N15 G21
(ADAPTIVE3)
N25 M9
N30 T1 M6
N35 S10000 M3
N40 G54
N45 M8
N55 G0 X322.49 Y-37.917
N60 G43 Z452.467 H1
N65 G0 Z442.467
N70 Z428.467
N75 G1 Z427.967 F2500.
N80 X322.492 Y-37.91 Z427.88
N85 X322.497 Y-37.888 Z427.796
N90 X322.507 Y-37.852 Z427.717
N95 X322.519 Y-37.804 Z427.646
N100 X322.534 Y-37.744 Z427.584
N105 X322.552 Y-37.675 Z427.534
N110 X322.572 Y-37.599 Z427.497
N115 X322.592 Y-37.517 Z427.475
N120 X322.614 Y-37.433 Z427.467
N125 G3 X323.005 Y-34.711 I-12.366 J3.167
N130 G1 Y-34.561
N135 X322.836 Y-33.691
N140 X322.726 Y-32.812
N145 X322.655 Y-31.929
N150 X322.609 Y-31.044
N155 X322.58 Y-30.158
N160 X322.561 Y-29.272
N165 X322.549 Y-28.386
N170 X322.541 Y-27.5
N175 X322.536 Y-26.614
N180 X322.532 Y-25.728
N185 X322.528 Y-23.955
N190 X322.526 Y-20.411
N195 X322.515 Y15.92
N200 X322.506 Y47.377
N205 X322.508 Y47.599
N210 X322.552 Y47.816
N215 X322.72 Y48.226
N220 X323.275 Y48.917
N225 X324.02 Y49.397
N230 X324.845 Y49.72
N235 X325.705 Y49.933
N240 X326.58 Y50.072
N245 X327.462 Y50.162
N250 X328.346 Y50.221
N255 X329.231 Y50.258
N260 X330.117 Y50.282
N265 X331.003 Y50.298
N270 X331.889 Y50.308
N275 X332.775 Y50.314
N280 X333.662 Y50.319
N285 X335.434 Y50.323
N290 X338.092 Y50.326
N295 X339.864 Y50.327
N300 X390.373 Y50.343
N305 X413.856 Y50.35
N310 X414.289 Y50.26
N315 X414.672 Y50.036
N320 X415.329 Y49.442
N325 X415.783 Y48.681
N330 X416.087 Y47.848
N335 X416.287 Y46.985
N340 X416.418 Y46.109
N345 X416.503 Y45.227
N350 X416.557 Y44.342
N355 X416.592 Y43.457
N360 X416.615 Y42.571
N365 X416.63 Y41.685
N370 X416.639 Y40.799
N375 X416.645 Y39.913
N380 X416.649 Y39.027
N385 X416.653 Y37.254
N390 X416.657 Y33.71
N395 X416.658 Y30.816
N400 X416.688 Y30.554
N405 X416.778 Y30.305
N410 X416.922 Y30.083
N415 X417.112 Y29.9
N420 X417.134 Y29.883
N425 X417.347 Y29.682
N430 X417.524 Y29.48
N435 X417.67 Y29.279
N440 X417.793 Y29.078
N445 X417.895 Y28.877
N450 X417.918 Y28.829
N455 X417.98 Y28.676
N460 X418.045 Y28.475
N465 X418.108 Y28.273
N470 X418.119 Y28.221
N475 X418.144 Y28.072
N480 X418.172 Y27.871
N485 X418.18 Y27.67
N490 X418.177 Y27.469
N495 X418.163 Y27.267
N500 X418.133 Y27.066
N505 X418.119 Y26.985
N510 X418.086 Y26.865
N515 X417.955 Y26.463
N520 X417.918 Y26.377
N525 X417.862 Y26.262
N530 X417.751 Y26.06
N535 X417.624 Y25.83
N540 X417.456 Y25.46
N545 X417.281 Y24.969
N550 X417.098 Y24.291
N555 X416.937 Y23.42
N560 X416.836 Y22.54
N565 X416.772 Y21.656
N570 X416.732 Y20.771
N575 X416.706 Y19.885
N580 X416.69 Y18.999
N585 X416.68 Y18.113
N590 X416.674 Y17.227
N595 X416.67 Y16.34
N600 X416.666 Y14.568
N605 X416.664 Y11.91
N610 X416.668 Y-4.926
N615 X416.674 Y-24.421
N620 X416.675 Y-29.738
N625 X416.657 Y-29.959
N630 X416.539 Y-30.386
N635 X416.292 Y-30.753
N640 X415.667 Y-31.382
N645 X414.894 Y-31.814
N650 X414.056 Y-32.103
N655 X413.19 Y-32.292
N660 X412.313 Y-32.416
N665 X411.43 Y-32.496
N670 X410.546 Y-32.547
N675 X409.66 Y-32.58
N680 X408.774 Y-32.601
N685 X407.888 Y-32.615
N690 X407.002 Y-32.623
N695 X406.116 Y-32.629
N700 X405.23 Y-32.632
N705 X403.458 Y-32.636
N710 X399.913 Y-32.637
N715 X391.734
N720 X391.48 Y-32.665
N725 X391.237 Y-32.748
N730 X391.019 Y-32.881
N735 X390.935 Y-32.941
N740 X390.734 Y-33.075
N745 X390.532 Y-33.189
N750 X390.317 Y-33.285
N755 X390.13 Y-33.352
N760 X389.928 Y-33.411
N765 X389.727 Y-33.465
N770 X389.123 Y-33.593
N775 X388.921 Y-33.631
N780 X388.405 Y-33.687
N785 X388.317 Y-33.696
N790 X387.713 Y-33.727
N795 X387.109 Y-33.752
N800 X386.304 Y-33.78
N805 X385.7 Y-33.796
N810 X384.894 Y-33.811
N815 X384.29 Y-33.819
N820 X383.082 Y-33.827
N825 X382.679 Y-33.826
N830 X381.672 Y-33.82
N835 X380.666 Y-33.799
N840 X380.464 Y-33.794
N845 X380.263 Y-33.783
N850 X379.86 Y-33.746
N855 X379.659 Y-33.725
N860 X379.055 Y-33.647
N865 X378.451 Y-33.535
N870 X378.249 Y-33.47
N875 X378.048 Y-33.395
N880 X377.399 Y-33.185
N885 X376.614 Y-33.
N890 X375.738 Y-32.866
N895 X374.856 Y-32.782
N900 X373.972 Y-32.728
N905 X373.086 Y-32.694
N910 X372.2 Y-32.673
N915 X371.314 Y-32.659
N920 X370.303 Y-32.649
N925 X370.024 Y-32.681
N930 X369.76 Y-32.78
N935 X369.527 Y-32.938
N940 X369.389 Y-33.059
N945 X369.36 Y-33.084
N950 X369.188 Y-33.218
N955 X368.785 Y-33.507
N960 X368.584 Y-33.618
N965 X368.382 Y-33.718
N970 X368.181 Y-33.793
N975 X367.98 Y-33.855
N980 X367.853 Y-33.889
N985 X367.778 Y-33.905
N990 X367.577 Y-33.937
N995 X367.376 Y-33.956
N1000 X366.973 Y-33.984
N1005 X366.771 Y-33.996
N1010 X366.167 Y-34.021
N1015 X365.563 Y-34.04
N1020 X364.556 Y-34.062
N1025 X363.952 Y-34.073
N1030 X363.147 Y-34.086
N1035 X361.939 Y-34.102
N1040 X359.522 Y-34.132
N1045 X358.717 Y-34.137
N1050 X358.314 Y-34.138
N1055 X358.113 Y-34.137
N1060 X357.509 Y-34.13
N1065 X356.905 Y-34.1
N1070 X356.809 Y-34.09
N1075 X356.301 Y-34.026
N1080 X356.099 Y-33.984
N1085 X355.694 Y-33.889
N1090 X355.495 Y-33.818
N1095 X355.294 Y-33.729
N1100 X355.213 Y-33.687
N1105 X354.682 Y-33.443
N1110 X354.203 Y-33.268
N1115 X353.544 Y-33.086
N1120 X352.674 Y-32.919
N1125 X351.794 Y-32.814
N1130 X350.911 Y-32.748
N1135 X350.025 Y-32.706
N1140 X349.14 Y-32.679
N1145 X348.254 Y-32.662
N1150 X347.368 Y-32.651
N1155 X346.482 Y-32.644
N1160 X345.595 Y-32.64
N1165 X344.709 Y-32.637
N1170 X342.937 Y-32.634
N1175 X338.507 Y-32.632
N1180 X327.43 Y-32.63
N1185 X326.997 Y-32.536
N1190 X326.611 Y-32.319
N1195 X325.941 Y-31.739
N1200 X325.471 Y-30.988
N1205 X325.15 Y-30.162
N1210 X324.936 Y-29.302
N1215 X324.794 Y-28.427
N1220 X324.7 Y-27.546
N1225 X324.639 Y-26.662
N1230 X324.6 Y-25.777
N1235 X324.574 Y-24.891
N1240 X324.557 Y-24.005
N1245 X324.546 Y-23.119
N1250 X324.538 Y-22.233
N1255 X324.534 Y-21.347
N1260 X324.531 Y-20.461
N1265 X324.527 Y-18.689
N1270 X324.524 Y-15.144
N1275 X324.523 Y-11.6
N1280 X324.509 Y38.909
N1285 X324.507 Y45.112
N1290 X324.625 Y45.539
N1295 X325.034 Y46.325
N1300 X325.685 Y46.926
N1305 X326.457 Y47.362
N1310 X327.288 Y47.67
N1315 X328.148 Y47.882
N1320 X329.022 Y48.028
N1325 X329.903 Y48.126
N1330 X330.786 Y48.193
N1335 X331.671 Y48.237
N1340 X332.557 Y48.267
N1345 X333.443 Y48.287
N1350 X334.329 Y48.3
N1355 X335.215 Y48.309
N1360 X336.101 Y48.315
N1365 X336.987 Y48.319
N1370 X338.759 Y48.324
N1375 X341.418 Y48.327
N1380 X354.71 Y48.332
N1385 X367.115 Y48.336
N1390 X411.422 Y48.349
N1395 X411.849 Y48.232
N1400 X412.636 Y47.826
N1405 X413.242 Y47.179
N1410 X413.682 Y46.41
N1415 X413.992 Y45.58
N1420 X414.207 Y44.72
N1425 X414.354 Y43.846
N1430 X414.454 Y42.966
N1435 X414.521 Y42.082
N1440 X414.566 Y41.197
N1445 X414.596 Y40.311
N1450 X414.617 Y39.426
N1455 X414.63 Y38.54
N1460 X414.639 Y37.653
N1465 X414.645 Y36.767
N1470 X414.649 Y35.881
N1475 X414.654 Y34.109
N1480 X414.656 Y32.337
N1485 X414.688 Y31.733
N1490 X414.71 Y31.569
N1495 X414.782 Y31.293
N1500 X414.92 Y31.042
N1505 X415.114 Y30.832
N1510 X415.354 Y30.676
N1515 X415.624 Y30.583
N1520 X415.703 Y30.566
N1525 X415.904 Y30.515
N1530 X416.004 Y30.486
N1535 G3 X416.609 Y30.852 I0.119 J0.486
N1540 G1 X416.63 Y30.937 Z427.475
N1545 X416.65 Y31.018 Z427.497
N1550 X416.669 Y31.095 Z427.534
N1555 X416.686 Y31.164 Z427.584
N1560 X416.701 Y31.224 Z427.646
N1565 X416.712 Y31.273 Z427.717
N1570 X416.721 Y31.309 Z427.796
N1575 X416.727 Y31.331 Z427.88
N1580 X416.728 Y31.338 Z427.967
N1585 G0 Z442.467
N1590 X418.784 Y26.808
N1595 Z428.467
N1600 G1 Z427.967 F2500.
N1605 X418.778 Y26.805 Z427.88
N1610 X418.757 Y26.795 Z427.796
N1615 X418.725 Y26.778 Z427.717
N1620 X418.68 Y26.755 Z427.646
N1625 X418.625 Y26.727 Z427.584
N1630 X418.562 Y26.695 Z427.534
N1635 X418.491 Y26.659 Z427.497
N1640 X418.416 Y26.62 Z427.475
N1645 X418.339 Y26.581 Z427.467
N1650 G3 X417.751 Y26.06 I0.721 J-1.409
N1655 G1 X417.624 Y25.859
N1660 X417.515 Y25.718
N1665 X417.463 Y25.658
N1670 X417.314 Y25.494
N1675 X417.112 Y25.308
N1680 X417.049 Y25.256
N1685 X416.788 Y25.055
N1690 X416.71 Y24.995
N1695 X416.512 Y24.828
N1700 X416.359 Y24.675
N1705 X416.189 Y24.476
N1710 X416.02 Y24.242
N1715 X415.836 Y23.94
N1720 X415.646 Y23.562
N1725 X415.448 Y23.073
N1730 X415.247 Y22.437
N1735 X415.049 Y21.573
N1740 X414.919 Y20.696
N1745 X414.832 Y19.814
N1750 X414.775 Y18.93
N1755 X414.737 Y18.045
N1760 X414.712 Y17.159
N1765 X414.695 Y16.273
N1770 X414.684 Y15.387
N1775 X414.677 Y14.501
N1780 X414.672 Y13.615
N1785 X414.669 Y12.729
N1790 X414.666 Y10.956
N1795 X414.665 Y7.412
N1800 X414.674 Y-25.375
N1805 Y-27.147
N1810 X414.62 Y-27.587
N1815 X414.466 Y-28.002
N1820 X414.003 Y-28.757
N1825 X413.324 Y-29.328
N1830 X412.54 Y-29.739
N1835 X411.702 Y-30.027
N1840 X410.838 Y-30.226
N1845 X409.963 Y-30.362
N1850 X409.081 Y-30.454
N1855 X408.197 Y-30.516
N1860 X407.312 Y-30.557
N1865 X406.426 Y-30.584
N1870 X405.54 Y-30.603
N1875 X404.654 Y-30.615
N1880 X403.768 Y-30.623
N1885 X402.882 Y-30.628
N1890 X401.996 Y-30.631
N1895 X400.224 Y-30.635
N1900 X396.679 Y-30.637
N1905 X394.021
N1910 X393.468 Y-30.638
N1915 X393.203 Y-30.669
N1920 X392.952 Y-30.76
N1925 X392.728 Y-30.904
N1930 X392.543 Y-31.096
N1935 X392.407 Y-31.325
N1940 X392.345 Y-31.463
N1945 X392.232 Y-31.676
N1950 X392.093 Y-31.877
N1955 X391.937 Y-32.078
N1960 X391.75 Y-32.279
N1965 X391.519 Y-32.48
N1970 X391.338 Y-32.631
N1975 X391.136 Y-32.791
N1980 X391.019 Y-32.881
N1985 X391.015 Y-32.886
N1990 G2 X390.568 Y-33.523 I-6.657 J4.197
N1995 X387.404 Y-35.945 I-6.209 J4.835
N2000 X387.23 Y-35.984 I-0.193 J0.461
N2005 G1 X382.075 Y-36.189
N2010 G2 X381.899 Y-36.164 I-0.02 J0.5
N2015 X378.55 Y-33.998 I2.459 J7.475
N2020 X378.056 Y-33.402 I5.808 J5.31
N2025 G1 X378.048 Y-33.395
N2030 X377.759 Y-33.285
N2035 X377.237 Y-33.084
N2040 X377.041 Y-32.989
N2045 X376.84 Y-32.882
N2050 X376.638 Y-32.759
N2055 X376.543 Y-32.682
N2060 X376.034 Y-32.241
N2065 X375.935 Y-32.152
N2070 X375.795 Y-32.037
N2075 X375.567 Y-31.878
N2080 X375.272 Y-31.707
N2085 X374.898 Y-31.529
N2090 X374.408 Y-31.341
N2095 X373.75 Y-31.148
N2100 X372.883 Y-30.968
N2105 X372.004 Y-30.852
N2110 X371.517 Y-30.825
N2115 X371.256 Y-30.841
N2120 X371.006 Y-30.914
N2125 X370.778 Y-31.042
N2130 X370.584 Y-31.218
N2135 X370.435 Y-31.433
N2140 X370.338 Y-31.676
N2145 X370.267 Y-31.877
N2150 X370.195 Y-32.047
N2155 X370.116 Y-32.189
N2160 G3 X370.336 Y-32.861 I0.446 J-0.226
N2165 X370.553 Y-32.915 I0.226 J0.446
N2170 G1 X375.577 Y-33.01
N2175 G3 X375.935 Y-32.152 I0.009 J0.5
N2180 G1 X375.833 Y-32.059
N2185 X375.631 Y-31.872
N2190 X375.43 Y-31.664
N2195 X375.273 Y-31.475
N2200 X375.229 Y-31.415
N2205 X375.129 Y-31.273
N2210 X375.012 Y-31.072
N2215 X374.995 Y-31.039
N2220 X374.922 Y-30.908
N2225 X374.815 Y-30.759
N2230 X374.674 Y-30.592
N2235 X374.513 Y-30.431
N2240 X374.306 Y-30.254
N2245 X374.04 Y-30.061
N2250 X373.751 Y-29.885
N2255 X373.419 Y-29.718
N2260 X373.083 Y-29.581
N2265 X372.79 Y-29.488
N2270 X372.489 Y-29.419
N2275 X372.217 Y-29.38
N2280 X371.946 Y-29.362
N2285 X371.687 Y-29.366
N2290 X371.447 Y-29.389
N2295 X371.174 Y-29.473
N2300 X370.93 Y-29.621
N2305 X370.729 Y-29.823
N2310 X370.583 Y-30.068
N2315 X370.501 Y-30.341
N2320 X370.488 Y-30.626
N2325 G3 X370.892 Y-31.062 I0.497 J0.055
N2330 G1 X371.038 Y-31.09
N2335 X374.447 Y-31.738
N2340 G3 X374.995 Y-31.039 I0.093 J0.491
N2345 G1 X374.912 Y-30.871
N2350 X374.721 Y-30.469
N2355 X374.535 Y-30.066
N2360 X374.423 Y-29.824
N2365 X374.364 Y-29.664
N2370 X374.311 Y-29.523
N2375 X374.238 Y-29.385
N2380 X374.147 Y-29.242
N2385 X374.037 Y-29.097
N2390 X373.903 Y-28.947
N2395 X373.753 Y-28.803
N2400 X373.579 Y-28.662
N2405 X373.381 Y-28.526
N2410 X373.167 Y-28.403
N2415 X372.946 Y-28.299
N2420 X372.732 Y-28.218
N2425 X372.496 Y-28.15
N2430 X372.281 Y-28.106
N2435 X372.06 Y-28.08
N2440 X371.833 Y-28.071
N2445 X371.628 Y-28.079
N2450 X371.412 Y-28.106
N2455 X371.201 Y-28.149
N2460 X371.157 Y-28.161
N2465 X370.896 Y-28.273
N2470 X370.669 Y-28.445
N2475 X370.491 Y-28.666
N2480 X370.371 Y-28.924
N2485 X370.318 Y-29.203
N2490 X370.333 Y-29.487
N2495 X370.401 Y-29.865
N2500 X370.433 Y-30.066
N2505 X370.476 Y-30.469
N2510 X370.488 Y-30.626
N2515 G3 X371.04 Y-31.068 I0.497 J0.055
N2520 X371.116 Y-31.054 I-0.055 J0.497
N2525 G1 X374.003 Y-30.272
N2530 X374.01 Y-30.27
N2535 G3 X374.364 Y-29.664 I-0.131 J0.483
N2540 G1 X374.222 Y-29.18
N2545 X374.191 Y-29.06
N2550 X374.051 Y-28.457
N2555 X374.011 Y-28.312
N2560 X373.954 Y-28.174
N2565 X373.885 Y-28.041
N2570 X373.802 Y-27.908
N2575 X373.703 Y-27.777
N2580 X373.585 Y-27.643
N2585 X373.449 Y-27.511
N2590 X373.297 Y-27.387
N2595 X373.126 Y-27.268
N2600 X372.936 Y-27.158
N2605 X372.73 Y-27.06
N2610 X372.519 Y-26.979
N2615 X372.313 Y-26.918
N2620 X372.083 Y-26.87
N2625 X371.872 Y-26.844
N2630 X371.663 Y-26.835
N2635 X371.44 Y-26.843
N2640 X371.24 Y-26.866
N2645 X371.039 Y-26.906
N2650 X370.833 Y-26.965
N2655 X370.652 Y-27.033
N2660 X370.603 Y-27.056
N2665 X370.357 Y-27.21
N2670 X370.158 Y-27.421
N2675 X370.016 Y-27.674
N2680 X369.941 Y-27.954
N2685 X369.938 Y-28.244
N2690 X370.006 Y-28.526
N2695 X370.057 Y-28.658
N2700 X370.13 Y-28.859
N2705 X370.272 Y-29.262
N2710 X370.329 Y-29.463
N2715 X370.333 Y-29.487
N2720 G3 X370.927 Y-29.871 I0.489 J0.105
N2725 X370.967 Y-29.86 I-0.105 J0.489
N2730 G1 X373.654 Y-29.044
N2735 X373.705 Y-29.028
N2740 G3 X374.051 Y-28.457 I-0.145 J0.478
N2745 G1 X373.915 Y-27.853
N2750 X373.885 Y-27.652
N2755 X373.842 Y-27.34
N2760 X373.815 Y-27.193
N2765 X373.77 Y-27.05
N2770 X373.712 Y-26.911
N2775 X373.642 Y-26.779
N2780 X373.556 Y-26.646
N2785 X373.455 Y-26.515
N2790 X373.337 Y-26.385
N2795 X373.2 Y-26.256
N2800 X373.046 Y-26.133
N2805 X372.876 Y-26.018
N2810 X372.689 Y-25.912
N2815 X372.484 Y-25.817
N2820 X372.263 Y-25.736
N2825 X372.031 Y-25.671
N2830 X371.796 Y-25.625
N2835 X371.572 Y-25.6
N2840 X371.326 Y-25.592
N2845 X371.104 Y-25.603
N2850 X370.891 Y-25.63
N2855 X370.665 Y-25.679
N2860 X370.465 Y-25.738
N2865 X370.271 Y-25.813
N2870 X370.072 Y-25.909
N2875 X370.043 Y-25.926
N2880 X369.823 Y-26.093
N2885 X369.649 Y-26.307
N2890 X369.529 Y-26.557
N2895 X369.472 Y-26.827
N2900 X369.48 Y-27.103
N2905 X369.552 Y-27.37
N2910 X369.792 Y-27.963
N2915 X369.993 Y-28.491
N2920 X370.006 Y-28.526
N2925 G3 X370.623 Y-28.808 I0.461 J0.194
N2930 G1 X370.661 Y-28.795
N2935 X373.398 Y-27.9
N2940 X373.5 Y-27.866
N2945 G3 X373.842 Y-27.34 I-0.155 J0.475
N2950 G1 X373.803 Y-27.049
N2955 X373.751 Y-26.646
N2960 X373.725 Y-26.445
N2965 X373.689 Y-26.133
N2970 X373.664 Y-25.986
N2975 X373.62 Y-25.842
N2980 X373.561 Y-25.704
N2985 X373.49 Y-25.569
N2990 X373.405 Y-25.436
N2995 X373.3 Y-25.298
N3000 X373.176 Y-25.159
N3005 X373.037 Y-25.026
N3010 X372.877 Y-24.896
N3015 X372.696 Y-24.772
N3020 X372.498 Y-24.659
N3025 X372.287 Y-24.559
N3030 X372.057 Y-24.472
N3035 X371.813 Y-24.402
N3040 X371.555 Y-24.35
N3045 X371.287 Y-24.318
N3050 X371.033 Y-24.308
N3055 X370.78 Y-24.319
N3060 X370.53 Y-24.349
N3065 X370.309 Y-24.395
N3070 X370.074 Y-24.463
N3075 X369.865 Y-24.542
N3080 X369.67 Y-24.635
N3085 X369.559 Y-24.699
N3090 X369.339 Y-24.863
N3095 X369.164 Y-25.074
N3100 X369.042 Y-25.32
N3105 X368.982 Y-25.588
N3110 X368.986 Y-25.862
N3115 X369.054 Y-26.128
N3120 X369.098 Y-26.244
N3125 X369.188 Y-26.469
N3130 X369.552 Y-27.37
N3135 G3 X370.158 Y-27.644 I0.457 J0.204
N3140 G1 X370.214 Y-27.626
N3145 X373.234 Y-26.685
N3150 X373.339 Y-26.652
N3155 G3 X373.689 Y-26.133 I-0.149 J0.477
N3160 G1 X373.655 Y-25.842
N3165 X373.585 Y-25.037
N3170 X373.563 Y-24.877
N3175 X373.53 Y-24.731
N3180 X373.484 Y-24.588
N3185 X373.424 Y-24.451
N3190 X373.348 Y-24.31
N3195 X373.258 Y-24.17
N3200 X373.145 Y-24.023
N3205 X373.014 Y-23.878
N3210 X372.864 Y-23.737
N3215 X372.689 Y-23.597
N3220 X372.495 Y-23.465
N3225 X372.284 Y-23.346
N3230 X372.052 Y-23.239
N3235 X371.802 Y-23.147
N3240 X371.536 Y-23.072
N3245 X371.258 Y-23.017
N3250 X370.971 Y-22.985
N3255 X370.682 Y-22.975
N3260 X370.41 Y-22.988
N3265 X370.126 Y-23.025
N3270 X369.882 Y-23.076
N3275 X369.633 Y-23.15
N3280 X369.406 Y-23.238
N3285 X369.202 Y-23.337
N3290 X368.991 Y-23.46
N3295 X368.986 Y-23.464
N3300 X368.793 Y-23.633
N3305 X368.642 Y-23.84
N3310 X368.54 Y-24.076
N3315 X368.492 Y-24.327
N3320 X368.499 Y-24.584
N3325 X368.563 Y-24.832
N3330 X369.039 Y-26.09
N3335 X369.054 Y-26.128
N3340 G3 X369.632 Y-26.418 I0.46 J0.196
N3345 G1 X369.711 Y-26.399
N3350 X373.113 Y-25.571
N3355 X373.204 Y-25.549
N3360 G3 X373.585 Y-25.037 I-0.118 J0.486
N3365 G1 X373.469 Y-23.719
N3370 X373.449 Y-23.571
N3375 X373.412 Y-23.426
N3380 X373.361 Y-23.284
N3385 X373.295 Y-23.139
N3390 X373.214 Y-22.994
N3395 X373.112 Y-22.842
N3400 X372.989 Y-22.686
N3405 X372.848 Y-22.536
N3410 X372.68 Y-22.382
N3415 X372.49 Y-22.235
N3420 X372.282 Y-22.099
N3425 X372.048 Y-21.971
N3430 X371.79 Y-21.856
N3435 X371.516 Y-21.76
N3440 X371.228 Y-21.684
N3445 X370.926 Y-21.63
N3450 X370.613 Y-21.599
N3455 X370.295 Y-21.594
N3460 X369.974 Y-21.614
N3465 X369.692 Y-21.655
N3470 X369.407 Y-21.72
N3475 X369.164 Y-21.796
N3480 X368.915 Y-21.897
N3485 X368.701 Y-22.004
N3490 X368.581 Y-22.078
N3495 X368.375 Y-22.236
N3500 X368.21 Y-22.435
N3505 X368.093 Y-22.666
N3510 X368.03 Y-22.918
N3515 X368.024 Y-23.177
N3520 X368.075 Y-23.431
N3525 X368.267 Y-24.031
N3530 X368.339 Y-24.232
N3535 X368.489 Y-24.635
N3540 X368.563 Y-24.832
N3545 G3 X369.135 Y-25.127 I0.461 J0.193
N3550 G1 X369.22 Y-25.108
N3555 X372.998 Y-24.252
N3560 X373.08 Y-24.233
N3565 G3 X373.469 Y-23.719 I-0.11 J0.488
N3570 G1 X373.374 Y-22.623
N3575 X373.359 Y-22.422
N3580 X373.341 Y-22.273
N3585 X373.306 Y-22.127
N3590 X373.256 Y-21.984
N3595 X373.193 Y-21.841
N3600 X373.109 Y-21.684
N3605 X373.008 Y-21.527
N3610 X372.884 Y-21.366
N3615 X372.735 Y-21.201
N3620 X372.569 Y-21.044
N3625 X372.372 Y-20.886
N3630 X372.149 Y-20.735
N3635 X371.907 Y-20.599
N3640 X371.637 Y-20.473
N3645 X371.344 Y-20.365
N3650 X371.031 Y-20.277
N3655 X370.706 Y-20.213
N3660 X370.372 Y-20.175
N3665 X370.029 Y-20.164
N3670 X369.688 Y-20.18
N3675 X369.372 Y-20.221
N3680 X369.063 Y-20.286
N3685 X368.799 Y-20.364
N3690 X368.532 Y-20.467
N3695 X368.308 Y-20.576
N3700 X368.081 Y-20.709
N3705 X368.072 Y-20.714
N3710 X367.866 Y-20.899
N3715 X367.709 Y-21.126
N3720 X367.61 Y-21.384
N3725 X367.574 Y-21.659
N3730 X367.604 Y-21.934
N3735 X367.624 Y-22.02
N3740 X367.687 Y-22.221
N3745 X368.075 Y-23.431
N3750 G3 X368.639 Y-23.753 I0.471 J0.169
N3755 G1 X368.716 Y-23.738
N3760 X372.875 Y-22.943
N3765 X372.953 Y-22.928
N3770 G3 X373.359 Y-22.422 I-0.094 J0.491
N3775 G1 X373.333 Y-22.02
N3780 X373.32 Y-21.818
N3785 X373.29 Y-21.215
N3790 X373.274 Y-21.039
N3795 X373.248 Y-20.891
N3800 X373.209 Y-20.746
N3805 X373.153 Y-20.594
N3810 X373.083 Y-20.441
N3815 X372.99 Y-20.275
N3820 X372.878 Y-20.109
N3825 X372.742 Y-19.938
N3830 X372.578 Y-19.763
N3835 X372.396 Y-19.597
N3840 X372.181 Y-19.431
N3845 X371.936 Y-19.272
N3850 X371.673 Y-19.129
N3855 X371.379 Y-18.999
N3860 X371.06 Y-18.887
N3865 X370.719 Y-18.798
N3870 X370.366 Y-18.735
N3875 X370.003 Y-18.7
N3880 X369.635 Y-18.695
N3885 X369.266 Y-18.719
N3890 X368.929 Y-18.768
N3895 X368.613 Y-18.841
N3900 X368.329 Y-18.931
N3905 X368.074 Y-19.035
N3910 X367.825 Y-19.16
N3915 X367.799 Y-19.176
N3920 X367.573 Y-19.355
N3925 X367.399 Y-19.584
N3930 X367.285 Y-19.848
N3935 X367.24 Y-20.132
N3940 X367.266 Y-20.419
N3945 X367.439 Y-21.215
N3950 X367.484 Y-21.416
N3955 X367.604 Y-21.934
N3960 G3 X368.149 Y-22.3 I0.483 J0.13
N3965 G1 X368.217 Y-22.292
N3970 X372.794 Y-21.722
N3975 X372.852 Y-21.715
N3980 G3 X373.29 Y-21.215 I-0.062 J0.496
N3985 G1 X373.265 Y-20.611
N3990 X373.26 Y-20.41
N3995 X373.248 Y-19.807
N4000 X373.238 Y-19.657
N4005 X373.21 Y-19.51
N4010 X373.167 Y-19.357
N4015 X373.109 Y-19.203
N4020 X373.03 Y-19.032
N4025 X372.933 Y-18.862
N4030 X372.81 Y-18.682
N4035 X372.662 Y-18.498
N4040 X372.491 Y-18.318
N4045 X372.286 Y-18.133
N4050 X372.058 Y-17.959
N4055 X371.8 Y-17.794
N4060 X371.507 Y-17.637
N4065 X371.186 Y-17.497
N4070 X370.846 Y-17.381
N4075 X370.482 Y-17.288
N4080 X370.1 Y-17.223
N4085 X369.708 Y-17.187
N4090 X369.313 Y-17.184
N4095 X368.921 Y-17.212
N4100 X368.591 Y-17.263
N4105 X368.26 Y-17.341
N4110 X367.991 Y-17.428
N4115 X367.822 Y-17.498
N4120 X367.591 Y-17.625
N4125 X367.395 Y-17.801
N4130 X367.244 Y-18.017
N4135 X367.145 Y-18.261
N4140 X367.103 Y-18.521
N4145 X367.099 Y-18.6
N4150 X367.159 Y-19.807
N4155 X367.174 Y-19.996
N4160 X367.266 Y-20.419
N4165 G3 X367.8 Y-20.794 I0.485 J0.123
N4170 G1 X367.874 Y-20.787
N4175 X372.74 Y-20.302
N4180 X372.798 Y-20.296
N4185 G3 X373.248 Y-19.807 I-0.05 J0.498
N4190 G1 X373.237 Y-19.203
N4195 X373.234 Y-18.6
N4200 X373.236 Y-18.489
N4205 X373.232 Y-18.339
N4210 X373.211 Y-18.19
N4215 X373.177 Y-18.043
N4220 X373.126 Y-17.881
N4225 X373.059 Y-17.715
N4230 X372.967 Y-17.532
N4235 X372.857 Y-17.351
N4240 X372.716 Y-17.157
N4245 X372.554 Y-16.967
N4250 X372.361 Y-16.774
N4255 X372.132 Y-16.58
N4260 X371.881 Y-16.4
N4265 X371.593 Y-16.226
N4270 X371.267 Y-16.064
N4275 X370.919 Y-15.924
N4280 X370.546 Y-15.808
N4285 X370.153 Y-15.72
N4290 X369.743 Y-15.662
N4295 X369.33 Y-15.637
N4300 X368.951 Y-15.644
N4305 X368.586 Y-15.681
N4310 X368.283 Y-15.736
N4315 X368.203 Y-15.758
N4320 X367.972 Y-15.846
N4325 X367.765 Y-15.982
N4330 X367.592 Y-16.157
N4335 X367.459 Y-16.366
N4340 X367.373 Y-16.597
N4345 X367.273 Y-16.99
N4350 X367.231 Y-17.191
N4355 X367.159 Y-17.795
N4360 X367.141 Y-17.996
N4365 X367.109 Y-18.398
N4370 X367.103 Y-18.521
N4375 G3 X367.597 Y-19.027 I0.5 J-0.006
N4380 X367.609 I0.006 J0.5
N4385 G1 X372.709 Y-18.962
N4390 X372.743 Y-18.961
N4395 G3 X373.236 Y-18.489 I-0.006 J0.5
N4400 G1 X373.254 Y-17.795
N4405 X373.265 Y-17.393
N4410 X373.271 Y-17.191
N4415 X373.274 Y-17.131
N4420 X373.273 Y-16.981
N4425 X373.257 Y-16.831
N4430 X373.228 Y-16.683
N4435 X373.182 Y-16.515
N4440 X373.119 Y-16.345
N4445 X373.032 Y-16.155
N4450 X372.926 Y-15.966
N4455 X372.79 Y-15.764
N4460 X372.629 Y-15.561
N4465 X372.439 Y-15.358
N4470 X372.209 Y-15.149
N4475 X371.957 Y-14.954
N4480 X371.667 Y-14.765
N4485 X371.336 Y-14.586
N4490 X370.979 Y-14.428
N4495 X370.601 Y-14.295
N4500 X370.198 Y-14.19
N4505 X369.797 Y-14.119
N4510 X369.432 Y-14.084
N4515 X369.102 Y-14.079
N4520 X369.025 Y-14.084
N4525 X368.784 Y-14.126
N4530 X368.556 Y-14.216
N4535 X368.353 Y-14.353
N4540 X368.183 Y-14.528
N4545 X368.053 Y-14.735
N4550 X367.935 Y-14.979
N4555 X367.851 Y-15.18
N4560 X367.69 Y-15.582
N4565 X367.615 Y-15.783
N4570 X367.428 Y-16.387
N4575 X367.373 Y-16.597
N4580 G3 X367.755 Y-17.192 I0.489 J-0.106
N4585 X367.822 Y-17.202 I0.106 J0.489
N4590 G1 X372.736 Y-17.589
N4595 G3 X373.274 Y-17.131 I0.039 J0.498
N4600 G1 X373.298 Y-16.588
N4605 X373.364 Y-15.783
N4610 X373.369 Y-15.633
N4615 X373.36 Y-15.484
N4620 X373.338 Y-15.33
N4625 X373.299 Y-15.161
N4630 X373.243 Y-14.984
N4635 X373.165 Y-14.791
N4640 X373.066 Y-14.595
N4645 X372.936 Y-14.381
N4650 X372.785 Y-14.173
N4655 X372.597 Y-13.953
N4660 X372.378 Y-13.736
N4665 X372.13 Y-13.526
N4670 X371.841 Y-13.318
N4675 X371.519 Y-13.125
N4680 X371.176 Y-12.954
N4685 X370.833 Y-12.817
N4690 X370.5 Y-12.713
N4695 X370.323 Y-12.674
N4700 X370.065 Y-12.646
N4705 X369.807 Y-12.675
N4710 X369.562 Y-12.761
N4715 X369.342 Y-12.899
N4720 X369.158 Y-13.082
N4725 X368.767 Y-13.57
N4730 X368.584 Y-13.815
N4735 X368.472 Y-13.973
N4740 X368.347 Y-14.174
N4745 X368.231 Y-14.375
N4750 X368.069 Y-14.703
N4755 X368.053 Y-14.735
N4760 G3 X368.421 Y-15.431 I0.457 J-0.204
N4765 G1 X372.779 Y-16.216
N4770 G3 X372.808 Y-16.22 I0.089 J0.492
N4775 X373.364 Y-15.783 I0.06 J0.496
N4780 G1 X373.433 Y-14.979
N4785 X373.453 Y-14.777
N4790 X373.479 Y-14.576
N4795 X373.494 Y-14.466
N4800 X373.508 Y-14.301
N4805 X373.509 Y-14.151
N4810 X373.497 Y-13.996
N4815 X373.47 Y-13.833
N4820 X373.425 Y-13.652
N4825 X373.361 Y-13.461
N4830 X373.274 Y-13.259
N4835 X373.162 Y-13.045
N4840 X373.026 Y-12.83
N4845 X372.855 Y-12.603
N4850 X372.659 Y-12.382
N4855 X372.436 Y-12.168
N4860 X372.204 Y-11.979
N4865 X371.952 Y-11.804
N4870 X371.722 Y-11.671
N4875 X371.473 Y-11.553
N4880 X371.373 Y-11.515
N4885 X371.121 Y-11.45
N4890 X370.862 Y-11.443
N4895 X370.607 Y-11.493
N4900 X370.369 Y-11.598
N4905 X370.161 Y-11.753
N4910 X369.992 Y-11.951
N4915 X369.792 Y-12.246
N4920 X369.562 Y-12.564
N4925 X369.188 Y-13.045
N4930 X369.158 Y-13.082
N4935 G3 X369.419 Y-13.862 I0.401 J-0.299
N4940 G1 X372.862 Y-14.86
N4945 G3 X372.916 Y-14.872 I0.139 J0.48
N4950 X373.494 Y-14.466 I0.086 J0.493
N4955 G1 X373.562 Y-13.973
N4960 X373.648 Y-13.369
N4965 X373.682 Y-13.168
N4970 X373.702 Y-13.057
N4975 X373.722 Y-12.909
N4980 X373.725 Y-12.759
N4985 X373.716 Y-12.607
N4990 X373.692 Y-12.436
N4995 X373.652 Y-12.258
N5000 X373.594 Y-12.068
N5005 X373.513 Y-11.868
N5010 X373.415 Y-11.669
N5015 X373.292 Y-11.465
N5020 X373.158 Y-11.277
N5025 X373.001 Y-11.092
N5030 X372.84 Y-10.93
N5035 X372.675 Y-10.789
N5040 X372.488 Y-10.653
N5045 X372.311 Y-10.545
N5050 X372.27 Y-10.524
N5055 X372.026 Y-10.434
N5060 X371.767 Y-10.4
N5065 X371.508 Y-10.424
N5070 X371.26 Y-10.504
N5075 X371.037 Y-10.638
N5080 X370.849 Y-10.818
N5085 X370.566 Y-11.156
N5090 X370.396 Y-11.378
N5095 X370.26 Y-11.559
N5100 X370.195 Y-11.653
N5105 X369.992 Y-11.951
N5110 G3 X370.289 Y-12.7 I0.423 J-0.266
N5115 G1 X373.087 Y-13.434
N5120 G3 X373.106 Y-13.438 I0.127 J0.484
N5125 X373.702 Y-13.057 I0.107 J0.488
N5130 G1 X373.756 Y-12.766
N5135 X373.796 Y-12.564
N5140 X373.978 Y-11.76
N5145 X374.004 Y-11.612
N5150 X374.012 Y-11.462
N5155 X374.007 Y-11.312
N5160 X373.989 Y-11.16
N5165 X373.956 Y-10.997
N5170 X373.907 Y-10.824
N5175 X373.845 Y-10.658
N5180 X373.771 Y-10.5
N5185 X373.676 Y-10.333
N5190 X373.575 Y-10.185
N5195 X373.463 Y-10.047
N5200 X373.33 Y-9.908
N5205 X373.199 Y-9.79
N5210 X373.151 Y-9.753
N5215 X372.924 Y-9.618
N5220 X372.673 Y-9.538
N5225 X372.41 Y-9.516
N5230 X372.148 Y-9.554
N5235 X371.902 Y-9.649
N5240 X371.684 Y-9.798
N5245 X371.505 Y-9.991
N5250 X371.388 Y-10.15
N5255 X371.236 Y-10.352
N5260 X371.201 Y-10.396
N5265 X370.849 Y-10.818
N5270 G3 X370.937 Y-11.52 I0.395 J-0.307
N5275 X371.134 Y-11.613 I0.307 J0.395
N5280 G1 X373.367 Y-12.116
N5285 X373.385 Y-12.12
N5290 G3 X373.978 Y-11.76 I0.11 J0.488
N5295 G1 X374.069 Y-11.357
N5300 X374.116 Y-11.156
N5305 X374.222 Y-10.738
N5310 X374.249 Y-10.636
N5315 X374.28 Y-10.489
N5320 X374.298 Y-10.34
N5325 X374.3 Y-10.19
N5330 X374.287 Y-10.041
N5335 X374.259 Y-9.894
N5340 X374.219 Y-9.749
N5345 X374.165 Y-9.609
N5350 X374.099 Y-9.473
N5355 X374.022 Y-9.344
N5360 X373.935 Y-9.222
N5365 X373.832 Y-9.101
N5370 X373.724 Y-8.994
N5375 X373.488 Y-8.838
N5380 X373.221 Y-8.746
N5385 X372.939 Y-8.721
N5390 X372.66 Y-8.766
N5395 X372.4 Y-8.878
N5400 X372.176 Y-9.05
N5405 X372. Y-9.271
N5410 X371.955 Y-9.346
N5415 X371.829 Y-9.547
N5420 X371.806 Y-9.581
N5425 X371.505 Y-9.991
N5430 G3 X371.636 Y-10.686 I0.413 J-0.282
N5435 X371.859 Y-10.77 I0.282 J0.413
N5440 G1 X373.625 Y-10.978
N5445 X373.711 Y-10.989
N5450 G3 X374.249 Y-10.636 I0.059 J0.497
N5455 G1 X374.325 Y-10.352
N5460 X374.423 Y-9.99
N5465 X374.525 Y-9.637
N5470 X374.56 Y-9.491
N5475 X374.581 Y-9.343
N5480 Y-9.193
N5485 X374.563 Y-9.044
N5490 X374.528 Y-8.898
N5495 X374.477 Y-8.757
N5500 X374.412 Y-8.622
N5505 X374.334 Y-8.494
N5510 X374.244 Y-8.374
N5515 X374.143 Y-8.263
N5520 X373.932 Y-8.109
N5525 X373.692 Y-8.009
N5530 X373.435 Y-7.966
N5535 X373.175 Y-7.984
N5540 X372.926 Y-8.061
N5545 X372.702 Y-8.193
N5550 X372.514 Y-8.373
N5555 X372.372 Y-8.592
N5560 G3 X372.584 Y-9.233 I0.456 J-0.205
N5565 G1 X372.622 Y-9.255
N5570 X373.806 Y-9.918
N5575 G3 X374.525 Y-9.637 I0.244 J0.436
N5580 G1 X374.61 Y-9.346
N5585 X374.807 Y-8.742
N5590 X374.847 Y-8.598
N5595 X374.86 Y-8.448
N5600 X374.852 Y-8.298
N5605 X374.824 Y-8.151
N5610 X374.779 Y-8.008
N5615 X374.718 Y-7.871
N5620 X374.641 Y-7.742
N5625 X374.553 Y-7.621
N5630 X374.341 Y-7.439
N5635 X374.092 Y-7.315
N5640 X373.819 Y-7.256
N5645 X373.541 Y-7.265
N5650 X373.273 Y-7.343
N5655 X373.032 Y-7.484
N5660 X372.833 Y-7.679
N5665 X372.689 Y-7.917
N5670 G3 X372.963 Y-8.569 I0.463 J-0.189
N5675 G1 X372.97 Y-8.572
N5680 X374.156 Y-9.035
N5685 X374.165 Y-9.038
N5690 G3 X374.807 Y-8.742 I0.173 J0.469
N5695 G1 X375.067 Y-7.938
N5700 X375.106 Y-7.793
N5705 X375.115 Y-7.643
N5710 X375.052 Y-7.387
N5715 X374.923 Y-7.158
N5720 X374.735 Y-6.973
N5725 X374.505 Y-6.845
N5730 X374.248 Y-6.786
N5735 G3 X373.552 Y-7.084 I-0.048 J-0.849
N5740 X373.355 Y-7.543 I0.648 J-0.55
N5745 X374.528 Y-8.473 I0.88 J-0.095
N5750 X375.067 Y-7.938 I-0.293 J0.835
N5755 G1 X375.131 Y-7.736
N5760 X375.199 Y-7.535
N5765 X375.229 Y-7.446
N5770 X375.24 Y-7.39
N5775 X375.244 Y-7.334
N5780 X375.241 Y-7.266
N5785 X375.229 Y-7.198
N5790 X375.207 Y-7.133
N5795 X375.183 Y-7.083
N5800 X375.152 Y-7.032
N5805 X375.112 Y-6.982
N5810 X375.063 Y-6.932
N5815 X375.027 Y-6.902
N5820 X374.977 Y-6.869
N5825 X374.927 Y-6.844
N5830 X374.876 Y-6.826
N5835 X374.826 Y-6.813
N5840 X374.776 Y-6.806
N5845 X374.725 Y-6.804
N5850 X374.625 Y-6.807
N5855 X374.423 Y-6.802
N5860 X374.222 Y-6.783
N5865 X373.618 Y-6.712
N5870 X373.517 Y-6.701
N5875 X373.467 Y-6.702
N5880 X373.416 Y-6.708
N5885 X373.333 Y-6.73
N5890 X373.274 Y-6.756
N5895 X373.215 Y-6.791
N5900 X373.145 Y-6.849
N5905 X373.106 Y-6.89
N5910 X373.074 Y-6.932
N5915 X373.039 Y-6.993
N5920 X373.014 Y-7.054
N5925 X372.923 Y-7.334
N5930 X372.85 Y-7.535
N5935 X372.812 Y-7.637
N5940 X372.77 Y-7.736
N5945 X372.59 Y-8.139
N5950 X372.496 Y-8.34
N5955 X372.199 Y-8.943
N5960 X372. Y-9.271
N5965 G3 X372.191 Y-9.952 I0.436 J-0.245
N5970 G1 X372.266 Y-9.995 Z427.475
N5975 X372.34 Y-10.036 Z427.497
N5980 X372.409 Y-10.075 Z427.534
N5985 X372.471 Y-10.109 Z427.584
N5990 X372.525 Y-10.14 Z427.646
N5995 X372.568 Y-10.164 Z427.717
N6000 X372.6 Y-10.182 Z427.796
N6005 X372.62 Y-10.193 Z427.88
N6010 X372.627 Y-10.197 Z427.967
N6015 G0 Z442.467
N6020 X356.042 Y-34.658
N6025 Z428.467
N6030 G1 Z427.967 F2500.
N6035 X356.038 Y-34.651 Z427.88
N6040 X356.026 Y-34.632 Z427.796
N6045 X356.007 Y-34.601 Z427.717
N6050 X355.98 Y-34.558 Z427.646
N6055 X355.948 Y-34.506 Z427.584
N6060 X355.911 Y-34.445 Z427.534
N6065 X355.869 Y-34.378 Z427.497
N6070 X355.825 Y-34.306 Z427.475
N6075 X355.779 Y-34.232 Z427.467
N6080 G3 X355.213 Y-33.687 I-1.346 J-0.832
N6085 G1 X355.092 Y-33.624
N6090 X354.891 Y-33.495
N6095 X354.69 Y-33.341
N6100 X354.627 Y-33.285
N6105 X354.488 Y-33.157
N6110 X354.287 Y-32.937
N6115 X354.001 Y-32.57
N6120 X353.903 Y-32.456
N6125 X353.743 Y-32.299
N6130 X353.548 Y-32.135
N6135 X353.306 Y-31.963
N6140 X352.994 Y-31.778
N6145 X352.612 Y-31.591
N6150 X352.111 Y-31.393
N6155 X351.446 Y-31.191
N6160 X350.581 Y-31.001
N6165 X349.703 Y-30.877
N6170 X348.821 Y-30.794
N6175 X347.937 Y-30.739
N6180 X347.051 Y-30.703
N6185 X346.165 Y-30.679
N6190 X345.279 Y-30.663
N6195 X344.393 Y-30.652
N6200 X343.507 Y-30.645
N6205 X342.621 Y-30.641
N6210 X341.735 Y-30.638
N6215 X339.963 Y-30.634
N6220 X336.418 Y-30.632
N6225 X330.215 Y-30.63
N6230 X329.773 Y-30.606
N6235 X329.347 Y-30.484
N6240 X328.563 Y-30.071
N6245 X327.958 Y-29.424
N6250 X327.517 Y-28.655
N6255 X327.204 Y-27.826
N6260 X326.987 Y-26.967
N6265 X326.837 Y-26.094
N6270 X326.735 Y-25.213
N6275 X326.666 Y-24.33
N6280 X326.619 Y-23.445
N6285 X326.588 Y-22.559
N6290 X326.567 Y-21.674
N6295 X326.553 Y-20.788
N6300 X326.543 Y-19.901
N6305 X326.537 Y-19.015
N6310 X326.533 Y-18.129
N6315 X326.528 Y-16.357
N6320 X326.524 Y-13.699
N6325 X326.521 Y-5.724
N6330 X326.507 Y43.013
N6335 X326.648 Y43.433
N6340 X327.076 Y44.209
N6345 X327.721 Y44.817
N6350 X328.484 Y45.267
N6355 X329.309 Y45.591
N6360 X330.165 Y45.82
N6365 X331.037 Y45.979
N6370 X331.916 Y46.09
N6375 X332.799 Y46.165
N6380 X333.683 Y46.217
N6385 X334.569 Y46.253
N6390 X335.455 Y46.277
N6395 X336.341 Y46.293
N6400 X337.227 Y46.304
N6405 X338.113 Y46.312
N6410 X338.999 Y46.317
N6415 X339.885 Y46.321
N6420 X341.657 Y46.325
N6425 X345.202 Y46.328
N6430 X377.102 Y46.339
N6435 X409.003 Y46.348
N6440 X409.44 Y46.278
N6445 X409.855 Y46.122
N6450 X410.616 Y45.668
N6455 X411.206 Y45.007
N6460 X411.641 Y44.235
N6465 X411.953 Y43.406
N6470 X412.172 Y42.547
N6475 X412.325 Y41.674
N6480 X412.43 Y40.794
N6485 X412.503 Y39.911
N6490 X412.552 Y39.027
N6495 X412.586 Y38.141
N6500 X412.609 Y37.255
N6505 X412.625 Y36.369
N6510 X412.635 Y35.483
N6515 X412.65 Y33.711
N6520 X412.678 Y32.862
N6525 X412.735 Y32.362
N6530 X412.819 Y31.934
N6535 X412.917 Y31.585
N6540 X412.952 Y31.491
N6545 X413.083 Y31.237
N6550 X413.272 Y31.023
N6555 X413.507 Y30.861
N6560 X413.775 Y30.761
N6565 X414.058 Y30.729
N6570 X414.495 Y30.732
N6575 X414.696 Y30.719
N6580 X415.099 Y30.686
N6585 X415.3 Y30.651
N6590 X415.624 Y30.583
N6595 G3 X416.203 Y30.988 I0.087 J0.492
N6600 G1 X416.218 Y31.074 Z427.475
N6605 X416.233 Y31.157 Z427.497
N6610 X416.246 Y31.235 Z427.534
N6615 X416.259 Y31.305 Z427.584
N6620 X416.269 Y31.366 Z427.646
N6625 X416.278 Y31.415 Z427.717
N6630 X416.285 Y31.451 Z427.796
N6635 X416.288 Y31.473 Z427.88
N6640 X416.29 Y31.481 Z427.967
N6645 G0 Z442.467
N6650 X417.939 Y25.335
N6655 Z428.467
N6660 G1 Z427.967 F2500.
N6665 X417.932 Y25.334 Z427.88
N6670 X417.909 Y25.332 Z427.796
N6675 X417.873 Y25.327 Z427.717
N6680 X417.823 Y25.322 Z427.646
N6685 X417.762 Y25.314 Z427.584
N6690 X417.691 Y25.306 Z427.534
N6695 X417.612 Y25.297 Z427.497
N6700 X417.529 Y25.287 Z427.475
N6705 X417.442 Y25.277 Z427.467
N6710 G3 X416.71 Y24.995 I0.184 J-1.572
N6715 G1 X416.262 Y24.652
N6720 X416.036 Y24.451
N6725 X415.904 Y24.332
N6730 X415.501 Y23.955
N6735 X414.927 Y23.445
N6740 X414.897 Y23.419
N6745 X414.696 Y23.248
N6750 X414.547 Y23.109
N6755 X414.37 Y22.914
N6760 X414.18 Y22.667
N6765 X413.989 Y22.374
N6770 X413.783 Y21.993
N6775 X413.578 Y21.528
N6780 X413.364 Y20.915
N6785 X413.146 Y20.082
N6790 X412.992 Y19.209
N6795 X412.887 Y18.329
N6800 X412.815 Y17.446
N6805 X412.767 Y16.561
N6810 X412.733 Y15.676
N6815 X412.711 Y14.79
N6820 X412.695 Y13.904
N6825 X412.685 Y13.018
N6830 X412.678 Y12.132
N6835 X412.674 Y11.246
N6840 X412.671 Y10.36
N6845 X412.667 Y8.587
N6850 X412.666 Y5.043
N6855 X412.674 Y-25.085
N6860 X412.58 Y-25.518
N6865 X412.23 Y-26.333
N6870 X411.63 Y-26.984
N6875 X410.89 Y-27.472
N6880 X410.078 Y-27.826
N6885 X409.228 Y-28.078
N6890 X408.36 Y-28.253
N6895 X407.482 Y-28.375
N6900 X406.6 Y-28.459
N6905 X405.716 Y-28.517
N6910 X404.83 Y-28.556
N6915 X403.945 Y-28.583
N6920 X403.059 Y-28.601
N6925 X402.173 Y-28.613
N6930 X401.287 Y-28.621
N6935 X400.4 Y-28.626
N6940 X399.514 Y-28.63
N6945 X397.742 Y-28.634
N6950 X395.084 Y-28.637
N6955 X394.452 Y-28.663
N6960 X394.001 Y-28.718
N6965 X393.595 Y-28.802
N6970 X393.519 Y-28.824
N6975 X393.261 Y-28.935
N6980 X393.038 Y-29.107
N6985 X392.865 Y-29.329
N6990 X392.752 Y-29.587
N6995 X392.706 Y-29.865
N7000 X392.685 Y-30.066
N7005 X392.64 Y-30.469
N7010 X392.609 Y-30.67
N7015 X392.562 Y-30.871
N7020 X392.507 Y-31.072
N7025 X392.43 Y-31.273
N7030 X392.407 Y-31.325
N7035 G3 X392.68 Y-31.977 I0.463 J-0.19
N7040 G1 X392.76 Y-32.01 Z427.475
N7045 X392.838 Y-32.042 Z427.497
N7050 X392.911 Y-32.072 Z427.534
N7055 X392.977 Y-32.099 Z427.584
N7060 X393.034 Y-32.123 Z427.646
N7065 X393.08 Y-32.142 Z427.717
N7070 X393.115 Y-32.155 Z427.796
N7075 X393.135 Y-32.164 Z427.88
N7080 X393.142 Y-32.167 Z427.967
N7085 G0 Z442.467
N7090 X354.352 Y-33.796
N7095 Z428.467
N7100 G1 Z427.967 F2500.
N7105 X354.351 Y-33.789 Z427.88
N7110 X354.348 Y-33.766 Z427.796
N7115 X354.343 Y-33.73 Z427.717
N7120 X354.337 Y-33.68 Z427.646
N7125 X354.329 Y-33.619 Z427.584
N7130 X354.321 Y-33.548 Z427.534
N7135 X354.311 Y-33.47 Z427.497
N7140 X354.3 Y-33.386 Z427.475
N7145 X354.289 Y-33.3 Z427.467
N7150 G3 X354.001 Y-32.57 I-1.57 J-0.198
N7155 G1 X353.931 Y-32.48
N7160 X353.884 Y-32.418
N7165 X353.805 Y-32.279
N7170 X353.699 Y-32.078
N7175 X353.683 Y-32.046
N7180 X353.616 Y-31.877
N7185 X353.549 Y-31.676
N7190 X353.533 Y-31.615
N7195 X353.487 Y-31.472
N7200 X353.426 Y-31.335
N7205 X353.342 Y-31.184
N7210 X353.227 Y-31.012
N7215 X353.095 Y-30.843
N7220 X352.923 Y-30.658
N7225 X352.696 Y-30.45
N7230 X352.443 Y-30.253
N7235 X352.119 Y-30.04
N7240 X351.722 Y-29.822
N7245 X351.22 Y-29.597
N7250 X350.591 Y-29.374
N7255 X349.737 Y-29.147
N7260 X348.865 Y-28.988
N7265 X347.986 Y-28.878
N7270 X347.103 Y-28.801
N7275 X346.218 Y-28.748
N7280 X345.333 Y-28.712
N7285 X344.447 Y-28.686
N7290 X343.561 Y-28.669
N7295 X342.675 Y-28.657
N7300 X341.789 Y-28.649
N7305 X340.903 Y-28.643
N7310 X340.017 Y-28.639
N7315 X338.245 Y-28.635
N7320 X335.586 Y-28.632
N7325 X332.042 Y-28.631
N7330 X331.611 Y-28.527
N7335 X330.805 Y-28.16
N7340 X330.163 Y-27.549
N7345 X329.682 Y-26.805
N7350 X329.333 Y-25.99
N7355 X329.084 Y-25.14
N7360 X328.91 Y-24.271
N7365 X328.789 Y-23.393
N7370 X328.705 Y-22.511
N7375 X328.647 Y-21.627
N7380 X328.608 Y-20.741
N7385 X328.581 Y-19.856
N7390 X328.563 Y-18.97
N7395 X328.55 Y-18.084
N7400 X328.542 Y-17.198
N7405 X328.536 Y-16.311
N7410 X328.532 Y-15.425
N7415 X328.527 Y-13.653
N7420 X328.524 Y-10.995
N7425 X328.52 Y-2.134
N7430 X328.508 Y40.4
N7435 X328.547 Y40.842
N7440 X328.669 Y41.268
N7445 X329.062 Y42.062
N7450 X329.683 Y42.693
N7455 X330.432 Y43.168
N7460 X331.248 Y43.514
N7465 X332.099 Y43.761
N7470 X332.968 Y43.935
N7475 X333.845 Y44.057
N7480 X334.727 Y44.141
N7485 X335.612 Y44.2
N7490 X336.497 Y44.24
N7495 X337.382 Y44.268
N7500 X338.268 Y44.287
N7505 X339.154 Y44.3
N7510 X340.04 Y44.309
N7515 X340.927 Y44.315
N7520 X341.813 Y44.319
N7525 X343.585 Y44.325
N7530 X346.243 Y44.328
N7535 X355.104 Y44.332
N7540 X385.233 Y44.341
N7545 X391.532 Y44.343
N7550 X391.742 Y44.362
N7555 X391.945 Y44.418
N7560 X392.134 Y44.51
N7565 X392.345 Y44.63
N7570 X392.591 Y44.769
N7575 X392.747 Y44.844
N7580 X392.949 Y44.931
N7585 X393.15 Y45.
N7590 X393.351 Y45.06
N7595 X393.76 Y45.172
N7600 X394.511 Y45.373
N7605 X394.56 Y45.384
N7610 X395.164 Y45.489
N7615 X395.768 Y45.541
N7620 X395.969 Y45.547
N7625 X396.372 Y45.554
N7630 X396.976 Y45.562
N7635 X397.177 Y45.56
N7640 X397.58 Y45.542
N7645 X397.781 Y45.532
N7650 X398.385 Y45.478
N7655 X399.191 Y45.342
N7660 X399.594 Y45.273
N7665 X399.795 Y45.235
N7670 X400.198 Y45.153
N7675 X400.399 Y45.109
N7680 X401.003 Y44.965
N7685 X401.114 Y44.928
N7690 X401.539 Y44.808
N7695 X402.408 Y44.638
N7700 X403.288 Y44.531
N7705 X404.171 Y44.464
N7710 X405.057 Y44.422
N7715 X405.942 Y44.395
N7720 X406.828 Y44.378
N7725 X407.266 Y44.312
N7730 X408.104 Y44.023
N7735 X408.796 Y43.47
N7740 X409.327 Y42.76
N7745 X409.718 Y41.965
N7750 X410. Y41.125
N7755 X410.2 Y40.261
N7760 X410.34 Y39.387
N7765 X410.439 Y38.506
N7770 X410.507 Y37.622
N7775 X410.554 Y36.737
N7780 X410.587 Y35.852
N7785 X410.613 Y34.966
N7790 X410.645 Y34.081
N7795 X410.714 Y33.197
N7800 X410.807 Y32.569
N7805 X410.915 Y32.1
N7810 X411.039 Y31.713
N7815 X411.17 Y31.392
N7820 X411.203 Y31.327
N7825 X411.292 Y31.179
N7830 X411.402 Y31.046
N7835 X411.531 Y30.93
N7840 X411.585 Y30.889
N7845 X411.675 Y30.835
N7850 X411.877 Y30.739
N7855 X412.089 Y30.687
N7860 X412.28 Y30.667
N7865 X412.481 Y30.653
N7870 X412.682 Y30.657
N7875 X413.286 Y30.689
N7880 X413.89 Y30.727
N7885 X414.058 Y30.729
N7890 G3 X414.535 Y31.251 I-0.023 J0.499
N7895 G1 X414.531 Y31.338 Z427.475
N7900 X414.527 Y31.422 Z427.497
N7905 X414.524 Y31.501 Z427.534
N7910 X414.52 Y31.572 Z427.584
N7915 X414.518 Y31.634 Z427.646
N7920 X414.515 Y31.684 Z427.717
N7925 X414.514 Y31.721 Z427.796
N7930 X414.512 Y31.743 Z427.88
N7935 Y31.751 Z427.967
N7940 G0 Z442.467
N7945 X415.907 Y23.65
N7950 Z428.467
N7955 G1 Z427.967 F2500.
N7960 X415.899 Y23.648 Z427.88
N7965 X415.877 Y23.645 Z427.796
N7970 X415.841 Y23.639 Z427.717
N7975 X415.792 Y23.63 Z427.646
N7980 X415.731 Y23.62 Z427.584
N7985 X415.66 Y23.608 Z427.534
N7990 X415.582 Y23.595 Z427.497
N7995 X415.499 Y23.581 Z427.475
N8000 X415.414 Y23.567 Z427.467
N8005 G3 X414.696 Y23.248 I0.263 J-1.561
N8010 G1 X414.293 Y22.907
N8015 X414.211 Y22.842
N8020 X413.94 Y22.641
N8025 X413.085 Y22.056
N8030 X412.865 Y21.889
N8035 X412.698 Y21.739
N8040 X412.514 Y21.546
N8045 X412.311 Y21.295
N8050 X412.114 Y21.007
N8055 X411.898 Y20.629
N8060 X411.685 Y20.174
N8065 X411.46 Y19.576
N8070 X411.234 Y18.782
N8075 X411.059 Y17.913
N8080 X410.938 Y17.035
N8085 X410.854 Y16.153
N8090 X410.796 Y15.269
N8095 X410.755 Y14.384
N8100 X410.727 Y13.498
N8105 X410.707 Y12.612
N8110 X410.694 Y11.726
N8115 X410.685 Y10.84
N8120 X410.678 Y9.954
N8125 X410.674 Y9.068
N8130 X410.669 Y7.296
N8135 X410.667 Y4.637
N8140 Y-2.452
N8145 X410.673 Y-22.832
N8150 X410.608 Y-23.271
N8155 X410.319 Y-24.108
N8160 X409.761 Y-24.797
N8165 X409.048 Y-25.323
N8170 X408.252 Y-25.711
N8175 X407.411 Y-25.99
N8180 X406.547 Y-26.188
N8185 X405.672 Y-26.327
N8190 X404.791 Y-26.424
N8195 X403.907 Y-26.491
N8200 X403.023 Y-26.537
N8205 X402.137 Y-26.569
N8210 X401.251 Y-26.591
N8215 X400.365 Y-26.606
N8220 X399.479 Y-26.616
N8225 X398.593 Y-26.623
N8230 X397.707 Y-26.627
N8235 X396.821 Y-26.631
N8240 X395.935 Y-26.643
N8245 X395.05 Y-26.691
N8250 X394.47 Y-26.768
N8255 X394.059 Y-26.856
N8260 X393.679 Y-26.971
N8265 X393.379 Y-27.088
N8270 X393.203 Y-27.174
N8275 X392.969 Y-27.324
N8280 X392.778 Y-27.525
N8285 X392.64 Y-27.765
N8290 X392.562 Y-28.031
N8295 X392.55 Y-28.309
N8300 X392.603 Y-28.581
N8305 G3 X393.243 Y-28.881 I0.47 J0.17
N8310 G1 X393.325 Y-28.851 Z427.475
N8315 X393.404 Y-28.823 Z427.497
N8320 X393.478 Y-28.796 Z427.534
N8325 X393.545 Y-28.772 Z427.584
N8330 X393.603 Y-28.751 Z427.646
N8335 X393.65 Y-28.734 Z427.717
N8340 X393.685 Y-28.721 Z427.796
N8345 X393.706 Y-28.714 Z427.88
N8350 X393.713 Y-28.711 Z427.967
N8355 G0 Z442.467
N8360 X414.331 Y22.33
N8365 Z428.467
N8370 G1 Z427.967 F2500.
N8375 X414.323 Z427.88
N8380 X414.301 Y22.328 Z427.796
N8385 X414.264 Y22.326 Z427.717
N8390 X414.214 Y22.323 Z427.646
N8395 X414.153 Y22.319 Z427.584
N8400 X414.081 Y22.314 Z427.534
N8405 X414.003 Y22.309 Z427.497
N8410 X413.919 Y22.304 Z427.475
N8415 X413.832 Y22.299 Z427.467
N8420 G3 X413.085 Y22.056 I0.1 J-1.579
N8425 G1 X413.057 Y22.037
N8430 X412.884 Y21.928
N8435 X412.348 Y21.635
N8440 X412.28 Y21.601
N8445 X411.675 Y21.32
N8450 X411.568 Y21.272
N8455 X411.431 Y21.202
N8460 X411.272 Y21.105
N8465 X411.092 Y20.973
N8470 X410.889 Y20.798
N8475 X410.695 Y20.601
N8480 X410.483 Y20.349
N8485 X410.257 Y20.032
N8490 X410.034 Y19.658
N8495 X409.799 Y19.179
N8500 X409.559 Y18.574
N8505 X409.321 Y17.795
N8510 X409.13 Y16.929
N8515 X408.995 Y16.054
N8520 X408.898 Y15.173
N8525 X408.83 Y14.289
N8530 X408.781 Y13.404
N8535 X408.746 Y12.519
N8540 X408.722 Y11.633
N8545 X408.705 Y10.747
N8550 X408.693 Y9.861
N8555 X408.684 Y8.975
N8560 X408.678 Y8.089
N8565 X408.674 Y7.203
N8570 X408.67 Y5.431
N8575 X408.667 Y2.772
N8580 X408.668 Y-4.317
N8585 X408.672 Y-20.267
N8590 X408.666 Y-21.153
N8595 X408.393 Y-21.996
N8600 X407.853 Y-22.698
N8605 X407.153 Y-23.242
N8610 X406.364 Y-23.646
N8615 X405.528 Y-23.939
N8620 X404.667 Y-24.149
N8625 X403.794 Y-24.297
N8630 X402.914 Y-24.402
N8635 X402.03 Y-24.474
N8640 X401.146 Y-24.525
N8645 X400.26 Y-24.56
N8650 X399.375 Y-24.584
N8655 X398.489 Y-24.601
N8660 X397.603 Y-24.615
N8665 X396.717 Y-24.64
N8670 X395.832 Y-24.689
N8675 X394.976 Y-24.783
N8680 X394.326 Y-24.909
N8685 X393.817 Y-25.05
N8690 X393.442 Y-25.187
N8695 X393.097 Y-25.347
N8700 X392.821 Y-25.501
N8705 X392.555 Y-25.681
N8710 X392.424 Y-25.785
N8715 X392.244 Y-25.964
N8720 X392.106 Y-26.178
N8725 X392.019 Y-26.417
N8730 X391.985 Y-26.669
N8735 X392.006 Y-26.922
N8740 X392.082 Y-27.165
N8745 X392.143 Y-27.305
N8750 X392.206 Y-27.451
N8755 X392.422 Y-28.055
N8760 X392.563 Y-28.457
N8765 X392.603 Y-28.581
N8770 G3 X393.243 Y-28.881 I0.47 J0.17
N8775 G1 X393.325 Y-28.851 Z427.475
N8780 X393.404 Y-28.823 Z427.497
N8785 X393.478 Y-28.796 Z427.534
N8790 X393.545 Y-28.772 Z427.584
N8795 X393.603 Y-28.751 Z427.646
N8800 X393.65 Y-28.734 Z427.717
N8805 X393.685 Y-28.721 Z427.796
N8810 X393.706 Y-28.714 Z427.88
N8815 X393.713 Y-28.711 Z427.967
N8820 G0 Z442.467
N8825 X412.843 Y21.319
N8830 Z428.467
N8835 G1 Z427.967 F2500.
N8840 X412.835 Y21.32 Z427.88
N8845 X412.813 Y21.323 Z427.796
N8850 X412.776 Y21.327 Z427.717
N8855 X412.727 Y21.333 Z427.646
N8860 X412.665 Y21.34 Z427.584
N8865 X412.594 Y21.348 Z427.534
N8870 X412.516 Y21.358 Z427.497
N8875 X412.432 Y21.367 Z427.475
N8880 X412.346 Y21.377 Z427.467
N8885 G3 X411.568 Y21.272 I-0.183 J-1.572
N8890 G1 X411.071 Y21.05
N8895 X411.023 Y21.031
N8900 X410.467 Y20.883
N8905 X410.266 Y20.84
N8910 X410.12 Y20.804
N8915 X409.962 Y20.748
N8920 X409.803 Y20.677
N8925 X409.622 Y20.579
N8930 X409.421 Y20.448
N8935 X409.224 Y20.295
N8940 X409. Y20.09
N8945 X408.77 Y19.843
N8950 X408.538 Y19.55
N8955 X408.285 Y19.172
N8960 X408.041 Y18.734
N8965 X407.785 Y18.176
N8970 X407.527 Y17.464
N8975 X407.292 Y16.61
N8980 X407.12 Y15.741
N8985 X406.995 Y14.863
N8990 X406.903 Y13.982
N8995 X406.837 Y13.098
N9000 X406.788 Y12.214
N9005 X406.753 Y11.328
N9010 X406.728 Y10.442
N9015 X406.71 Y9.557
N9020 X406.697 Y8.671
N9025 X406.688 Y7.784
N9030 X406.681 Y6.898
N9035 X406.677 Y6.012
N9040 X406.671 Y4.24
N9045 X406.668 Y1.582
N9050 Y-3.735
N9055 X406.672 Y-18.799
N9060 X406.6 Y-19.236
N9065 X406.299 Y-20.07
N9070 X405.738 Y-20.756
N9075 X405.027 Y-21.285
N9080 X404.232 Y-21.676
N9085 X403.393 Y-21.96
N9090 X402.53 Y-22.162
N9095 X401.656 Y-22.306
N9100 X400.775 Y-22.406
N9105 X399.892 Y-22.477
N9110 X399.007 Y-22.528
N9115 X398.122 Y-22.571
N9120 X397.237 Y-22.616
N9125 X396.353 Y-22.679
N9130 X395.473 Y-22.777
N9135 X394.618 Y-22.923
N9140 X393.909 Y-23.104
N9145 X393.317 Y-23.306
N9150 X392.842 Y-23.513
N9155 X392.47 Y-23.712
N9160 X392.149 Y-23.918
N9165 X391.893 Y-24.113
N9170 X391.654 Y-24.328
N9175 X391.57 Y-24.416
N9180 X391.4 Y-24.647
N9185 X391.291 Y-24.912
N9190 X391.251 Y-25.196
N9195 X391.28 Y-25.482
N9200 X391.379 Y-25.751
N9205 X391.942 Y-26.85
N9210 X392.031 Y-27.049
N9215 X392.082 Y-27.165
N9220 G3 X392.749 Y-27.399 I0.451 J0.216
N9225 G1 X392.827 Y-27.362 Z427.475
N9230 X392.903 Y-27.326 Z427.497
N9235 X392.974 Y-27.291 Z427.534
N9240 X393.039 Y-27.261 Z427.584
N9245 X393.094 Y-27.234 Z427.646
N9250 X393.139 Y-27.212 Z427.717
N9255 X393.173 Y-27.196 Z427.796
N9260 X393.193 Y-27.187 Z427.88
N9265 X393.2 Y-27.183 Z427.967
N9270 G0 Z442.467
N9275 X411.519 Y20.603
N9280 Z428.467
N9285 G1 Z427.967 F2500.
N9290 X411.512 Y20.605 Z427.88
N9295 X411.491 Y20.613 Z427.796
N9300 X411.456 Y20.625 Z427.717
N9305 X411.409 Y20.642 Z427.646
N9310 X411.351 Y20.662 Z427.584
N9315 X411.284 Y20.686 Z427.534
N9320 X411.209 Y20.713 Z427.497
N9325 X411.13 Y20.741 Z427.475
N9330 X411.048 Y20.77 Z427.467
N9335 G3 X410.266 Y20.84 I-0.529 J-1.492
N9340 G1 X409.46 Y20.682
N9345 X409.189 Y20.629
N9350 X409.058 Y20.612
N9355 X408.856 Y20.597
N9360 X408.707 Y20.579
N9365 X408.559 Y20.548
N9370 X408.396 Y20.499
N9375 X408.21 Y20.427
N9380 X408.023 Y20.337
N9385 X407.808 Y20.211
N9390 X407.591 Y20.06
N9395 X407.357 Y19.866
N9400 X407.103 Y19.62
N9405 X406.855 Y19.337
N9410 X406.575 Y18.962
N9415 X406.316 Y18.548
N9420 X406.036 Y18.01
N9425 X405.756 Y17.345
N9430 X405.481 Y16.511
N9435 X405.272 Y15.65
N9440 X405.115 Y14.778
N9445 X404.998 Y13.9
N9450 X404.911 Y13.018
N9455 X404.845 Y12.134
N9460 X404.797 Y11.25
N9465 X404.761 Y10.364
N9470 X404.735 Y9.478
N9475 X404.716 Y8.593
N9480 X404.702 Y7.706
N9485 X404.692 Y6.82
N9490 X404.685 Y5.934
N9495 X404.679 Y5.048
N9500 X404.676 Y4.162
N9505 X404.671 Y2.39
N9510 X404.669 Y-0.268
N9515 Y-6.471
N9520 X404.671 Y-16.219
N9525 X404.663 Y-17.105
N9530 X404.391 Y-17.948
N9535 X403.856 Y-18.654
N9540 X403.16 Y-19.203
N9545 X402.374 Y-19.613
N9550 X401.54 Y-19.912
N9555 X400.68 Y-20.127
N9560 X399.808 Y-20.283
N9565 X398.93 Y-20.399
N9570 X398.049 Y-20.495
N9575 X397.167 Y-20.587
N9580 X396.287 Y-20.69
N9585 X395.411 Y-20.82
N9590 X394.541 Y-20.991
N9595 X393.684 Y-21.218
N9600 X392.991 Y-21.46
N9605 X392.389 Y-21.726
N9610 X391.9 Y-21.992
N9615 X391.507 Y-22.248
N9620 X391.213 Y-22.475
N9625 X390.944 Y-22.72
N9630 X390.734 Y-22.944
N9635 X390.688 Y-23.002
N9640 X390.544 Y-23.235
N9645 X390.458 Y-23.496
N9650 X390.435 Y-23.769
N9655 X390.477 Y-24.04
N9660 X390.58 Y-24.294
N9665 X391.215 Y-25.439
N9670 X391.322 Y-25.641
N9675 X391.379 Y-25.751
N9680 G3 X392.059 Y-25.944 I0.437 J0.243
N9685 G1 X392.135 Y-25.902 Z427.475
N9690 X392.208 Y-25.861 Z427.497
N9695 X392.277 Y-25.823 Z427.534
N9700 X392.34 Y-25.788 Z427.584
N9705 X392.393 Y-25.758 Z427.646
N9710 X392.437 Y-25.734 Z427.717
N9715 X392.469 Y-25.716 Z427.796
N9720 X392.489 Y-25.705 Z427.88
N9725 X392.496 Y-25.701 Z427.967
N9730 G0 Z442.467
N9735 X410.071 Y20.207
N9740 Z428.467
N9745 G1 Z427.967 F2500.
N9750 X410.064 Y20.21 Z427.88
N9755 X410.044 Y20.22 Z427.796
N9760 X410.011 Y20.237 Z427.717
N9765 X409.966 Y20.259 Z427.646
N9770 X409.911 Y20.287 Z427.584
N9775 X409.847 Y20.319 Z427.534
N9780 X409.777 Y20.354 Z427.497
N9785 X409.702 Y20.392 Z427.475
N9790 X409.624 Y20.431 Z427.467
N9795 G3 X408.856 Y20.597 I-0.709 J-1.415
N9800 G1 X408.655 Y20.582
N9805 X408.454 Y20.57
N9810 X407.648 Y20.557
N9815 X407.447 Y20.553
N9820 X407.232 Y20.539
N9825 X407.068 Y20.515
N9830 X406.895 Y20.475
N9835 X406.703 Y20.415
N9840 X406.495 Y20.33
N9845 X406.278 Y20.221
N9850 X406.033 Y20.071
N9855 X405.792 Y19.896
N9860 X405.516 Y19.66
N9865 X405.252 Y19.394
N9870 X404.956 Y19.043
N9875 X404.669 Y18.643
N9880 X404.362 Y18.131
N9885 X404.071 Y17.547
N9890 X403.772 Y16.798
N9895 X403.51 Y15.951
N9900 X403.308 Y15.089
N9905 X403.152 Y14.216
N9910 X403.033 Y13.338
N9915 X402.941 Y12.457
N9920 X402.872 Y11.574
N9925 X402.819 Y10.689
N9930 X402.78 Y9.804
N9935 X402.75 Y8.918
N9940 X402.728 Y8.032
N9945 X402.711 Y7.146
N9950 X402.699 Y6.26
N9955 X402.69 Y5.374
N9960 X402.684 Y4.488
N9965 X402.679 Y3.602
N9970 X402.673 Y1.83
N9975 X402.669 Y-0.829
N9980 Y-5.259
N9985 X402.671 Y-14.12
N9990 X402.67 Y-15.007
N9995 X402.432 Y-15.86
N10000 X401.919 Y-16.583
N10005 X401.237 Y-17.148
N10010 X400.46 Y-17.574
N10015 X399.633 Y-17.892
N10020 X398.78 Y-18.133
N10025 X397.915 Y-18.324
N10030 X397.044 Y-18.49
N10035 X396.173 Y-18.651
N10040 X395.303 Y-18.822
N10045 X394.439 Y-19.019
N10050 X393.585 Y-19.255
N10055 X392.747 Y-19.543
N10060 X391.993 Y-19.867
N10065 X391.39 Y-20.186
N10070 X390.883 Y-20.509
N10075 X390.504 Y-20.795
N10080 X390.215 Y-21.052
N10085 X389.962 Y-21.317
N10090 X389.87 Y-21.43
N10095 X389.727 Y-21.655
N10100 X389.638 Y-21.906
N10105 X389.609 Y-22.17
N10110 X389.64 Y-22.435
N10115 X389.731 Y-22.685
N10120 X389.8 Y-22.824
N10125 X390.13 Y-23.454
N10130 X390.437 Y-24.031
N10135 X390.565 Y-24.266
N10140 X390.58 Y-24.294
N10145 G3 X391.266 Y-24.465 I0.429 J0.257
N10150 G1 X391.341 Y-24.42 Z427.475
N10155 X391.413 Y-24.377 Z427.497
N10160 X391.481 Y-24.336 Z427.534
N10165 X391.542 Y-24.3 Z427.584
N10170 X391.595 Y-24.268 Z427.646
N10175 X391.638 Y-24.242 Z427.717
N10180 X391.669 Y-24.223 Z427.796
N10185 X391.688 Y-24.212 Z427.88
N10190 X391.695 Y-24.208 Z427.967
N10195 G0 Z442.467
N10200 X408.637 Y20.095
N10205 Z428.467
N10210 G1 Z427.967 F2500.
N10215 X408.631 Y20.099 Z427.88
N10220 X408.611 Y20.11 Z427.796
N10225 X408.579 Y20.128 Z427.717
N10230 X408.536 Y20.153 Z427.646
N10235 X408.483 Y20.184 Z427.584
N10240 X408.421 Y20.219 Z427.534
N10245 X408.352 Y20.259 Z427.497
N10250 X408.279 Y20.301 Z427.475
N10255 X408.204 Y20.344 Z427.467
N10260 G3 X407.447 Y20.553 I-0.788 J-1.373
N10265 G1 X407.245 Y20.55
N10270 X407.044 Y20.563
N10275 X406.641 Y20.597
N10280 X406.44 Y20.618
N10285 X406.037 Y20.664
N10290 X405.888 Y20.674
N10295 X405.738 Y20.67
N10300 X405.562 Y20.65
N10305 X405.373 Y20.614
N10310 X405.167 Y20.556
N10315 X404.942 Y20.474
N10320 X404.707 Y20.365
N10325 X404.443 Y20.216
N10330 X404.18 Y20.039
N10335 X403.885 Y19.804
N10340 X403.599 Y19.536
N10345 X403.277 Y19.181
N10350 X402.972 Y18.784
N10355 X402.643 Y18.279
N10360 X402.312 Y17.666
N10365 X401.993 Y16.943
N10370 X401.702 Y16.106
N10375 X401.471 Y15.25
N10380 X401.29 Y14.383
N10385 X401.147 Y13.509
N10390 X401.035 Y12.63
N10395 X400.948 Y11.748
N10400 X400.881 Y10.864
N10405 X400.829 Y9.98
N10410 X400.789 Y9.094
N10415 X400.758 Y8.209
N10420 X400.735 Y7.323
N10425 X400.717 Y6.437
N10430 X400.704 Y5.551
N10435 X400.694 Y4.665
N10440 X400.687 Y3.779
N10445 X400.682 Y2.893
N10450 X400.678 Y2.007
N10455 X400.673 Y0.234
N10460 X400.67 Y-2.424
N10465 X400.669 Y-7.741
N10470 X400.67 Y-13.058
N10475 X400.414 Y-13.906
N10480 X399.893 Y-14.623
N10485 X399.214 Y-15.192
N10490 X398.447 Y-15.635
N10495 X397.632 Y-15.984
N10500 X396.794 Y-16.271
N10505 X395.944 Y-16.522
N10510 X395.091 Y-16.76
N10515 X394.238 Y-17.003
N10520 X393.392 Y-17.265
N10525 X392.557 Y-17.561
N10530 X391.739 Y-17.902
N10535 X390.968 Y-18.288
N10540 X390.332 Y-18.674
N10545 X389.867 Y-19.01
N10550 X389.5 Y-19.322
N10555 X389.226 Y-19.597
N10560 X389. Y-19.863
N10565 X388.813 Y-20.122
N10570 X388.758 Y-20.256
N10575 X388.745 Y-20.4
N10580 X388.776 Y-20.541
N10585 X388.803 Y-20.611
N10590 X388.884 Y-20.812
N10595 X389.152 Y-21.416
N10600 X389.41 Y-22.02
N10605 X389.503 Y-22.221
N10610 X389.731 Y-22.685
N10615 G3 X390.408 Y-22.887 I0.44 J0.238
N10620 G1 X390.485 Y-22.846 Z427.475
N10625 X390.559 Y-22.806 Z427.497
N10630 X390.628 Y-22.768 Z427.534
N10635 X390.691 Y-22.734 Z427.584
N10640 X390.745 Y-22.705 Z427.646
N10645 X390.789 Y-22.681 Z427.717
N10650 X390.822 Y-22.663 Z427.796
N10655 X390.841 Y-22.653 Z427.88
N10660 X390.848 Y-22.649 Z427.967
N10665 G0 Z442.467
N10670 X407.156 Y20.051
N10675 Z428.467
N10680 G1 Z427.967 F2500.
N10685 X407.15 Y20.056 Z427.88
N10690 X407.132 Y20.07 Z427.796
N10695 X407.103 Y20.092 Z427.717
N10700 X407.063 Y20.122 Z427.646
N10705 X407.014 Y20.16 Z427.584
N10710 X406.958 Y20.203 Z427.534
N10715 X406.895 Y20.251 Z427.497
N10720 X406.828 Y20.303 Z427.475
N10725 X406.759 Y20.356 Z427.467
N10730 G3 X406.037 Y20.664 I-0.963 J-1.255
N10735 G1 X405.836 Y20.688
N10740 X405.635 Y20.714
N10745 X405.433 Y20.743
N10750 X405.232 Y20.779
N10755 X404.829 Y20.881
N10760 X404.634 Y20.92
N10765 X404.485 Y20.937
N10770 X404.32 Y20.942
N10775 X404.148 Y20.934
N10780 X403.948 Y20.908
N10785 X403.735 Y20.862
N10790 X403.502 Y20.793
N10795 X403.253 Y20.696
N10800 X402.986 Y20.567
N10805 X402.7 Y20.398
N10810 X402.401 Y20.188
N10815 X402.082 Y19.924
N10820 X401.753 Y19.603
N10825 X401.415 Y19.216
N10830 X401.056 Y18.731
N10835 X400.717 Y18.186
N10840 X400.362 Y17.5
N10845 X400.02 Y16.682
N10850 X399.742 Y15.841
N10855 X399.518 Y14.984
N10860 X399.337 Y14.116
N10865 X399.192 Y13.242
N10870 X399.077 Y12.363
N10875 X398.985 Y11.482
N10880 X398.913 Y10.599
N10885 X398.856 Y9.715
N10890 X398.811 Y8.83
N10895 X398.777 Y7.944
N10900 X398.75 Y7.058
N10905 X398.73 Y6.172
N10910 X398.714 Y5.286
N10915 X398.702 Y4.4
N10920 X398.693 Y3.514
N10925 X398.687 Y2.628
N10930 X398.682 Y1.742
N10935 X398.675 Y-0.03
N10940 X398.672 Y-1.802
N10945 X398.669 Y-5.347
N10950 X398.67 Y-10.664
N10955 X398.568 Y-11.544
N10960 X398.176 Y-12.339
N10965 X397.588 Y-13.002
N10970 X396.885 Y-13.54
N10975 X396.116 Y-13.982
N10980 X395.313 Y-14.355
N10985 X394.492 Y-14.689
N10990 X393.664 Y-15.005
N10995 X392.837 Y-15.324
N11000 X392.017 Y-15.659
N11005 X391.208 Y-16.022
N11010 X390.42 Y-16.427
N11015 X389.675 Y-16.876
N11020 X389.102 Y-17.286
N11025 X388.645 Y-17.673
N11030 X388.506 Y-17.812
N11035 X388.344 Y-18.012
N11040 X388.231 Y-18.243
N11045 X388.171 Y-18.493
N11050 X388.167 Y-18.751
N11055 X388.22 Y-19.002
N11060 X388.352 Y-19.404
N11065 X388.571 Y-20.008
N11070 X388.648 Y-20.209
N11075 X388.776 Y-20.541
N11080 G3 X389.432 Y-20.805 I0.46 J0.196
N11085 G1 X389.512 Y-20.771 Z427.475
N11090 X389.59 Y-20.738 Z427.497
N11095 X389.662 Y-20.707 Z427.534
N11100 X389.728 Y-20.678 Z427.584
N11105 X389.785 Y-20.654 Z427.646
N11110 X389.83 Y-20.635 Z427.717
N11115 X389.864 Y-20.62 Z427.796
N11120 X389.885 Y-20.611 Z427.88
N11125 X389.892 Y-20.608 Z427.967
N11130 G0 Z442.467
N11135 X405.859 Y20.128
N11140 Z428.467
N11145 G1 Z427.967 F2500.
N11150 X405.854 Y20.133 Z427.88
N11155 X405.838 Y20.149 Z427.796
N11160 X405.812 Y20.175 Z427.717
N11165 X405.776 Y20.21 Z427.646
N11170 X405.733 Y20.254 Z427.584
N11175 X405.682 Y20.304 Z427.534
N11180 X405.626 Y20.36 Z427.497
N11185 X405.567 Y20.42 Z427.475
N11190 X405.505 Y20.481 Z427.467
N11195 G3 X404.829 Y20.881 I-1.118 J-1.12
N11200 G1 X404.628 Y20.932
N11205 X404.024 Y21.111
N11210 X403.822 Y21.18
N11215 X403.51 Y21.29
N11220 X403.366 Y21.334
N11225 X403.219 Y21.363
N11230 X403.062 Y21.381
N11235 X402.876 Y21.388
N11240 X402.683 Y21.38
N11245 X402.457 Y21.351
N11250 X402.227 Y21.303
N11255 X401.961 Y21.225
N11260 X401.694 Y21.123
N11265 X401.386 Y20.976
N11270 X401.083 Y20.8
N11275 X400.739 Y20.561
N11280 X400.406 Y20.288
N11285 X400.035 Y19.93
N11290 X399.669 Y19.515
N11295 X399.288 Y19.006
N11300 X399.014 Y18.572
N11305 X398.971 Y18.499
N11310 X398.934 Y18.422
N11315 X398.903 Y18.344
N11320 X398.857 Y18.215
N11325 X398.782 Y18.014
N11330 X398.75 Y17.913
N11335 X398.742 Y17.863
N11340 X398.738 Y17.812
N11345 X398.74 Y17.762
N11350 X398.747 Y17.712
N11355 X398.774 Y17.611
N11360 X398.831 Y17.41
N11365 X398.975 Y16.819
N11370 X398.977 Y16.807
N11375 X398.996 Y16.404
N11380 X399.004 Y16.203
N11385 X398.964 Y15.6
N11390 X398.864 Y15.009
N11395 X398.86 Y14.996
N11400 X398.716 Y14.594
N11405 X398.637 Y14.393
N11410 X398.385 Y13.92
N11415 X398.314 Y13.789
N11420 X398.184 Y13.591
N11425 X397.976 Y13.237
N11430 X397.768 Y12.809
N11435 X397.553 Y12.256
N11440 X397.328 Y11.502
N11445 X397.143 Y10.635
N11450 X397.013 Y9.759
N11455 X396.92 Y8.877
N11460 X396.853 Y7.994
N11465 X396.804 Y7.109
N11470 X396.768 Y6.223
N11475 X396.742 Y5.338
N11480 X396.723 Y4.452
N11485 X396.708 Y3.566
N11490 X396.698 Y2.68
N11495 X396.69 Y1.794
N11500 X396.684 Y0.908
N11505 X396.68 Y0.021
N11510 X396.674 Y-1.751
N11515 X396.671 Y-4.409
N11520 X396.67 Y-8.84
N11525 X396.547 Y-9.717
N11530 X396.166 Y-10.518
N11535 X395.605 Y-11.204
N11540 X394.933 Y-11.781
N11545 X394.197 Y-12.274
N11550 X393.425 Y-12.709
N11555 X392.634 Y-13.109
N11560 X391.837 Y-13.496
N11565 X391.042 Y-13.888
N11570 X390.257 Y-14.299
N11575 X389.488 Y-14.74
N11580 X388.745 Y-15.222
N11585 X388.281 Y-15.578
N11590 X387.95 Y-15.879
N11595 X387.9 Y-15.932
N11600 X387.728 Y-16.168
N11605 X387.62 Y-16.44
N11610 X387.583 Y-16.729
N11615 X387.619 Y-17.019
N11620 X387.663 Y-17.191
N11625 X387.713 Y-17.382
N11630 X387.915 Y-18.017
N11635 X388.116 Y-18.684
N11640 X388.22 Y-19.002
N11645 G3 X388.861 Y-19.3 I0.469 J0.172
N11650 G1 X388.943 Y-19.27 Z427.475
N11655 X389.022 Y-19.241 Z427.497
N11660 X389.096 Y-19.213 Z427.534
N11665 X389.163 Y-19.189 Z427.584
N11670 X389.221 Y-19.168 Z427.646
N11675 X389.268 Y-19.15 Z427.717
N11680 X389.303 Y-19.138 Z427.796
N11685 X389.324 Y-19.13 Z427.88
N11690 X389.331 Y-19.127 Z427.967
N11695 G0 Z442.467
N11700 X399.233 Y14.318
N11705 Z428.467
N11710 G1 Z427.967 F2500.
N11715 X399.226 Y14.314 Z427.88
N11720 X399.206 Y14.304 Z427.796
N11725 X399.172 Y14.288 Z427.717
N11730 X399.128 Y14.266 Z427.646
N11735 X399.072 Y14.239 Z427.584
N11740 X399.008 Y14.208 Z427.534
N11745 X398.937 Y14.174 Z427.497
N11750 X398.861 Y14.137 Z427.475
N11755 X398.783 Y14.099 Z427.467
N11760 G3 X398.184 Y13.591 I0.692 J-1.423
N11765 G1 X398.049 Y13.387
N11770 X397.983 Y13.308
N11775 X397.873 Y13.185
N11780 X397.462 Y12.783
N11785 X397.379 Y12.707
N11790 X397.24 Y12.582
N11795 X396.976 Y12.369
N11800 X396.865 Y12.283
N11805 X396.712 Y12.151
N11810 X396.545 Y11.982
N11815 X396.359 Y11.762
N11820 X396.174 Y11.502
N11825 X395.971 Y11.162
N11830 X395.765 Y10.744
N11835 X395.546 Y10.194
N11840 X395.322 Y9.463
N11845 X395.131 Y8.598
N11850 X394.997 Y7.722
N11855 X394.904 Y6.841
N11860 X394.838 Y5.957
N11865 X394.79 Y5.072
N11870 X394.757 Y4.187
N11875 X394.732 Y3.301
N11880 X394.715 Y2.415
N11885 X394.702 Y1.529
N11890 X394.693 Y0.643
N11895 X394.686 Y-0.243
N11900 X394.681 Y-1.129
N11905 X394.675 Y-2.901
N11910 X394.671 Y-5.56
N11915 Y-6.446
N11920 X394.659 Y-7.332
N11925 X394.462 Y-8.196
N11930 X394.054 Y-8.982
N11935 X393.495 Y-9.67
N11940 X392.841 Y-10.268
N11945 X392.13 Y-10.797
N11950 X391.387 Y-11.28
N11955 X390.629 Y-11.739
N11960 X389.867 Y-12.191
N11965 X389.11 Y-12.652
N11970 X388.368 Y-13.137
N11975 X387.827 Y-13.538
N11980 X387.467 Y-13.853
N11985 X387.453 Y-13.868
N11990 X387.282 Y-14.091
N11995 X387.17 Y-14.348
N12000 X387.123 Y-14.624
N12005 X387.143 Y-14.904
N12010 X387.236 Y-15.381
N12015 X387.361 Y-15.984
N12020 X387.512 Y-16.596
N12025 X387.619 Y-17.019
N12030 G3 X388.239 Y-17.359 I0.48 J0.14
N12035 G1 X388.323 Y-17.334 Z427.475
N12040 X388.403 Y-17.311 Z427.497
N12045 X388.479 Y-17.289 Z427.534
N12050 X388.548 Y-17.269 Z427.584
N12055 X388.607 Y-17.251 Z427.646
N12060 X388.655 Y-17.237 Z427.717
N12065 X388.69 Y-17.227 Z427.796
N12070 X388.712 Y-17.221 Z427.88
N12075 X388.719 Y-17.219 Z427.967
N12080 G0 Z442.467
N12085 X398.092 Y12.632
N12090 Z428.467
N12095 G1 Z427.967 F2500.
N12100 X398.085 Y12.631 Z427.88
N12105 X398.062 Y12.628 Z427.796
N12110 X398.026 Y12.624 Z427.717
N12115 X397.976 Y12.618 Z427.646
N12120 X397.915 Y12.61 Z427.584
N12125 X397.844 Y12.601 Z427.534
N12130 X397.766 Y12.591 Z427.497
N12135 X397.682 Y12.581 Z427.475
N12140 X397.596 Y12.57 Z427.467
N12145 G3 X396.865 Y12.283 I0.196 J-1.57
N12150 G1 X396.775 Y12.212
N12155 X396.417 Y11.978
N12160 X396.372 Y11.952
N12165 X396.17 Y11.843
N12170 X395.566 Y11.528
N12175 X395.505 Y11.5
N12180 X395.37 Y11.428
N12185 X395.201 Y11.32
N12190 X395.027 Y11.189
N12195 X394.846 Y11.028
N12200 X394.643 Y10.815
N12205 X394.436 Y10.56
N12210 X394.222 Y10.249
N12215 X393.996 Y9.856
N12220 X393.767 Y9.371
N12225 X393.533 Y8.752
N12230 X393.294 Y7.921
N12235 X393.117 Y7.053
N12240 X392.991 Y6.176
N12245 X392.901 Y5.294
N12250 X392.836 Y4.41
N12255 X392.79 Y3.525
N12260 X392.756 Y2.64
N12265 X392.732 Y1.754
N12270 X392.714 Y0.868
N12275 X392.702 Y-0.018
N12280 X392.693 Y-0.904
N12285 X392.686 Y-1.79
N12290 X392.681 Y-2.676
N12295 X392.675 Y-4.448
N12300 X392.671 Y-5.334
N12305 X392.562 Y-6.214
N12310 X392.255 Y-7.045
N12315 X391.784 Y-7.796
N12320 X391.203 Y-8.465
N12325 X390.552 Y-9.066
N12330 X389.86 Y-9.619
N12335 X389.144 Y-10.142
N12340 X388.421 Y-10.653
N12345 X387.704 Y-11.174
N12350 X387.199 Y-11.582
N12355 X387.124 Y-11.653
N12360 X386.948 Y-11.866
N12365 X386.827 Y-12.114
N12370 X386.768 Y-12.383
N12375 X386.773 Y-12.659
N12380 X386.817 Y-12.967
N12385 X386.935 Y-13.771
N12390 X386.966 Y-13.973
N12395 X387.109 Y-14.731
N12400 X387.143 Y-14.904
N12405 G3 X387.743 Y-15.279 I0.487 J0.112
N12410 G1 X387.827 Y-15.26 Z427.475
N12415 X387.909 Y-15.241 Z427.497
N12420 X387.986 Y-15.223 Z427.534
N12425 X388.056 Y-15.207 Z427.584
N12430 X388.116 Y-15.193 Z427.646
N12435 X388.164 Y-15.182 Z427.717
N12440 X388.2 Y-15.173 Z427.796
N12445 X388.222 Y-15.168 Z427.88
N12450 X388.23 Y-15.167 Z427.967
N12455 G0 Z442.467
N12460 X396.779 Y11.568
N12465 Z428.467
N12470 G1 Z427.967 F2500.
N12475 X396.772 Y11.569 Z427.88
N12480 X396.749 Y11.571 Z427.796
N12485 X396.713 Y11.575 Z427.717
N12490 X396.663 Y11.58 Z427.646
N12495 X396.602 Y11.586 Z427.584
N12500 X396.531 Y11.593 Z427.534
N12505 X396.452 Y11.601 Z427.497
N12510 X396.368 Y11.609 Z427.475
N12515 X396.282 Y11.618 Z427.467
N12520 G3 X395.505 Y11.5 I-0.158 J-1.575
N12525 G1 X395.164 Y11.341
N12530 X394.962 Y11.256
N12535 X394.738 Y11.174
N12540 X394.358 Y11.039
N12545 X394.155 Y10.973
N12550 X394.045 Y10.939
N12555 X393.893 Y10.884
N12560 X393.74 Y10.815
N12565 X393.563 Y10.717
N12570 X393.37 Y10.588
N12575 X393.178 Y10.436
N12580 X392.96 Y10.234
N12585 X392.732 Y9.986
N12590 X392.507 Y9.697
N12595 X392.259 Y9.32
N12600 X392.021 Y8.885
N12605 X391.769 Y8.322
N12610 X391.513 Y7.603
N12615 X391.285 Y6.746
N12620 X391.119 Y5.876
N12625 X390.997 Y4.998
N12630 X390.909 Y4.116
N12635 X390.844 Y3.233
N12640 X390.796 Y2.348
N12645 X390.762 Y1.462
N12650 X390.736 Y0.577
N12655 X390.718 Y-0.309
N12660 X390.705 Y-1.195
N12665 X390.695 Y-2.081
N12670 X390.688 Y-2.967
N12675 X390.671 Y-3.853
N12680 X390.546 Y-4.731
N12685 X390.247 Y-5.565
N12690 X389.803 Y-6.332
N12695 X389.258 Y-7.03
N12700 X388.645 Y-7.67
N12705 X387.992 Y-8.269
N12710 X387.321 Y-8.848
N12715 X386.908 Y-9.215
N12720 X386.727 Y-9.42
N12725 X386.598 Y-9.662
N12730 X386.529 Y-9.927
N12735 X386.524 Y-10.2
N12740 X386.558 Y-10.553
N12745 X386.611 Y-11.156
N12750 X386.631 Y-11.357
N12755 X386.76 Y-12.564
N12760 X386.773 Y-12.659
N12765 G3 X387.352 Y-13.065 I0.493 J0.086
N12770 G1 X387.437 Y-13.05 Z427.475
N12775 X387.52 Y-13.036 Z427.497
N12780 X387.598 Y-13.022 Z427.534
N12785 X387.668 Y-13.01 Z427.584
N12790 X387.729 Y-12.999 Z427.646
N12795 X387.778 Y-12.991 Z427.717
N12800 X387.814 Y-12.985 Z427.796
N12805 X387.837 Y-12.981 Z427.88
N12810 X387.844 Y-12.979 Z427.967
N12815 G0 Z442.467
N12820 X395.316 Y10.829
N12825 Z428.467
N12830 G1 Z427.967 F2500.
N12835 X395.309 Y10.83 Z427.88
N12840 X395.287 Y10.836 Z427.796
N12845 X395.251 Y10.844 Z427.717
N12850 X395.203 Y10.856 Z427.646
N12855 X395.143 Y10.871 Z427.584
N12860 X395.073 Y10.888 Z427.534
N12865 X394.997 Y10.907 Z427.497
N12870 X394.915 Y10.927 Z427.475
N12875 X394.831 Y10.947 Z427.467
N12880 G3 X394.045 Y10.939 I-0.376 J-1.537
N12885 G1 X393.754 Y10.85
N12890 X393.553 Y10.791
N12895 X393.15 Y10.684
N12900 X392.747 Y10.604
N12905 X392.576 Y10.57
N12910 X392.381 Y10.522
N12915 X392.213 Y10.465
N12920 X392.044 Y10.393
N12925 X391.849 Y10.291
N12930 X391.645 Y10.161
N12935 X391.432 Y10.
N12940 X391.189 Y9.785
N12945 X390.958 Y9.545
N12950 X390.701 Y9.23
N12955 X390.444 Y8.857
N12960 X390.175 Y8.392
N12965 X389.911 Y7.836
N12970 X389.639 Y7.119
N12975 X389.392 Y6.268
N12980 X389.207 Y5.402
N12985 X389.069 Y4.527
N12990 X388.965 Y3.646
N12995 X388.889 Y2.764
N13000 X388.831 Y1.879
N13005 X388.789 Y0.994
N13010 X388.757 Y0.109
N13015 X388.734 Y-0.777
N13020 X388.715 Y-1.663
N13025 X388.678 Y-2.548
N13030 X388.523 Y-3.421
N13035 X388.219 Y-4.253
N13040 X387.791 Y-5.029
N13045 X387.273 Y-5.748
N13050 X386.7 Y-6.424
N13055 X386.656 Y-6.475
N13060 X386.496 Y-6.71
N13065 X386.399 Y-6.977
N13070 X386.368 Y-7.26
N13075 X386.378 Y-7.736
N13080 X386.384 Y-7.938
N13085 X386.407 Y-8.541
N13090 X386.439 Y-9.145
N13095 X386.453 Y-9.346
N13100 X386.483 Y-9.748
N13105 X386.499 Y-9.949
N13110 X386.524 Y-10.2
N13115 G3 X387.086 Y-10.629 I0.496 J0.066
N13120 G1 X387.172 Y-10.618 Z427.475
N13125 X387.256 Y-10.607 Z427.497
N13130 X387.334 Y-10.596 Z427.534
N13135 X387.405 Y-10.587 Z427.584
N13140 X387.466 Y-10.579 Z427.646
N13145 X387.515 Y-10.572 Z427.717
N13150 X387.552 Y-10.567 Z427.796
N13155 X387.574 Y-10.564 Z427.88
N13160 X387.582 Y-10.563 Z427.967
N13165 G0 Z442.467
N13170 X393.829 Y10.33
N13175 Z428.467
N13180 G1 Z427.967 F2500.
N13185 X393.822 Y10.333 Z427.88
N13190 X393.8 Y10.34 Z427.796
N13195 X393.766 Y10.353 Z427.717
N13200 X393.718 Y10.369 Z427.646
N13205 X393.66 Y10.39 Z427.584
N13210 X393.593 Y10.414 Z427.534
N13215 X393.519 Y10.441 Z427.497
N13220 X393.44 Y10.469 Z427.475
N13225 X393.358 Y10.498 Z427.467
N13230 G3 X392.576 Y10.57 I-0.532 J-1.49
N13235 G1 X392.345 Y10.525
N13240 X391.942 Y10.466
N13245 X391.74 Y10.438
N13250 X391.539 Y10.42
N13255 X391.136 Y10.393
N13260 X390.955 Y10.371
N13265 X390.792 Y10.338
N13270 X390.625 Y10.29
N13275 X390.429 Y10.217
N13280 X390.23 Y10.123
N13285 X390.011 Y9.997
N13290 X389.775 Y9.835
N13295 X389.535 Y9.641
N13300 X389.264 Y9.382
N13305 X389.008 Y9.095
N13310 X388.715 Y8.709
N13315 X388.443 Y8.282
N13320 X388.148 Y7.727
N13325 X387.855 Y7.046
N13330 X387.57 Y6.207
N13335 X387.353 Y5.348
N13340 X387.187 Y4.478
N13345 X387.06 Y3.6
N13350 X386.964 Y2.72
N13355 X386.891 Y1.837
N13360 X386.835 Y0.952
N13365 X386.793 Y0.067
N13370 X386.749 Y-0.818
N13375 X386.639 Y-1.697
N13380 X386.441 Y-2.414
N13385 X386.427 Y-2.471
N13390 X386.415 Y-2.528
N13395 X386.407 Y-2.587
N13400 X386.345 Y-3.109
N13405 X386.333 Y-3.311
N13410 X386.313 Y-3.713
N13415 X386.307 Y-3.914
N13420 X386.306 Y-4.518
N13425 X386.328 Y-5.121
N13430 X386.344 Y-5.725
N13435 X386.366 Y-6.529
N13440 Y-7.133
N13445 X386.368 Y-7.26
N13450 G3 X387.353 Y-7.356 I0.499 J0.025
N13455 G1 X391.637 Y9.772
N13460 G3 X391.652 Y9.909 I-0.485 J0.121
N13465 X391.136 Y10.393 I-0.5 J-0.016
N13470 G1 X390.331 Y10.337
N13475 X389.727 Y10.306
N13480 X389.415 Y10.283
N13485 X389.246 Y10.262
N13490 X389.073 Y10.225
N13495 X388.885 Y10.17
N13500 X388.674 Y10.089
N13505 X388.46 Y9.987
N13510 X388.213 Y9.843
N13515 X387.97 Y9.674
N13520 X387.698 Y9.449
N13525 X387.422 Y9.183
N13530 X387.129 Y8.85
N13535 X386.828 Y8.446
N13540 X386.519 Y7.955
N13545 X386.217 Y7.376
N13550 X385.906 Y6.641
N13555 X385.759 Y6.199
N13560 X385.709 Y5.945
N13565 X385.724 Y5.685
N13570 X385.802 Y5.438
N13575 X385.94 Y5.218
N13580 X385.949 Y5.202
N13585 X386.238 Y4.661
N13590 X386.247 Y4.636
N13595 X386.398 Y4.133
N13600 X386.453 Y3.932
N13605 X386.555 Y3.529
N13610 X386.607 Y3.328
N13615 X386.707 Y2.926
N13620 X386.752 Y2.725
N13625 X386.787 Y2.322
N13630 X386.803 Y2.121
N13635 X386.822 Y1.518
N13640 X386.812 Y1.115
N13645 X386.806 Y0.914
N13650 X386.793 Y0.713
N13655 X386.762 Y0.311
N13660 X386.743 Y0.109
N13665 X386.697 Y-0.293
N13670 X386.67 Y-0.494
N13675 X386.567 Y-1.098
N13680 X386.485 Y-1.701
N13685 X386.465 Y-1.902
N13690 X386.434 Y-2.305
N13695 X386.417 Y-2.506
N13700 X386.407 Y-2.587
N13705 G3 X386.864 Y-3.126 I0.498 J-0.042
N13710 G1 X386.95 Y-3.134 Z427.475
N13715 X387.034 Y-3.141 Z427.497
N13720 X387.113 Y-3.147 Z427.534
N13725 X387.184 Y-3.153 Z427.584
N13730 X387.245 Y-3.158 Z427.646
N13735 X387.295 Y-3.163 Z427.717
N13740 X387.332 Y-3.166 Z427.796
N13745 X387.354 Y-3.167 Z427.88
N13750 X387.362 Y-3.168 Z427.967
N13755 G0 Z442.467
N13760 X390.631 Y9.897
N13765 Z428.467
N13770 G1 Z427.967 F2500.
N13775 X390.624 Y9.901 Z427.88
N13780 X390.604 Y9.911 Z427.796
N13785 X390.571 Y9.927 Z427.717
N13790 X390.526 Y9.949 Z427.646
N13795 X390.471 Y9.977 Z427.584
N13800 X390.407 Y10.008 Z427.534
N13805 X390.336 Y10.043 Z427.497
N13810 X390.261 Y10.081 Z427.475
N13815 X390.183 Y10.119 Z427.467
N13820 G3 X389.415 Y10.283 I-0.703 J-1.418
N13825 G1 X389.123 Y10.261
N13830 X388.921 Y10.24
N13835 X388.432 Y10.168
N13840 X388.317 Y10.153
N13845 X387.713 Y10.133
N13850 X387.539 Y10.12
N13855 X387.37 Y10.093
N13860 X387.184 Y10.048
N13865 X386.988 Y9.984
N13870 X386.76 Y9.888
N13875 X386.535 Y9.772
N13880 X386.277 Y9.611
N13885 X386.017 Y9.418
N13890 X385.733 Y9.17
N13895 X385.438 Y8.866
N13900 X385.147 Y8.516
N13905 X384.909 Y8.175
N13910 X384.727 Y7.866
N13915 X384.632 Y7.67
N13920 X384.545 Y7.423
N13925 X384.515 Y7.162
N13930 X384.545 Y6.901
N13935 X384.632 Y6.654
N13940 X384.772 Y6.432
N13945 X384.957 Y6.247
N13950 X385.087 Y6.144
N13955 X385.297 Y5.942
N13960 X385.498 Y5.73
N13965 X385.674 Y5.541
N13970 X385.7 Y5.512
N13975 X385.94 Y5.218
N13980 G3 X386.645 Y5.17 I0.376 J0.329
N13985 X386.789 Y5.386 I-0.329 J0.376
N13990 G1 X388.182 Y9.471
N13995 G3 X388.209 Y9.628 I-0.473 J0.161
N14000 X387.713 Y10.133 I-0.5 J0.005
N14005 G1 X387.109 Y10.118
N14010 X386.908 Y10.124
N14015 X386.505 Y10.146
N14020 X386.318 Y10.168
N14025 X386.169 Y10.184
N14030 X386.016 Y10.185
N14035 X385.856 Y10.172
N14040 X385.666 Y10.141
N14045 X385.474 Y10.094
N14050 X385.255 Y10.021
N14055 X385.036 Y9.928
N14060 X384.801 Y9.806
N14065 X384.57 Y9.66
N14070 X384.356 Y9.5
N14075 X384.154 Y9.322
N14080 X383.987 Y9.15
N14085 X383.825 Y8.952
N14090 X383.694 Y8.763
N14095 X383.576 Y8.561
N14100 X383.477 Y8.353
N14105 X383.445 Y8.27
N14110 X383.375 Y7.982
N14115 X383.379 Y7.687
N14120 X383.458 Y7.401
N14125 X383.606 Y7.145
N14130 X383.814 Y6.934
N14135 X384.068 Y6.783
N14140 X384.144 Y6.748
N14145 X384.693 Y6.439
N14150 X384.829 Y6.346
N14155 X384.894 Y6.298
N14160 X384.957 Y6.247
N14165 G3 X385.73 Y6.498 I0.297 J0.402
N14170 G1 X386.698 Y9.525
N14175 G3 X386.712 Y9.58 I-0.476 J0.152
N14180 X386.318 Y10.168 I-0.491 J0.097
N14185 G1 X385.7 Y10.268
N14190 X385.498 Y10.302
N14195 X385.297 Y10.329
N14200 X385.096 Y10.361
N14205 X385.067 Y10.369
N14210 X384.916 Y10.404
N14215 X384.768 Y10.426
N14220 X384.618 Y10.433
N14225 X384.468 Y10.428
N14230 X384.302 Y10.409
N14235 X384.131 Y10.375
N14240 X383.954 Y10.324
N14245 X383.766 Y10.254
N14250 X383.576 Y10.166
N14255 X383.39 Y10.059
N14260 X383.22 Y9.944
N14265 X383.046 Y9.803
N14270 X382.89 Y9.655
N14275 X382.759 Y9.509
N14280 X382.627 Y9.337
N14285 X382.515 Y9.162
N14290 X382.425 Y8.994
N14295 X382.341 Y8.801
N14300 X382.275 Y8.608
N14305 X382.256 Y8.532
N14310 X382.22 Y8.26
N14315 X382.248 Y7.988
N14320 X382.339 Y7.729
N14325 X382.488 Y7.499
N14330 X382.687 Y7.31
N14335 X382.924 Y7.173
N14340 X383.187 Y7.094
N14345 G3 X383.661 Y7.298 I0.068 J0.495
N14350 G1 X383.803 Y7.495
N14355 X385.32 Y9.601
N14360 G3 X385.39 Y9.74 I-0.406 J0.292
N14365 X385.067 Y10.369 I-0.476 J0.153
N14370 G1 X384.693 Y10.475
N14375 X384.491 Y10.535
N14380 X384.29 Y10.612
N14385 X383.887 Y10.754
N14390 X383.744 Y10.797
N14395 X383.596 Y10.821
N14400 X383.446 Y10.831
N14405 X383.296 Y10.828
N14410 X383.142 Y10.812
N14415 X382.979 Y10.782
N14420 X382.806 Y10.735
N14425 X382.63 Y10.672
N14430 X382.455 Y10.593
N14435 X382.276 Y10.494
N14440 X382.096 Y10.374
N14445 X381.929 Y10.244
N14450 X381.776 Y10.102
N14455 X381.624 Y9.937
N14460 X381.5 Y9.778
N14465 X381.384 Y9.604
N14470 X381.282 Y9.418
N14475 X381.203 Y9.243
N14480 X381.133 Y9.046
N14485 X381.08 Y8.85
N14490 X381.07 Y8.795
N14495 X381.051 Y8.545
N14500 X381.087 Y8.297
N14505 X381.174 Y8.062
N14510 X381.309 Y7.851
N14515 X381.486 Y7.674
N14520 X381.697 Y7.539
N14525 X381.773 Y7.501
N14530 X381.823 Y7.479
N14535 X381.874 Y7.462
N14540 X382.075 Y7.423
N14545 X382.276 Y7.377
N14550 X382.679 Y7.236
N14555 X382.881 Y7.163
N14560 X382.912 Y7.15
N14565 X382.997 Y7.125
N14570 X383.082 Y7.113
N14575 X383.187 Y7.094
N14580 G3 X383.748 Y7.508 I0.068 J0.495
N14585 G1 X383.751 Y7.521
N14590 X384.18 Y10.102
N14595 X384.197 Y10.207
N14600 G3 X383.887 Y10.754 I-0.493 J0.082
N14605 G1 X383.283 Y10.974
N14610 X383.082 Y11.071
N14615 X382.977 Y11.128
N14620 X382.841 Y11.192
N14625 X382.699 Y11.238
N14630 X382.552 Y11.269
N14635 X382.403 Y11.284
N14640 X382.253 Y11.286
N14645 X382.098 Y11.276
N14650 X381.931 Y11.251
N14655 X381.759 Y11.211
N14660 X381.584 Y11.155
N14665 X381.402 Y11.08
N14670 X381.217 Y10.987
N14675 X381.035 Y10.875
N14680 X380.857 Y10.745
N14685 X380.682 Y10.595
N14690 X380.53 Y10.442
N14695 X380.381 Y10.264
N14700 X380.256 Y10.089
N14705 X380.146 Y9.906
N14710 X380.05 Y9.71
N14715 X379.976 Y9.525
N14720 X379.912 Y9.317
N14725 X379.904 Y9.278
N14730 X379.876 Y9.009
N14735 X379.912 Y8.74
N14740 X380.008 Y8.487
N14745 X380.161 Y8.263
N14750 X380.361 Y8.08
N14755 X380.597 Y7.948
N14760 X380.666 Y7.92
N14765 X380.867 Y7.841
N14770 X381.27 Y7.726
N14775 X381.471 Y7.648
N14780 X381.697 Y7.539
N14785 G3 X382.359 Y7.787 I0.207 J0.455
N14790 X382.383 Y7.849 I-0.455 J0.207
N14795 G1 X383.169 Y10.439
N14800 X383.203 Y10.55
N14805 G3 X382.977 Y11.128 I-0.478 J0.145
N14810 G1 X382.679 Y11.288
N14815 X382.478 Y11.402
N14820 X382.075 Y11.634
N14825 X381.944 Y11.707
N14830 X381.805 Y11.763
N14835 X381.661 Y11.804
N14840 X381.513 Y11.831
N14845 X381.363 Y11.844
N14850 X381.203 Y11.846
N14855 X381.036 Y11.834
N14860 X380.854 Y11.806
N14865 X380.667 Y11.762
N14870 X380.477 Y11.7
N14875 X380.282 Y11.62
N14880 X380.082 Y11.518
N14885 X379.886 Y11.396
N14890 X379.695 Y11.256
N14895 X379.513 Y11.098
N14900 X379.356 Y10.938
N14905 X379.2 Y10.751
N14910 X379.073 Y10.572
N14915 X378.961 Y10.383
N14920 X378.861 Y10.181
N14925 X378.787 Y9.991
N14930 X378.767 Y9.925
N14935 X378.717 Y9.66
N14940 X378.724 Y9.391
N14945 X378.788 Y9.13
N14950 X378.906 Y8.888
N14955 X379.073 Y8.676
N14960 X379.281 Y8.505
N14965 X379.521 Y8.382
N14970 X380.091 Y8.156
N14975 X380.464 Y8.003
N14980 X380.597 Y7.948
N14985 G3 X381.241 Y8.242 I0.175 J0.469
N14990 G1 X381.242 Y8.245
N14995 X382.223 Y10.933
N15000 X382.265 Y11.048
N15005 G3 X382.075 Y11.634 I-0.47 J0.171
N15010 G1 X381.874 Y11.76
N15015 X381.672 Y11.905
N15020 X381.585 Y11.978
N15025 X381.358 Y12.18
N15030 X381.239 Y12.271
N15035 X381.11 Y12.348
N15040 X380.974 Y12.41
N15045 X380.832 Y12.458
N15050 X380.686 Y12.494
N15055 X380.527 Y12.519
N15060 X380.36 Y12.531
N15065 X380.179 Y12.53
N15070 X379.985 Y12.513
N15075 X379.787 Y12.479
N15080 X379.58 Y12.427
N15085 X379.366 Y12.354
N15090 X379.149 Y12.261
N15095 X378.934 Y12.147
N15100 X378.723 Y12.012
N15105 X378.518 Y11.856
N15110 X378.338 Y11.695
N15115 X378.16 Y11.508
N15120 X378.014 Y11.328
N15125 X377.879 Y11.13
N15130 X377.763 Y10.928
N15135 X377.67 Y10.73
N15140 X377.587 Y10.51
N15145 X377.529 Y10.307
N15150 X377.485 Y10.087
N15155 X377.459 Y9.871
N15160 X377.455 Y9.771
N15165 X377.479 Y9.487
N15170 X377.571 Y9.218
N15175 X377.726 Y8.979
N15180 X377.934 Y8.784
N15185 X378.183 Y8.646
N15190 X378.458 Y8.572
N15195 X378.853 Y8.516
N15200 X379.055 Y8.478
N15205 X379.521 Y8.382
N15210 G3 X380.055 Y8.659 I0.083 J0.493
N15215 G1 X380.115 Y8.785
N15220 X381.396 Y11.46
N15225 X381.464 Y11.601
N15230 G3 X381.358 Y12.18 I-0.451 J0.216
N15235 G1 X381.27 Y12.255
N15240 X380.877 Y12.582
N15245 X380.666 Y12.787
N15250 X380.562 Y12.896
N15255 X380.448 Y12.993
N15260 X380.323 Y13.076
N15265 X380.19 Y13.145
N15270 X380.051 Y13.202
N15275 X379.901 Y13.249
N15280 X379.741 Y13.285
N15285 X379.566 Y13.31
N15290 X379.372 Y13.321
N15295 X379.171 Y13.317
N15300 X378.959 Y13.296
N15305 X378.733 Y13.255
N15310 X378.502 Y13.193
N15315 X378.271 Y13.111
N15320 X378.036 Y13.006
N15325 X377.8 Y12.876
N15330 X377.569 Y12.724
N15335 X377.345 Y12.549
N15340 X377.131 Y12.353
N15345 X376.931 Y12.137
N15350 X376.746 Y11.902
N15355 X376.581 Y11.653
N15360 X376.447 Y11.411
N15365 X376.326 Y11.145
N15370 X376.24 Y10.907
N15375 X376.172 Y10.657
N15380 X376.126 Y10.412
N15385 X376.103 Y10.187
N15390 X376.096 Y9.941
N15395 X376.104 Y9.816
N15400 X376.15 Y9.548
N15405 X376.258 Y9.299
N15410 X376.42 Y9.08
N15415 X376.629 Y8.906
N15420 X376.872 Y8.784
N15425 X377.136 Y8.722
N15430 X377.645 Y8.665
N15435 X378.249 Y8.601
N15440 X378.458 Y8.572
N15445 G3 X378.954 Y8.839 I0.053 J0.497
N15450 G1 X379.04 Y9.004
N15455 X380.624 Y12.059
N15460 X380.72 Y12.244
N15465 G3 X380.666 Y12.787 I-0.444 J0.23
N15470 G1 X380.322 Y13.185
N15475 X380.061 Y13.497
N15480 X379.991 Y13.588
N15485 X379.895 Y13.702
N15490 X379.785 Y13.805
N15495 X379.666 Y13.896
N15500 X379.538 Y13.974
N15505 X379.4 Y14.043
N15510 X379.251 Y14.103
N15515 X379.083 Y14.155
N15520 X378.897 Y14.197
N15525 X378.701 Y14.225
N15530 X378.484 Y14.238
N15535 X378.252 Y14.234
N15540 X378.014 Y14.21
N15545 X377.759 Y14.163
N15550 X377.492 Y14.092
N15555 X377.224 Y13.997
N15560 X376.952 Y13.875
N15565 X376.676 Y13.724
N15570 X376.404 Y13.544
N15575 X376.137 Y13.337
N15580 X375.885 Y13.105
N15585 X375.649 Y12.851
N15590 X375.432 Y12.575
N15595 X375.236 Y12.281
N15600 X375.065 Y11.973
N15605 X374.922 Y11.658
N15610 X374.813 Y11.355
N15615 X374.73 Y11.049
N15620 X374.679 Y10.779
N15625 X374.649 Y10.493
N15630 X374.642 Y10.243
N15635 X374.657 Y9.982
N15640 X374.665 Y9.923
N15645 X374.741 Y9.64
N15650 X374.884 Y9.385
N15655 X375.087 Y9.174
N15660 X375.336 Y9.02
N15665 X375.616 Y8.933
N15670 X376.236 Y8.829
N15675 X376.84 Y8.757
N15680 X377.136 Y8.722
N15685 G3 X377.606 Y8.967 I0.039 J0.498
N15690 G1 X377.722 Y9.162
N15695 X379.907 Y12.863
N15700 X380.014 Y13.045
N15705 G3 X379.991 Y13.588 I-0.431 J0.254
N15710 G1 X379.838 Y13.789
N15715 X379.7 Y13.99
N15720 X379.43 Y14.393
N15725 X379.393 Y14.453
N15730 X379.308 Y14.577
N15735 X379.207 Y14.688
N15740 X379.095 Y14.788
N15745 X378.974 Y14.877
N15750 X378.842 Y14.958
N15755 X378.69 Y15.036
N15760 X378.517 Y15.108
N15765 X378.332 Y15.167
N15770 X378.12 Y15.217
N15775 X377.896 Y15.251
N15780 X377.654 Y15.268
N15785 X377.388 Y15.266
N15790 X377.113 Y15.241
N15795 X376.824 Y15.191
N15800 X376.517 Y15.113
N15805 X376.201 Y15.004
N15810 X375.887 Y14.867
N15815 X375.569 Y14.697
N15820 X375.249 Y14.491
N15825 X374.934 Y14.251
N15830 X374.63 Y13.977
N15835 X374.346 Y13.677
N15840 X374.083 Y13.35
N15845 X373.847 Y13.004
N15850 X373.641 Y12.641
N15855 X373.467 Y12.267
N15860 X373.325 Y11.886
N15865 X373.227 Y11.541
N15870 X373.158 Y11.192
N15875 X373.123 Y10.888
N15880 X373.113 Y10.595
N15885 X373.126 Y10.31
N15890 X373.135 Y10.236
N15895 X373.207 Y9.956
N15900 X373.344 Y9.703
N15905 X373.54 Y9.491
N15910 X373.781 Y9.333
N15915 X374.054 Y9.24
N15920 X374.222 Y9.205
N15925 X374.826 Y9.082
N15930 X375.459 Y8.961
N15935 X375.616 Y8.933
N15940 G3 X376.099 Y9.145 I0.071 J0.495
N15945 G1 X376.228 Y9.334
N15950 X379.242 Y13.737
N15955 X379.37 Y13.924
N15960 G3 X379.393 Y14.453 I-0.413 J0.282
N15965 G1 X379.307 Y14.594
N15970 X379.055 Y15.022
N15975 X378.962 Y15.197
N15980 X378.91 Y15.308
N15985 X378.84 Y15.44
N15990 X378.757 Y15.565
N15995 X378.661 Y15.681
N16000 X378.555 Y15.787
N16005 X378.434 Y15.888
N16010 X378.298 Y15.984
N16015 X378.141 Y16.077
N16020 X377.961 Y16.165
N16025 X377.767 Y16.241
N16030 X377.542 Y16.31
N16035 X377.304 Y16.361
N16040 X377.042 Y16.396
N16045 X376.752 Y16.412
N16050 X376.454 Y16.404
N16055 X376.133 Y16.369
N16060 X375.787 Y16.303
N16065 X375.436 Y16.207
N16070 X375.077 Y16.076
N16075 X374.703 Y15.906
N16080 X374.324 Y15.694
N16085 X373.949 Y15.443
N16090 X373.587 Y15.156
N16095 X373.24 Y14.833
N16100 X372.911 Y14.472
N16105 X372.605 Y14.078
N16110 X372.332 Y13.662
N16115 X372.095 Y13.227
N16120 X371.899 Y12.786
N16125 X371.743 Y12.345
N16130 X371.637 Y11.944
N16135 X371.569 Y11.562
N16140 X371.537 Y11.232
N16145 X371.531 Y10.916
N16150 X371.55 Y10.621
N16155 X371.566 Y10.509
N16160 X371.628 Y10.267
N16165 X371.741 Y10.043
N16170 X371.898 Y9.849
N16175 X372.094 Y9.692
N16180 X372.318 Y9.581
N16185 X372.561 Y9.521
N16190 X372.611 Y9.514
N16195 X372.812 Y9.481
N16200 X373.014 Y9.445
N16205 X373.461 Y9.363
N16210 X373.618 Y9.332
N16215 X374.054 Y9.24
N16220 G3 X374.53 Y9.42 I0.085 J0.493
N16225 G1 X374.687 Y9.617
N16230 X378.686 Y14.607
N16235 X378.84 Y14.8
N16240 G3 X378.91 Y15.308 I-0.39 J0.313
N16245 G1 X378.775 Y15.6
N16250 X378.493 Y16.314
N16255 X378.432 Y16.451
N16260 X378.358 Y16.582
N16265 X378.273 Y16.704
N16270 X378.174 Y16.821
N16275 X378.063 Y16.933
N16280 X377.926 Y17.05
N16285 X377.774 Y17.16
N16290 X377.597 Y17.269
N16295 X377.395 Y17.371
N16300 X377.175 Y17.461
N16305 X376.92 Y17.541
N16310 X376.652 Y17.603
N16315 X376.354 Y17.647
N16320 X376.025 Y17.669
N16325 X375.686 Y17.664
N16330 X375.317 Y17.629
N16335 X374.919 Y17.558
N16340 X374.514 Y17.452
N16345 X374.099 Y17.308
N16350 X373.668 Y17.117
N16355 X373.228 Y16.878
N16360 X372.787 Y16.592
N16365 X372.361 Y16.263
N16370 X371.952 Y15.891
N16375 X371.562 Y15.476
N16380 X371.2 Y15.02
N16385 X370.872 Y14.533
N16390 X370.588 Y14.029
N16395 X370.354 Y13.519
N16400 X370.171 Y13.021
N16405 X370.036 Y12.534
N16410 X369.953 Y12.103
N16415 X369.909 Y11.703
N16420 X369.898 Y11.361
N16425 X369.915 Y11.04
N16430 X369.953 Y10.748
N16435 X370.013 Y10.469
N16440 X370.023 Y10.436
N16445 X370.143 Y10.166
N16450 X370.328 Y9.934
N16455 X370.564 Y9.757
N16460 X370.838 Y9.645
N16465 X371.131 Y9.605
N16470 X371.604 Y9.6
N16475 X372.228 Y9.564
N16480 X372.41 Y9.542
N16485 X372.561 Y9.521
N16490 G3 X372.987 Y9.687 I0.051 J0.497
N16495 G1 X373.192 Y9.92
N16500 X378.227 Y15.626
N16505 X378.396 Y15.817
N16510 G3 X378.493 Y16.314 I-0.375 J0.331
N16515 G1 X378.458 Y16.404
N16520 X378.249 Y17.012
N16525 X378.12 Y17.41
N16530 X378.065 Y17.554
N16535 X378. Y17.69
N16540 X377.923 Y17.819
N16545 X377.83 Y17.947
N16550 X377.724 Y18.072
N16555 X377.59 Y18.205
N16560 X377.44 Y18.331
N16565 X377.262 Y18.459
N16570 X377.06 Y18.58
N16575 X376.836 Y18.692
N16580 X376.573 Y18.797
N16585 X376.296 Y18.883
N16590 X375.981 Y18.953
N16595 X375.633 Y19.002
N16600 X375.273 Y19.024
N16605 X374.873 Y19.016
N16610 X374.439 Y18.971
N16615 X374. Y18.891
N16620 X373.532 Y18.766
N16625 X373.04 Y18.59
N16630 X372.533 Y18.362
N16635 X372.029 Y18.085
N16640 X371.535 Y17.759
N16645 X371.043 Y17.375
N16650 X370.564 Y16.934
N16655 X370.111 Y16.444
N16660 X369.692 Y15.911
N16665 X369.319 Y15.349
N16670 X368.995 Y14.764
N16675 X368.729 Y14.177
N16680 X368.521 Y13.598
N16685 X368.373 Y13.051
N16690 X368.276 Y12.531
N16695 X368.225 Y12.035
N16700 X368.215 Y11.632
N16705 X368.237 Y11.254
N16710 X368.28 Y10.941
N16715 X368.35 Y10.624
N16720 X368.402 Y10.455
N16725 X368.502 Y10.223
N16730 X368.649 Y10.019
N16735 X368.836 Y9.85
N16740 X369.056 Y9.726
N16745 X369.297 Y9.652
N16750 X369.548 Y9.631
N16755 X369.591 Y9.632
N16760 X370.195
N16765 X370.396 Y9.626
N16770 X370.799 Y9.611
N16775 X371. Y9.606
N16780 X371.131 Y9.605
N16785 G3 X371.487 Y9.768 I-0.014 J0.5
N16790 G1 X371.745 Y10.051
N16795 X377.822 Y16.731
N16800 X378.009 Y16.936
N16805 G3 X378.12 Y17.41 I-0.37 J0.336
N16810 G1 X378.048 Y17.632
N16815 X377.993 Y17.812
N16820 X377.846 Y18.322
N16825 X377.766 Y18.617
N16830 X377.72 Y18.76
N16835 X377.662 Y18.898
N16840 X377.591 Y19.03
N16845 X377.501 Y19.169
N16850 X377.397 Y19.305
N16855 X377.265 Y19.451
N16860 X377.115 Y19.592
N16865 X376.936 Y19.736
N16870 X376.731 Y19.875
N16875 X376.5 Y20.005
N16880 X376.229 Y20.131
N16885 X375.94 Y20.238
N16890 X375.608 Y20.331
N16895 X375.243 Y20.402
N16900 X374.858 Y20.446
N16905 X374.423 Y20.46
N16910 X373.953 Y20.438
N16915 X373.474 Y20.376
N16920 X372.954 Y20.266
N16925 X372.403 Y20.102
N16930 X371.833 Y19.881
N16935 X371.269 Y19.609
N16940 X370.699 Y19.275
N16945 X370.123 Y18.873
N16950 X369.557 Y18.405
N16955 X369.014 Y17.877
N16960 X368.505 Y17.296
N16965 X368.041 Y16.672
N16970 X367.632 Y16.018
N16975 X367.284 Y15.347
N16980 X367. Y14.672
N16985 X366.779 Y14.001
N16990 X366.625 Y13.362
N16995 X366.532 Y12.776
N17000 X366.489 Y12.219
N17005 X366.491 Y11.735
N17010 X366.526 Y11.318
N17015 X366.585 Y10.958
N17020 X366.664 Y10.645
N17025 X366.763 Y10.351
N17030 X366.815 Y10.229
N17035 X366.964 Y9.975
N17040 X367.173 Y9.767
N17045 X367.427 Y9.617
N17050 X367.711 Y9.536
N17055 X368.005 Y9.529
N17060 X368.364 Y9.564
N17065 X368.785 Y9.601
N17070 X368.986 Y9.616
N17075 X369.548 Y9.631
N17080 G3 X369.884 Y9.79 I-0.031 J0.499
N17085 G1 X370.159 Y10.087
N17090 X377.444 Y17.946
N17095 X377.646 Y18.164
N17100 G3 X377.766 Y18.617 I-0.367 J0.34
N17105 G1 X377.658 Y19.019
N17110 X377.52 Y19.623
N17115 X377.478 Y19.824
N17120 X377.436 Y19.988
N17125 X377.387 Y20.13
N17130 X377.326 Y20.267
N17135 X377.248 Y20.41
N17140 X377.15 Y20.558
N17145 X377.029 Y20.713
N17150 X376.886 Y20.868
N17155 X376.712 Y21.029
N17160 X376.518 Y21.181
N17165 X376.282 Y21.337
N17170 X376.027 Y21.478
N17175 X375.727 Y21.614
N17180 X375.392 Y21.734
N17185 X375.031 Y21.831
N17190 X374.615 Y21.909
N17195 X374.17 Y21.955
N17200 X373.693 Y21.966
N17205 X373.161 Y21.935
N17210 X372.591 Y21.856
N17215 X372.016 Y21.729
N17220 X371.407 Y21.541
N17225 X370.765 Y21.286
N17230 X370.103 Y20.959
N17235 X369.433 Y20.557
N17240 X368.777 Y20.09
N17245 X368.147 Y19.558
N17250 X367.539 Y18.956
N17255 X366.967 Y18.291
N17260 X366.445 Y17.575
N17265 X365.984 Y16.821
N17270 X365.589 Y16.042
N17275 X365.27 Y15.263
N17280 X365.03 Y14.507
N17285 X364.862 Y13.784
N17290 X364.76 Y13.097
N17295 X364.717 Y12.454
N17300 X364.724 Y11.875
N17305 X364.769 Y11.392
N17310 X364.846 Y10.953
N17315 X364.934 Y10.616
N17320 X365.049 Y10.284
N17325 X365.169 Y10.012
N17330 X365.19 Y9.973
N17335 X365.347 Y9.75
N17340 X365.551 Y9.57
N17345 X365.791 Y9.441
N17350 X366.054 Y9.372
N17355 X366.326 Y9.366
N17360 X366.973 Y9.426
N17365 X367.577 Y9.485
N17370 X368.005 Y9.529
N17375 G3 X368.303 Y9.683 I-0.068 J0.495
N17380 G1 X368.605 Y10.008
N17385 X377.127 Y19.161
N17390 X377.35 Y19.402
N17395 G3 X377.478 Y19.824 I-0.366 J0.341
N17400 G1 X377.397 Y20.226
N17405 X377.359 Y20.428
N17410 X377.29 Y20.83
N17415 X377.258 Y21.031
N17420 X377.242 Y21.153
N17425 X377.216 Y21.3
N17430 X377.172 Y21.444
N17435 X377.116 Y21.584
N17440 X377.039 Y21.739
N17445 X376.946 Y21.895
N17450 X376.824 Y22.065
N17455 X376.685 Y22.23
N17460 X376.508 Y22.408
N17465 X376.313 Y22.576
N17470 X376.073 Y22.75
N17475 X375.809 Y22.912
N17480 X375.505 Y23.066
N17485 X375.151 Y23.21
N17490 X374.776 Y23.329
N17495 X374.337 Y23.43
N17500 X373.856 Y23.501
N17505 X373.354 Y23.535
N17510 X372.792 Y23.527
N17515 X372.173 Y23.468
N17520 X371.537 Y23.356
N17525 X370.87 Y23.182
N17530 X370.157 Y22.934
N17535 X369.415 Y22.606
N17540 X368.662 Y22.199
N17545 X367.919 Y21.716
N17550 X367.216 Y21.176
N17555 X366.557 Y20.583
N17560 X365.946 Y19.942
N17565 X365.382 Y19.258
N17570 X364.867 Y18.537
N17575 X364.404 Y17.781
N17580 X363.995 Y16.995
N17585 X363.644 Y16.182
N17590 X363.354 Y15.344
N17595 X363.136 Y14.505
N17600 X362.994 Y13.693
N17605 X362.922 Y12.932
N17610 X362.913 Y12.256
N17615 X362.955 Y11.64
N17620 X363.035 Y11.099
N17625 X363.136 Y10.665
N17630 X363.247 Y10.315
N17635 X363.381 Y9.987
N17640 X363.519 Y9.716
N17645 X363.578 Y9.619
N17650 X363.758 Y9.393
N17655 X363.989 Y9.218
N17660 X364.255 Y9.106
N17665 X364.541 Y9.062
N17670 X364.828 Y9.09
N17675 X364.959 Y9.119
N17680 X365.161 Y9.169
N17685 X365.563 Y9.271
N17690 X365.765 Y9.305
N17695 X366.326 Y9.366
N17700 G3 X366.628 Y9.521 I-0.064 J0.496
N17705 G1 X366.927 Y9.842
N17710 X376.862 Y20.499
N17715 X377.11 Y20.765
N17720 G3 X377.242 Y21.153 I-0.366 J0.341
N17725 G1 X377.18 Y21.635
N17730 X377.108 Y22.238
N17735 X377.087 Y22.439
N17740 X377.061 Y22.615
N17745 X377.027 Y22.761
N17750 X376.977 Y22.912
N17755 X376.913 Y23.066
N17760 X376.824 Y23.237
N17765 X376.717 Y23.408
N17770 X376.58 Y23.592
N17775 X376.42 Y23.775
N17780 X376.224 Y23.965
N17785 X375.997 Y24.153
N17790 X375.735 Y24.336
N17795 X375.423 Y24.519
N17800 X375.09 Y24.68
N17805 X374.695 Y24.832
N17810 X374.254 Y24.963
N17815 X373.779 Y25.064
N17820 X373.234 Y25.134
N17825 X372.636 Y25.163
N17830 X372.023 Y25.143
N17835 X371.341 Y25.066
N17840 X370.598 Y24.92
N17845 X369.807 Y24.698
N17850 X369.014 Y24.405
N17855 X368.21 Y24.032
N17860 X367.438 Y23.597
N17865 X366.701 Y23.105
N17870 X365.999 Y22.563
N17875 X365.337 Y21.976
N17880 X364.713 Y21.346
N17885 X364.131 Y20.678
N17890 X363.592 Y19.975
N17895 X363.098 Y19.238
N17900 X362.653 Y18.472
N17905 X362.257 Y17.68
N17910 X361.912 Y16.864
N17915 X361.621 Y16.027
N17920 X361.387 Y15.172
N17925 X361.215 Y14.303
N17930 X361.113 Y13.442
N17935 X361.082 Y12.629
N17940 X361.113 Y11.902
N17945 X361.191 Y11.27
N17950 X361.308 Y10.701
N17955 X361.438 Y10.253
N17960 X361.581 Y9.879
N17965 X361.732 Y9.561
N17970 X361.896 Y9.278
N17975 X362.06 Y9.041
N17980 X362.107 Y8.984
N17985 X362.284 Y8.808
N17990 X362.495 Y8.675
N17995 X362.73 Y8.589
N18000 X362.977 Y8.556
N18005 X363.225 Y8.575
N18010 X363.464 Y8.647
N18015 X363.733 Y8.76
N18020 X364.36 Y8.961
N18025 X364.556 Y9.022
N18030 X364.758 Y9.074
N18035 X364.828 Y9.09
N18040 G3 X365.069 Y9.234 I-0.126 J0.484
N18045 G1 X365.41 Y9.602
N18050 X376.697 Y21.789
N18055 X376.955 Y22.068
N18060 G3 X377.087 Y22.439 I-0.367 J0.34
N18065 G1 X377.041 Y22.909
N18070 X377.025 Y23.043
N18075 X376.943 Y23.646
N18080 X376.883 Y24.049
N18085 X376.873 Y24.11
N18090 X376.866 Y24.152
N18095 X376.835 Y24.299
N18100 X376.773 Y24.434
N18105 X376.689 Y24.557
N18110 X376.585 Y24.664
N18115 G3 X375.883 Y24.585 I-0.312 J-0.391
N18120 X375.831 Y24.04 I0.391 J-0.312
N18125 G1 X375.927 Y23.857
N18130 G3 X376.866 Y24.152 I0.443 J0.233
N18135 G1 X376.84 Y24.311
N18140 X376.819 Y24.381
N18145 X376.787 Y24.451
N18150 X376.761 Y24.494
N18155 X376.728 Y24.536
N18160 X376.683 Y24.583
N18165 X376.617 Y24.638
N18170 X376.572 Y24.675
N18175 X376.364 Y24.853
N18180 X376.236 Y24.968
N18185 X375.922 Y25.256
N18190 X375.631 Y25.527
N18195 X375.347 Y25.768
N18200 X375.101 Y25.944
N18205 X374.813 Y26.118
N18210 X374.484 Y26.281
N18215 X374.095 Y26.437
N18220 X373.682 Y26.565
N18225 X373.186 Y26.676
N18230 X372.651 Y26.751
N18235 X372.058 Y26.787
N18240 X371.374 Y26.773
N18245 X370.643 Y26.699
N18250 X369.89 Y26.561
N18255 X369.067 Y26.34
N18260 X368.232 Y26.043
N18265 X367.423 Y25.683
N18270 X366.641 Y25.266
N18275 X365.888 Y24.797
N18280 X365.168 Y24.282
N18285 X364.481 Y23.722
N18290 X363.829 Y23.121
N18295 X363.214 Y22.484
N18300 X362.636 Y21.812
N18305 X362.097 Y21.108
N18310 X361.598 Y20.376
N18315 X361.14 Y19.617
N18320 X360.725 Y18.834
N18325 X360.356 Y18.029
N18330 X360.034 Y17.203
N18335 X359.763 Y16.36
N18340 X359.545 Y15.501
N18345 X359.381 Y14.63
N18350 X359.277 Y13.75
N18355 X359.236 Y12.865
N18360 X359.264 Y12.023
N18365 X359.347 Y11.295
N18370 X359.473 Y10.653
N18375 X359.638 Y10.068
N18380 X359.812 Y9.597
N18385 X359.997 Y9.198
N18390 X360.174 Y8.886
N18395 X360.367 Y8.601
N18400 X360.556 Y8.366
N18405 X360.76 Y8.15
N18410 X360.886 Y8.036
N18415 X361.104 Y7.88
N18420 X361.353 Y7.778
N18425 X361.618 Y7.736
N18430 X361.886 Y7.756
N18435 X362.142 Y7.836
N18440 X362.373 Y7.973
N18445 X362.543 Y8.102
N18450 X362.946 Y8.393
N18455 X363.046 Y8.461
N18460 X363.147 Y8.513
N18465 X363.464 Y8.647
N18470 G3 X363.654 Y8.801 I-0.211 J0.454
N18475 G1 X363.977 Y9.232
N18480 X375.634 Y24.817
N18485 X375.678 Y24.875
N18490 G3 X375.631 Y25.527 I-0.4 J0.299
N18495 G1 X375.229 Y25.905
N18500 X375.078 Y26.06
N18505 X375.027 Y26.114
N18510 X374.894 Y26.262
N18515 X374.741 Y26.463
N18520 X374.625 Y26.621
N18525 X374.423 Y26.905
N18530 X374.275 Y27.093
N18535 X374.15 Y27.228
N18540 X373.995 Y27.371
N18545 X373.802 Y27.522
N18550 X373.588 Y27.662
N18555 X373.316 Y27.812
N18560 X373.022 Y27.944
N18565 X372.658 Y28.073
N18570 X372.262 Y28.179
N18575 X371.78 Y28.267
N18580 X371.278 Y28.318
N18585 X370.667 Y28.33
N18590 X370.016 Y28.291
N18595 X369.297 Y28.19
N18600 X368.493 Y28.009
N18605 X367.647 Y27.746
N18610 X366.823 Y27.418
N18615 X366.025 Y27.034
N18620 X365.253 Y26.598
N18625 X364.511 Y26.115
N18630 X363.798 Y25.588
N18635 X363.117 Y25.021
N18640 X362.467 Y24.419
N18645 X361.851 Y23.782
N18650 X361.267 Y23.115
N18655 X360.719 Y22.42
N18660 X360.205 Y21.697
N18665 X359.728 Y20.951
N18670 X359.29 Y20.181
N18675 X358.893 Y19.388
N18680 X358.538 Y18.576
N18685 X358.227 Y17.747
N18690 X357.96 Y16.902
N18695 X357.739 Y16.043
N18700 X357.567 Y15.174
N18705 X357.446 Y14.296
N18710 X357.381 Y13.413
N18715 X357.376 Y12.527
N18720 X357.437 Y11.658
N18725 X357.556 Y10.863
N18730 X357.725 Y10.142
N18735 X357.925 Y9.52
N18740 X358.147 Y8.979
N18745 X358.396 Y8.491
N18750 X358.638 Y8.097
N18755 X358.875 Y7.773
N18760 X359.107 Y7.504
N18765 X359.336 Y7.279
N18770 X359.565 Y7.087
N18775 X359.8 Y6.92
N18780 X359.906 Y6.857
N18785 X360.133 Y6.752
N18790 X360.377 Y6.699
N18795 X360.628
N18800 X360.872 Y6.752
N18805 X361.1 Y6.857
N18810 X361.3 Y7.007
N18815 X361.939 Y7.604
N18820 X362.14 Y7.791
N18825 X362.373 Y7.973
N18830 G3 X362.476 Y8.087 I-0.316 J0.387
N18835 G1 X362.822 Y8.616
N18840 X374.312 Y26.185
N18845 X374.424 Y26.356
N18850 G3 X374.423 Y26.905 I-0.418 J0.274
N18855 G1 X374.309 Y27.066
N18860 X374.222 Y27.193
N18865 X374.078 Y27.469
N18870 X373.998 Y27.67
N18875 X373.924 Y27.871
N18880 X373.885 Y27.982
N18885 X373.829 Y28.121
N18890 X373.76 Y28.254
N18895 X373.678 Y28.387
N18900 X373.571 Y28.531
N18905 X373.437 Y28.685
N18910 X373.283 Y28.836
N18915 X373.088 Y28.998
N18920 X372.873 Y29.149
N18925 X372.601 Y29.31
N18930 X372.309 Y29.451
N18935 X371.946 Y29.593
N18940 X371.562 Y29.708
N18945 X371.093 Y29.809
N18950 X370.589 Y29.875
N18955 X370.006 Y29.905
N18960 X369.329 Y29.885
N18965 X368.634 Y29.808
N18970 X367.838 Y29.654
N18975 X366.984 Y29.417
N18980 X366.152 Y29.115
N18985 X365.342 Y28.755
N18990 X364.557 Y28.344
N18995 X363.797 Y27.887
N19000 X363.065 Y27.388
N19005 X362.361 Y26.85
N19010 X361.687 Y26.275
N19015 X361.041 Y25.668
N19020 X360.426 Y25.03
N19025 X359.841 Y24.365
N19030 X359.287 Y23.673
N19035 X358.766 Y22.957
N19040 X358.277 Y22.217
N19045 X357.823 Y21.456
N19050 X357.406 Y20.675
N19055 X357.026 Y19.874
N19060 X356.686 Y19.056
N19065 X356.385 Y18.222
N19070 X356.125 Y17.375
N19075 X355.906 Y16.516
N19080 X355.732 Y15.648
N19085 X355.603 Y14.771
N19090 X355.522 Y13.889
N19095 X355.494 Y13.003
N19100 X355.524 Y12.117
N19105 X355.615 Y11.236
N19110 X355.768 Y10.37
N19115 X355.973 Y9.588
N19120 X356.221 Y8.879
N19125 X356.502 Y8.244
N19130 X356.797 Y7.701
N19135 X357.104 Y7.23
N19140 X357.426 Y6.813
N19145 X357.725 Y6.483
N19150 X358.002 Y6.225
N19155 X358.279 Y6.004
N19160 X358.533 Y5.834
N19165 X358.8 Y5.684
N19170 X359.046 Y5.571
N19175 X359.077 Y5.559
N19180 X359.334 Y5.497
N19185 X359.598 Y5.494
N19190 X359.856 Y5.551
N19195 X360.094 Y5.664
N19200 X360.301 Y5.829
N19205 X360.466 Y6.035
N19210 X360.535 Y6.144
N19215 X360.675 Y6.346
N19220 X360.731 Y6.418
N19225 X360.836 Y6.547
N19230 X361.133 Y6.846
N19235 X361.238 Y6.949
N19240 X361.3 Y7.007
N19245 G3 X361.373 Y7.1 I-0.354 J0.353
N19250 G1 X361.719 Y7.669
N19255 X373.647 Y27.265
N19260 X373.835 Y27.574
N19265 G3 X373.885 Y27.982 I-0.427 J0.26
N19270 G1 X373.784 Y28.273
N19275 X373.718 Y28.475
N19280 X373.603 Y28.877
N19285 X373.548 Y29.078
N19290 X373.523 Y29.189
N19295 X373.479 Y29.35
N19300 X373.428 Y29.491
N19305 X373.363 Y29.63
N19310 X373.277 Y29.782
N19315 X373.17 Y29.94
N19320 X373.039 Y30.105
N19325 X372.876 Y30.277
N19330 X372.687 Y30.448
N19335 X372.458 Y30.623
N19340 X372.197 Y30.792
N19345 X371.889 Y30.959
N19350 X371.536 Y31.113
N19355 X371.132 Y31.254
N19360 X370.658 Y31.376
N19365 X370.16 Y31.463
N19370 X369.558 Y31.519
N19375 X368.908 Y31.526
N19380 X368.193 Y31.477
N19385 X367.383 Y31.356
N19390 X366.52 Y31.155
N19395 X365.675 Y30.887
N19400 X364.851 Y30.562
N19405 X364.049 Y30.186
N19410 X363.27 Y29.762
N19415 X362.517 Y29.296
N19420 X361.789 Y28.791
N19425 X361.087 Y28.25
N19430 X360.412 Y27.676
N19435 X359.763 Y27.072
N19440 X359.142 Y26.441
N19445 X358.548 Y25.783
N19450 X357.983 Y25.1
N19455 X357.447 Y24.395
N19460 X356.941 Y23.667
N19465 X356.467 Y22.919
N19470 X356.026 Y22.15
N19475 X355.618 Y21.363
N19480 X355.246 Y20.559
N19485 X354.908 Y19.74
N19490 X354.606 Y18.907
N19495 X354.341 Y18.061
N19500 X354.114 Y17.205
N19505 X353.926 Y16.339
N19510 X353.778 Y15.465
N19515 X353.675 Y14.585
N19520 X353.619 Y13.701
N19525 X353.612 Y12.814
N19530 X353.656 Y11.929
N19535 X353.753 Y11.049
N19540 X353.908 Y10.176
N19545 X354.123 Y9.317
N19550 X354.399 Y8.487
N19555 X354.721 Y7.731
N19560 X355.075 Y7.054
N19565 X355.435 Y6.483
N19570 X355.811 Y5.981
N19575 X356.196 Y5.544
N19580 X356.58 Y5.174
N19585 X356.914 Y4.9
N19590 X357.246 Y4.67
N19595 X357.534 Y4.503
N19600 X357.831 Y4.361
N19605 X358.095 Y4.259
N19610 X358.377 Y4.177
N19615 X358.493 Y4.153
N19620 X358.742 Y4.128
N19625 X358.991 Y4.158
N19630 X359.228 Y4.24
N19635 X359.442 Y4.371
N19640 X359.623 Y4.544
N19645 X359.763 Y4.752
N19650 X359.966 Y5.139
N19655 X360.372 Y5.878
N19660 X360.409 Y5.943
N19665 X360.466 Y6.035
N19670 G3 X360.284 Y6.718 I-0.433 J0.251
N19675 G1 X360.209 Y6.762 Z427.475
N19680 X360.136 Y6.804 Z427.497
N19685 X360.068 Y6.844 Z427.534
N19690 X360.006 Y6.879 Z427.584
N19695 X359.953 Y6.91 Z427.646
N19700 X359.91 Y6.935 Z427.717
N19705 X359.878 Y6.954 Z427.796
N19710 X359.858 Y6.965 Z427.88
N19715 X359.852 Y6.969 Z427.967
N19720 G0 Z442.467
N19725 X373.315 Y27.93
N19730 Z428.467
N19735 G1 Z427.967 F2500.
N19740 X373.317 Y27.937 Z427.88
N19745 X373.325 Y27.959 Z427.796
N19750 X373.336 Y27.994 Z427.717
N19755 X373.352 Y28.041 Z427.646
N19760 X373.371 Y28.1 Z427.584
N19765 X373.393 Y28.167 Z427.534
N19770 X373.418 Y28.243 Z427.497
N19775 X373.444 Y28.323 Z427.475
N19780 X373.471 Y28.405 Z427.467
N19785 G3 X373.523 Y29.189 I-1.504 J0.494
N19790 G1 X373.414 Y29.682
N19795 X373.383 Y29.883
N19800 X373.363 Y30.084
N19805 X373.352 Y30.285
N19810 X373.351 Y30.346
N19815 X373.342 Y30.496
N19820 X373.314 Y30.643
N19825 X373.272 Y30.787
N19830 X373.215 Y30.938
N19835 X373.137 Y31.104
N19840 X373.04 Y31.273
N19845 X372.914 Y31.457
N19850 X372.765 Y31.64
N19855 X372.578 Y31.836
N19860 X372.364 Y32.027
N19865 X372.107 Y32.221
N19870 X371.81 Y32.411
N19875 X371.468 Y32.592
N19880 X371.061 Y32.767
N19885 X370.628 Y32.914
N19890 X370.106 Y33.045
N19895 X369.537 Y33.14
N19900 X368.903 Y33.195
N19905 X368.165 Y33.198
N19910 X367.361 Y33.138
N19915 X366.507 Y33.004
N19920 X365.645 Y32.797
N19925 X364.801 Y32.528
N19930 X363.976 Y32.205
N19935 X363.171 Y31.834
N19940 X362.388 Y31.419
N19945 X361.628 Y30.964
N19950 X360.89 Y30.473
N19955 X360.176 Y29.948
N19960 X359.486 Y29.392
N19965 X358.821 Y28.806
N19970 X358.181 Y28.193
N19975 X357.567 Y27.555
N19980 X356.979 Y26.892
N19985 X356.418 Y26.206
N19990 X355.884 Y25.499
N19995 X355.378 Y24.771
N20000 X354.901 Y24.024
N20005 X354.454 Y23.259
N20010 X354.037 Y22.477
N20015 X353.651 Y21.68
N20020 X353.297 Y20.867
N20025 X352.976 Y20.041
N20030 X352.689 Y19.203
N20035 X352.436 Y18.354
N20040 X352.219 Y17.495
N20045 X352.038 Y16.627
N20050 X351.896 Y15.753
N20055 X351.793 Y14.872
N20060 X351.732 Y13.988
N20065 X351.714 Y13.103
N20070 X351.74 Y12.217
N20075 X351.815 Y11.334
N20080 X351.94 Y10.457
N20085 X352.117 Y9.588
N20090 X352.349 Y8.733
N20095 X352.637 Y7.895
N20100 X352.983 Y7.079
N20105 X353.384 Y6.305
N20110 X353.82 Y5.607
N20115 X354.263 Y5.011
N20120 X354.709 Y4.501
N20125 X355.159 Y4.064
N20130 X355.603 Y3.696
