%
(1001)
(T1  D=10. CR=0. - ZMIN=430.1 - FLAT END MILL)
N10 G90 G94 G17 G91.1
N15 G21
(ADAPTIVE1)
N25 M9
N30 T1 M6
N35 S4660 M3
N40 G54
N45 M8
N55 G0 X280.203 Y71.409
N60 G43 Z469.4 H1
N65 G0 Z459.4
N70 Z446.4
N75 G1 Z445.4 F1398.
N80 X280.207 Y71.403 Z445.279
N85 X280.218 Y71.384 Z445.161
N90 X280.236 Y71.353 Z445.045
N95 X280.262 Y71.31 Z444.935
N100 X280.293 Y71.257 Z444.832
N105 X280.331 Y71.193 Z444.737
N110 X280.375 Y71.119 Z444.651
N115 X280.423 Y71.037 Z444.577
N120 X280.476 Y70.948 Z444.515
N125 X280.532 Y70.854 Z444.465
N130 X280.591 Y70.754 Z444.429
N135 X280.651 Y70.652 Z444.407
N140 X280.713 Y70.549 Z444.4
N145 G3 X284.009 Y66.145 I21.967 J13.008
N150 G1 X284.114 Y66.04
N155 X284.554 Y65.746
N160 X285.118 Y65.431
N165 X285.848 Y65.098
N170 X286.814 Y64.747
N175 X287.973 Y64.429
N180 X289.152 Y64.193
N185 X290.341 Y64.017
N190 X291.536 Y63.885
N195 X292.734 Y63.786
N200 X293.934 Y63.712
N205 X295.135 Y63.656
N210 X296.336 Y63.614
N215 X296.865 Y63.6
N220 X297.149 Y63.61
N225 X297.43 Y63.655
N230 X297.704 Y63.733
N235 X297.81 Y63.771
N240 X298.41 Y63.97
N245 X299.99 Y64.486
N250 X300.209 Y64.555
N255 X300.509 Y64.621
N260 X300.809 Y64.685
N265 X301.109 Y64.747
N270 X302.609 Y64.987
N275 X302.909 Y65.034
N280 X303.509 Y65.113
N285 X303.809 Y65.148
N290 X316.406 Y66.017
N295 X317.306 Y66.069
N300 X329.904 Y66.648
N305 X330.204 Y66.658
N310 X331.104 Y66.681
N315 X342.801 Y66.949
N320 X343.401 Y66.958
N325 X343.701 Y66.962
N330 X356.299
N335 X356.899 Y66.954
N340 X357.199 Y66.949
N345 X369.196 Y66.673
N350 X369.796 Y66.658
N355 X370.096 Y66.648
N360 X382.694 Y66.069
N365 X383.594 Y66.017
N370 X396.191 Y65.148
N375 X396.491 Y65.113
N380 X397.091 Y65.034
N385 X397.391 Y64.987
N390 X398.891 Y64.747
N395 X399.191 Y64.685
N400 X399.491 Y64.621
N405 X399.791 Y64.555
N410 X399.857 Y64.534
N415 X400.727 Y64.31
N420 X401.912 Y64.104
N425 X403.104 Y63.95
N430 X404.3 Y63.835
N435 X405.499 Y63.749
N440 X406.7 Y63.684
N445 X407.901 Y63.635
N450 X408.489 Y63.51
N455 X409.575 Y62.995
N460 X410.456 Y62.177
N465 X411.154 Y61.199
N470 X411.699 Y60.127
N475 X412.122 Y59.002
N480 X412.448 Y57.845
N485 X412.697 Y56.669
N490 X412.887 Y55.482
N495 X413.033 Y54.289
N500 X413.049 Y54.107
N505 X413.094 Y53.823
N510 X413.174 Y53.546
N515 X413.288 Y53.282
N520 X413.384 Y53.088
N525 X413.588 Y52.662
N530 X413.665 Y52.488
N535 X413.771 Y52.188
N540 X413.971 Y51.588
N545 X414.488 Y50.005
N550 X414.556 Y49.788
N555 X414.622 Y49.488
N560 X414.685 Y49.188
N565 X414.747 Y48.888
N570 X414.987 Y47.388
N575 X415.034 Y47.088
N580 X415.113 Y46.488
N585 X415.148 Y46.189
N590 X416.017 Y33.59
N595 X416.069 Y32.69
N600 X416.648 Y20.092
N605 X416.659 Y19.792
N610 X416.688 Y18.592
N615 X416.949 Y7.193
N620 X416.958 Y6.593
N625 X416.962 Y6.293
N630 Y-6.305
N635 X416.954 Y-6.905
N640 X416.949 Y-7.205
N645 X416.673 Y-19.204
N650 X416.658 Y-19.804
N655 X416.648 Y-20.104
N660 X416.069 Y-32.702
N665 X416.016 Y-33.602
N670 X415.147 Y-46.201
N675 X415.112 Y-46.501
N680 X415.032 Y-47.101
N685 X414.985 Y-47.401
N690 X414.745 Y-48.9
N695 X414.683 Y-49.2
N700 X414.619 Y-49.5
N705 X414.552 Y-49.8
N710 X414.541 Y-49.834
N715 X414.313 Y-50.719
N720 X414.106 Y-51.903
N725 X413.952 Y-53.095
N730 X413.836 Y-54.292
N735 X413.75 Y-55.491
N740 X413.685 Y-56.691
N745 X413.636 Y-57.892
N750 X413.514 Y-58.48
N755 X413.001 Y-59.568
N760 X412.185 Y-60.451
N765 X411.207 Y-61.15
N770 X410.136 Y-61.696
N775 X409.011 Y-62.119
N780 X407.854 Y-62.446
N785 X406.678 Y-62.695
N790 X405.492 Y-62.886
N795 X404.298 Y-63.032
N800 X404.118 Y-63.048
N805 X403.827 Y-63.094
N810 X403.543 Y-63.176
N815 X403.272 Y-63.294
N820 X403.09 Y-63.383
N825 X402.637 Y-63.599
N830 X402.49 Y-63.665
N835 X402.19 Y-63.771
N840 X401.59 Y-63.97
N845 X399.973 Y-64.499
N850 X399.791 Y-64.555
N855 X399.491 Y-64.621
N860 X399.191 Y-64.685
N865 X398.891 Y-64.747
N870 X397.391 Y-64.987
N875 X397.091 Y-65.034
N880 X396.491 Y-65.113
N885 X396.191 Y-65.149
N890 X391.692 Y-65.49
N895 X390.792 Y-65.556
N900 X386.293 Y-65.856
N905 X385.393 Y-65.913
N910 X380.894 Y-66.171
N915 X379.994 Y-66.216
N920 X369.196 Y-66.673
N925 X368.597 Y-66.696
N930 X368.297 Y-66.707
N935 X367.997 Y-66.715
N940 X355.699 Y-66.969
N945 X355.399 Y-66.974
N950 X342.801 Y-66.952
N955 X342.501 Y-66.948
N960 X341.902 Y-66.937
N965 X330.204 Y-66.654
N970 X329.904 Y-66.645
N975 X329.304 Y-66.625
N980 X329.004 Y-66.613
N985 X317.306 Y-66.066
N990 X316.406 Y-66.02
N995 X303.809 Y-65.148
N1000 X303.509 Y-65.113
N1005 X302.909 Y-65.034
N1010 X302.609 Y-64.987
N1015 X301.109 Y-64.747
N1020 X300.809 Y-64.685
N1025 X300.509 Y-64.621
N1030 X300.209 Y-64.555
N1035 X300.154 Y-64.538
N1040 X299.247 Y-64.305
N1045 X298.063 Y-64.1
N1050 X296.87 Y-63.948
N1055 X295.674 Y-63.833
N1060 X294.475 Y-63.747
N1065 X293.274 Y-63.683
N1070 X292.073 Y-63.634
N1075 X291.487 Y-63.502
N1080 X290.405 Y-62.978
N1085 X289.528 Y-62.156
N1090 X288.833 Y-61.175
N1095 X288.291 Y-60.102
N1100 X287.87 Y-58.976
N1105 X287.547 Y-57.818
N1110 X287.299 Y-56.642
N1115 X287.109 Y-55.455
N1120 X286.965 Y-54.261
N1125 X286.951 Y-54.109
N1130 X286.906 Y-53.824
N1135 X286.826 Y-53.547
N1140 X286.712 Y-53.282
N1145 X286.622 Y-53.1
N1150 X286.412 Y-52.662
N1155 X286.339 Y-52.5
N1160 X286.233 Y-52.2
N1165 X286.033 Y-51.6
N1170 X285.512 Y-50.005
N1175 X285.448 Y-49.8
N1180 X285.381 Y-49.5
N1185 X285.317 Y-49.2
N1190 X285.255 Y-48.9
N1195 X285.015 Y-47.401
N1200 X284.968 Y-47.101
N1205 X284.888 Y-46.501
N1210 X284.853 Y-46.201
N1215 X283.984 Y-33.602
N1220 X283.931 Y-32.702
N1225 X283.352 Y-20.104
N1230 X283.342 Y-19.804
N1235 X283.32 Y-18.904
N1240 X283.051 Y-7.205
N1245 X283.042 Y-6.605
N1250 X283.038 Y-6.305
N1255 Y6.293
N1260 X283.046 Y6.893
N1265 X283.051 Y7.193
N1270 X283.326 Y19.192
N1275 X283.341 Y19.792
N1280 X283.352 Y20.092
N1285 X283.931 Y32.69
N1290 X283.983 Y33.59
N1295 X284.852 Y46.189
N1300 X284.887 Y46.488
N1305 X284.966 Y47.088
N1310 X285.013 Y47.388
N1315 X285.253 Y48.888
N1320 X285.315 Y49.188
N1325 X285.378 Y49.488
N1330 X285.444 Y49.788
N1335 X285.465 Y49.854
N1340 X285.692 Y50.736
N1345 X285.897 Y51.921
N1350 X286.051 Y53.113
N1355 X286.166 Y54.31
N1360 X286.187 Y54.609
N1365 X286.214 Y54.909
N1370 X286.278 Y55.202
N1375 X286.38 Y55.485
N1380 X286.518 Y55.752
N1385 X287.201 Y56.742
N1390 X288.167 Y57.457
N1395 X289.241 Y57.996
N1400 X289.401 Y58.053
N1405 X289.716 Y58.192
N1410 X290.008 Y58.376
N1415 X290.269 Y58.601
N1420 X291.511 Y59.843
N1425 X291.657 Y59.987
N1430 X291.811 Y60.135
N1435 X291.994 Y60.287
N1440 X292.411 Y60.622
N1445 X294.012 Y61.787
N1450 X294.21 Y61.928
N1455 X294.964 Y62.387
N1460 X295.11 Y62.468
N1465 X296.714 Y63.286
N1470 X296.91 Y63.383
N1475 X297.334 Y63.586
N1480 X297.51 Y63.664
N1485 X297.704 Y63.733
N1490 G3 X298.255 Y64.265 I-0.366 J0.931
N1495 G1 X298.303 Y64.375 Z444.407
N1500 X298.35 Y64.484 Z444.429
N1505 X298.396 Y64.59 Z444.465
N1510 X298.44 Y64.691 Z444.515
N1515 X298.482 Y64.785 Z444.577
N1520 X298.519 Y64.873 Z444.651
N1525 X298.554 Y64.951 Z444.737
N1530 X298.583 Y65.019 Z444.832
N1535 X298.608 Y65.076 Z444.935
N1540 X298.628 Y65.122 Z445.045
N1545 X298.642 Y65.155 Z445.161
N1550 X298.651 Y65.175 Z445.279
N1555 X298.654 Y65.182 Z445.4
N1560 G0 Z459.4
N1565 X284.286 Y48.532
N1570 Z446.4
N1575 G1 Z445.4 F1398.
N1580 X284.291 Y48.536 Z445.279
N1585 X284.307 Y48.551 Z445.161
N1590 X284.334 Y48.575 Z445.045
N1595 X284.371 Y48.608 Z444.935
N1600 X284.417 Y48.65 Z444.832
N1605 X284.473 Y48.7 Z444.737
N1610 X284.536 Y48.757 Z444.651
N1615 X284.607 Y48.82 Z444.577
N1620 X284.684 Y48.889 Z444.515
N1625 X284.766 Y48.963 Z444.465
N1630 X284.851 Y49.04 Z444.429
N1635 X284.94 Y49.12 Z444.407
N1640 X285.029 Y49.2 Z444.4
N1645 G3 X285.465 Y49.854 I-1.058 J1.177
N1650 G1 X285.512 Y50.005
N1655 X286.029 Y51.588
N1660 X286.229 Y52.188
N1665 X286.335 Y52.488
N1670 X286.412 Y52.662
N1675 X286.616 Y53.088
N1680 X286.712 Y53.282
N1685 X287.531 Y54.887
N1690 X287.612 Y55.033
N1695 X288.071 Y55.787
N1700 X288.212 Y55.986
N1705 X289.377 Y57.587
N1710 X289.617 Y57.887
N1715 G3 X289.806 Y58.629 I-0.801 J0.598
N1720 G1 X289.789 Y58.748 Z444.407
N1725 X289.772 Y58.866 Z444.429
N1730 X289.755 Y58.98 Z444.465
N1735 X289.739 Y59.089 Z444.515
N1740 X289.724 Y59.191 Z444.577
N1745 X289.711 Y59.285 Z444.651
N1750 X289.699 Y59.37 Z444.737
N1755 X289.688 Y59.443 Z444.832
N1760 X289.679 Y59.505 Z444.935
N1765 X289.672 Y59.554 Z445.045
N1770 X289.667 Y59.59 Z445.161
N1775 X289.664 Y59.611 Z445.279
N1780 X289.663 Y59.619 Z445.4
N1785 G0 Z459.4
N1790 X398.535 Y65.714
N1795 Z446.4
N1800 G1 Z445.4 F1398.
N1805 X398.54 Y65.708 Z445.279
N1810 X398.555 Y65.692 Z445.161
N1815 X398.579 Y65.665 Z445.045
N1820 X398.612 Y65.628 Z444.935
N1825 X398.654 Y65.582 Z444.832
N1830 X398.703 Y65.527 Z444.737
N1835 X398.76 Y65.463 Z444.651
N1840 X398.824 Y65.392 Z444.577
N1845 X398.893 Y65.316 Z444.515
N1850 X398.967 Y65.234 Z444.465
N1855 X399.044 Y65.148 Z444.429
N1860 X399.123 Y65.059 Z444.407
N1865 X399.204 Y64.97 Z444.4
N1870 G3 X399.857 Y64.534 I1.177 J1.058
N1875 G1 X400.01 Y64.486
N1880 X401.59 Y63.97
N1885 X402.19 Y63.771
N1890 X402.49 Y63.664
N1895 X402.666 Y63.586
N1900 X403.09 Y63.383
N1905 X403.286 Y63.286
N1910 X404.89 Y62.468
N1915 X405.036 Y62.387
N1920 X405.79 Y61.928
N1925 X405.988 Y61.787
N1930 X407.589 Y60.622
N1935 X408.006 Y60.287
N1940 X408.189 Y60.135
N1945 X408.343 Y59.987
N1950 X408.489 Y59.843
N1955 X409.845 Y58.487
N1960 X409.989 Y58.341
N1965 X410.137 Y58.187
N1970 X410.289 Y58.004
N1975 X410.623 Y57.587
N1980 X411.788 Y55.986
N1985 X411.929 Y55.787
N1990 X412.388 Y55.033
N1995 X412.469 Y54.887
N2000 X413.288 Y53.282
N2005 G3 X413.888 Y52.806 I0.874 J0.486
N2010 G1 X414.003 Y52.773 Z444.407
N2015 X414.118 Y52.741 Z444.429
N2020 X414.228 Y52.709 Z444.465
N2025 X414.334 Y52.679 Z444.515
N2030 X414.434 Y52.65 Z444.577
N2035 X414.525 Y52.624 Z444.651
N2040 X414.607 Y52.601 Z444.737
N2045 X414.679 Y52.58 Z444.832
N2050 X414.739 Y52.563 Z444.935
N2055 X414.787 Y52.549 Z445.045
N2060 X414.821 Y52.54 Z445.161
N2065 X414.842 Y52.534 Z445.279
N2070 X414.849 Y52.532 Z445.4
N2075 G0 Z459.4
N2080 X415.722 Y-48.513
N2085 Z446.4
N2090 G1 Z445.4 F1398.
N2095 X415.716 Y-48.518 Z445.279
N2100 X415.7 Y-48.533 Z445.161
N2105 X415.673 Y-48.557 Z445.045
N2110 X415.637 Y-48.59 Z444.935
N2115 X415.59 Y-48.632 Z444.832
N2120 X415.535 Y-48.681 Z444.737
N2125 X415.471 Y-48.738 Z444.651
N2130 X415.4 Y-48.802 Z444.577
N2135 X415.323 Y-48.871 Z444.515
N2140 X415.241 Y-48.944 Z444.465
N2145 X415.156 Y-49.021 Z444.429
N2150 X415.067 Y-49.101 Z444.407
N2155 X414.978 Y-49.181 Z444.4
N2160 G3 X414.541 Y-49.834 I1.057 J-1.178
N2165 G1 X414.488 Y-50.005
N2170 X413.967 Y-51.6
N2175 X413.767 Y-52.2
N2180 X413.661 Y-52.5
N2185 X413.588 Y-52.662
N2190 X413.378 Y-53.1
N2195 X413.288 Y-53.282
N2200 X412.462 Y-54.9
N2205 X412.388 Y-55.035
N2210 X411.921 Y-55.8
N2215 X411.788 Y-55.986
N2220 X410.614 Y-57.599
N2225 X410.289 Y-58.004
N2230 X410.125 Y-58.199
N2235 X409.989 Y-58.341
N2240 X409.833 Y-58.499
N2245 X408.489 Y-59.843
N2250 X408.33 Y-59.999
N2255 X408.189 Y-60.135
N2260 X407.992 Y-60.299
N2265 X407.589 Y-60.622
N2270 X405.971 Y-61.799
N2275 X405.79 Y-61.928
N2280 X405.016 Y-62.399
N2285 X404.89 Y-62.468
N2290 X403.272 Y-63.294
N2295 G3 X402.796 Y-63.893 I0.486 J-0.874
N2300 G1 X402.763 Y-64.009 Z444.407
N2305 X402.73 Y-64.123 Z444.429
N2310 X402.698 Y-64.234 Z444.465
N2315 X402.668 Y-64.34 Z444.515
N2320 X402.64 Y-64.439 Z444.577
N2325 X402.614 Y-64.53 Z444.651
N2330 X402.59 Y-64.613 Z444.737
N2335 X402.57 Y-64.684 Z444.832
N2340 X402.553 Y-64.744 Z444.935
N2345 X402.539 Y-64.792 Z445.045
N2350 X402.529 Y-64.826 Z445.161
N2355 X402.523 Y-64.847 Z445.279
N2360 X402.521 Y-64.854 Z445.4
N2365 G0 Z459.4
N2370 X301.477 Y-65.716
N2375 Z446.4
N2380 G1 Z445.4 F1398.
N2385 X301.472 Y-65.711 Z445.279
N2390 X301.458 Y-65.695 Z445.161
N2395 X301.434 Y-65.668 Z445.045
N2400 X301.401 Y-65.631 Z444.935
N2405 X301.359 Y-65.585 Z444.832
N2410 X301.309 Y-65.529 Z444.737
N2415 X301.252 Y-65.466 Z444.651
N2420 X301.188 Y-65.395 Z444.577
N2425 X301.119 Y-65.318 Z444.515
N2430 X301.045 Y-65.237 Z444.465
N2435 X300.968 Y-65.151 Z444.429
N2440 X300.889 Y-65.063 Z444.407
N2445 X300.808 Y-64.973 Z444.4
N2450 G3 X300.154 Y-64.538 I-1.176 J-1.059
N2455 G1 X300.027 Y-64.499
N2460 X298.41 Y-63.97
N2465 X297.81 Y-63.771
N2470 X297.51 Y-63.665
N2475 X297.363 Y-63.599
N2480 X296.91 Y-63.383
N2485 X296.738 Y-63.299
N2490 X295.11 Y-62.468
N2495 X294.984 Y-62.399
N2500 X294.21 Y-61.928
N2505 X294.029 Y-61.799
N2510 X292.411 Y-60.622
N2515 X292.008 Y-60.299
N2520 X291.811 Y-60.135
N2525 X291.67 Y-59.999
N2530 X291.511 Y-59.843
N2535 X290.167 Y-58.499
N2540 X290.011 Y-58.341
N2545 X289.875 Y-58.199
N2550 X289.711 Y-58.004
N2555 X289.386 Y-57.599
N2560 X288.212 Y-55.986
N2565 X288.079 Y-55.8
N2570 X287.612 Y-55.035
N2575 X287.538 Y-54.9
N2580 X286.712 Y-53.282
N2585 X286.654 Y-53.206 Z444.406
N2590 X286.597 Y-53.131 Z444.424
N2595 X286.542 Y-53.058 Z444.452
N2600 X286.48 Y-53.012 Z444.487
N2605 X286.421 Y-52.968 Z444.53
N2610 X286.367 Y-52.927 Z444.581
N2615 X286.317 Y-52.89 Z444.639
N2620 X286.256 Y-52.865 Z444.716
N2625 X286.206 Y-52.845 Z444.8
N2630 X286.165 Y-52.828 Z444.891
N2635 X286.136 Y-52.816 Z444.986
N2640 X286.118 Y-52.809 Z445.085
N2645 X286.112 Y-52.806 Z445.185
N2650 G0 Z459.4
N2655 X354.747 Y0.188
N2660 Z456.9
N2665 G3 X345.254 Y-0.189 Z456.379 I-4.746 J-0.188 F1398.
N2670 X354.747 Y0.188 Z455.858 I4.746 J0.188
N2675 X345.254 Y-0.189 Z455.337 I-4.746 J-0.188
N2680 X345.903 Y-2.403 Z455.255 I4.746 J0.188
N2685 X353.844 Y-2.791 Z454.926 I4.097 J2.403
N2690 X346.157 Y2.79 Z454.405 I-3.844 J2.791
N2695 X353.844 Y-2.791 Z453.884 I3.844 J-2.791
N2700 X346.157 Y2.79 Z453.363 I-3.844 J2.791
N2705 X353.844 Y-2.791 Z452.842 I3.844 J-2.791
N2710 X346.157 Y2.79 Z452.321 I-3.844 J2.791
N2715 X353.844 Y-2.791 Z451.8 I3.844 J-2.791
N2720 X346.157 Y2.79 Z451.279 I-3.844 J2.791
N2725 X353.844 Y-2.791 Z450.757 I3.844 J-2.791
N2730 X346.157 Y2.79 Z450.236 I-3.844 J2.791
N2735 X353.844 Y-2.791 Z449.715 I3.844 J-2.791
N2740 X346.157 Y2.79 Z449.194 I-3.844 J2.791
N2745 X345.856 Y-2.322 Z449.005 I3.844 J-2.791
N2750 X353.788 Y-2.867 Z448.676 I4.144 J2.322
N2755 X346.213 Y2.866 Z448.155 I-3.788 J2.866
N2760 X353.788 Y-2.867 Z447.634 I3.788 J-2.866
N2765 X346.213 Y2.866 Z447.113 I-3.788 J2.866
N2770 X353.788 Y-2.867 Z446.592 I3.788 J-2.866
N2775 X346.213 Y2.866 Z446.071 I-3.788 J2.866
N2780 X353.788 Y-2.867 Z445.55 I3.788 J-2.866
N2785 X354.488 Y1.556 Z445.387 I-3.788 J2.866
N2790 X346.776 Y3.488 Z445.058 I-4.488 J-1.556
N2795 X353.225 Y-3.488 Z444.537 I3.224 J-3.488
N2800 X354.75 Y0. Z444.4 I-3.224 J3.488
N2805 X345.908 Y2.411 I-4.75 J0.
N2810 X346.619 Y-3.337 I4.093 J-2.411
N2815 X354.738 Y-0.34 I3.381 J3.337
N2820 X354.75 Y0. I-4.738 J0.339
N2825 G1 X354.753 Y0.3
N2830 X354.794 Y0.598
N2835 X355.111 Y1.758
N2840 X355.168 Y1.926
N2845 X355.215 Y2.116
N2850 X355.25 Y2.327
N2855 X355.269 Y2.559
N2860 X355.27 Y2.809
N2865 X355.249 Y3.077
N2870 X355.204 Y3.361
N2875 X355.132 Y3.658
N2880 X355.031 Y3.966
N2885 X354.898 Y4.281
N2890 X354.732 Y4.6
N2895 X354.532 Y4.92
N2900 X354.296 Y5.237
N2905 X354.025 Y5.546
N2910 X353.719 Y5.843
N2915 X353.378 Y6.125
N2920 X353.003 Y6.386
N2925 X352.597 Y6.624
N2930 X352.161 Y6.834
N2935 X351.698 Y7.013
N2940 X351.212 Y7.157
N2945 X350.705 Y7.264
N2950 X350.182 Y7.331
N2955 X349.646 Y7.356
N2960 X349.101 Y7.338
N2965 X348.553 Y7.276
N2970 X348.005 Y7.168
N2975 X347.461 Y7.016
N2980 X346.927 Y6.818
N2985 X346.405 Y6.576
N2990 X345.901 Y6.29
N2995 X345.419 Y5.963
N3000 X344.961 Y5.597
N3005 X344.533 Y5.192
N3010 X344.136 Y4.753
N3015 X343.775 Y4.281
N3020 X343.451 Y3.78
N3025 X343.168 Y3.254
N3030 X342.927 Y2.704
N3035 X342.731 Y2.136
N3040 X342.58 Y1.553
N3045 X342.477 Y0.958
N3050 X342.422 Y0.356
N3055 X342.415 Y-0.249
N3060 X342.457 Y-0.853
N3065 X342.547 Y-1.453
N3070 X342.686 Y-2.044
N3075 X342.871 Y-2.623
N3080 X343.103 Y-3.185
N3085 X343.379 Y-3.728
N3090 X343.697 Y-4.246
N3095 X344.057 Y-4.738
N3100 X344.455 Y-5.199
N3105 X344.889 Y-5.627
N3110 X345.356 Y-6.019
N3115 X345.853 Y-6.372
N3120 X346.377 Y-6.685
N3125 X346.924 Y-6.954
N3130 X347.492 Y-7.179
N3135 X348.075 Y-7.357
N3140 X348.671 Y-7.488
N3145 X349.276 Y-7.57
N3150 X349.886 Y-7.604
N3155 X350.496 Y-7.589
N3160 X351.103 Y-7.525
N3165 X351.704 Y-7.412
N3170 X352.293 Y-7.252
N3175 X352.867 Y-7.045
N3180 X353.423 Y-6.792
N3185 X353.957 Y-6.496
N3190 X354.466 Y-6.157
N3195 X354.946 Y-5.779
N3200 X355.393 Y-5.364
N3205 X355.806 Y-4.913
N3210 X356.182 Y-4.432
N3215 X356.578 Y-3.829
N3220 X357.156 Y-2.775
N3225 X357.619 Y-1.787
N3230 X357.931 Y-0.948
N3235 X358.151 Y-0.176
N3240 X358.295 Y0.549
N3245 X358.377 Y1.253
N3250 X358.402 Y1.941
N3255 X358.372 Y2.614
N3260 X358.289 Y3.272
N3265 X358.155 Y3.916
N3270 X357.97 Y4.547
N3275 X357.734 Y5.161
N3280 X357.449 Y5.758
N3285 X357.114 Y6.334
N3290 X356.73 Y6.886
N3295 X356.299 Y7.412
N3300 X355.82 Y7.908
N3305 X355.296 Y8.37
N3310 X354.729 Y8.795
N3315 X354.122 Y9.177
N3320 X353.476 Y9.515
N3325 X352.797 Y9.803
N3330 X352.088 Y10.039
N3335 X351.354 Y10.219
N3340 X350.599 Y10.341
N3345 X349.829 Y10.403
N3350 X349.05
N3355 X348.265 Y10.34
N3360 X347.482 Y10.212
N3365 X346.705 Y10.021
N3370 X345.939 Y9.766
N3375 X345.191 Y9.448
N3380 X344.467 Y9.069
N3385 X343.771 Y8.63
N3390 X343.108 Y8.133
N3395 X342.484 Y7.583
N3400 X341.904 Y6.981
N3405 X341.372 Y6.331
N3410 X340.891 Y5.639
N3415 X340.467 Y4.907
N3420 X340.101 Y4.142
N3425 X339.797 Y3.348
N3430 X339.558 Y2.53
N3435 X339.384 Y1.694
N3440 X339.278 Y0.845
N3445 X339.24 Y-0.011
N3450 X339.272 Y-0.868
N3455 X339.372 Y-1.722
N3460 X339.54 Y-2.565
N3465 X339.776 Y-3.393
N3470 X340.077 Y-4.2
N3475 X340.443 Y-4.981
N3480 X340.87 Y-5.73
N3485 X341.357 Y-6.443
N3490 X341.899 Y-7.115
N3495 X342.494 Y-7.742
N3500 X343.138 Y-8.319
N3505 X343.826 Y-8.843
N3510 X344.554 Y-9.31
N3515 X345.317 Y-9.717
N3520 X346.111 Y-10.062
N3525 X346.93 Y-10.342
N3530 X347.769 Y-10.555
N3535 X348.623 Y-10.701
N3540 X349.485 Y-10.777
N3545 X350.351 Y-10.784
N3550 X351.215 Y-10.721
N3555 X352.072 Y-10.589
N3560 X352.914 Y-10.389
N3565 X353.739 Y-10.122
N3570 X354.539 Y-9.79
N3575 X355.31 Y-9.394
N3580 X356.046 Y-8.938
N3585 X356.761 Y-8.412
N3590 X357.509 Y-7.762
N3595 X358.255 Y-7.001
N3600 X358.963 Y-6.152
N3605 X359.609 Y-5.236
N3610 X360.172 Y-4.285
N3615 X360.644 Y-3.317
N3620 X361.027 Y-2.341
N3625 X361.323 Y-1.361
N3630 X361.535 Y-0.381
N3635 X361.665 Y0.597
N3640 X361.716 Y1.57
N3645 X361.689 Y2.533
N3650 X361.585 Y3.484
N3655 X361.407 Y4.417
N3660 X361.155 Y5.33
N3665 X360.831 Y6.219
N3670 X360.436 Y7.08
N3675 X359.973 Y7.909
N3680 X359.441 Y8.702
N3685 X358.845 Y9.453
N3690 X358.186 Y10.158
N3695 X357.468 Y10.813
N3700 X356.693 Y11.413
N3705 X355.866 Y11.954
N3710 X354.991 Y12.43
N3715 X354.073 Y12.837
N3720 X353.118 Y13.172
N3725 X352.132 Y13.432
N3730 X351.12 Y13.613
N3735 X350.09 Y13.712
N3740 X349.047 Y13.729
N3745 X348. Y13.662
N3750 X346.954 Y13.51
N3755 X345.918 Y13.273
N3760 X344.898 Y12.951
N3765 X343.901 Y12.547
N3770 X342.935 Y12.061
N3775 X342.005 Y11.496
N3780 X341.12 Y10.856
N3785 X340.286 Y10.143
N3790 X339.508 Y9.362
N3795 X338.793 Y8.519
N3800 X338.146 Y7.617
N3805 X337.571 Y6.664
N3810 X337.073 Y5.665
N3815 X336.656 Y4.627
N3820 X336.323 Y3.556
N3825 X336.077 Y2.459
N3830 X335.919 Y1.345
N3835 X335.851 Y0.22
N3840 X335.873 Y-0.909
N3845 X335.986 Y-2.033
N3850 X336.19 Y-3.146
N3855 X336.482 Y-4.24
N3860 X336.861 Y-5.308
N3865 X337.325 Y-6.343
N3870 X337.871 Y-7.337
N3875 X338.495 Y-8.286
N3880 X339.194 Y-9.181
N3885 X339.963 Y-10.018
N3890 X340.797 Y-10.791
N3895 X341.69 Y-11.495
N3900 X342.637 Y-12.124
N3905 X343.632 Y-12.676
N3910 X344.669 Y-13.147
N3915 X345.74 Y-13.533
N3920 X346.838 Y-13.831
N3925 X347.958 Y-14.041
N3930 X349.09 Y-14.16
N3935 X350.229 Y-14.188
N3940 X351.366 Y-14.124
N3945 X352.495 Y-13.969
N3950 X353.608 Y-13.724
N3955 X354.697 Y-13.391
N3960 X355.761 Y-12.969
N3965 X356.814 Y-12.451
N3970 X357.846 Y-11.835
N3975 X358.826 Y-11.139
N3980 X359.75 Y-10.37
N3985 X360.615 Y-9.535
N3990 X361.417 Y-8.639
N3995 X362.151 Y-7.688
N4000 X362.814 Y-6.685
N4005 X363.402 Y-5.636
N4010 X363.911 Y-4.547
N4015 X364.338 Y-3.424
N4020 X364.68 Y-2.271
N4025 X364.936 Y-1.097
N4030 X365.101 Y0.094
N4035 X365.175 Y1.294
N4040 X365.157 Y2.496
N4045 X365.045 Y3.693
N4050 X364.841 Y4.877
N4055 X364.545 Y6.043
N4060 X364.159 Y7.181
N4065 X363.685 Y8.286
N4070 X363.126 Y9.35
N4075 X362.486 Y10.367
N4080 X361.768 Y11.332
N4085 X360.978 Y12.238
N4090 X360.121 Y13.08
N4095 X359.201 Y13.855
N4100 X358.225 Y14.556
N4105 X357.198 Y15.182
N4110 X356.127 Y15.728
N4115 X355.018 Y16.19
N4120 X353.877 Y16.568
N4125 X352.71 Y16.859
N4130 X351.526 Y17.063
N4135 X350.329 Y17.179
N4140 X349.127 Y17.208
N4145 X347.927 Y17.15
N4150 X346.733 Y17.005
N4155 X345.553 Y16.776
N4160 X344.393 Y16.462
N4165 X343.258 Y16.065
N4170 X342.155 Y15.587
N4175 X341.089 Y15.031
N4180 X340.065 Y14.402
N4185 X339.087 Y13.703
N4190 X338.161 Y12.937
N4195 X337.289 Y12.109
N4200 X336.477 Y11.222
N4205 X335.731 Y10.28
N4210 X335.053 Y9.288
N4215 X334.445 Y8.251
N4220 X333.91 Y7.174
N4225 X333.449 Y6.064
N4230 X333.064 Y4.925
N4235 X332.76 Y3.762
N4240 X332.538 Y2.581
N4245 X332.398 Y1.387
N4250 X332.34 Y0.186
N4255 X332.364 Y-1.016
N4260 X332.469 Y-2.213
N4265 X332.654 Y-3.401
N4270 X332.921 Y-4.573
N4275 X333.269 Y-5.724
N4280 X333.696 Y-6.848
N4285 X334.197 Y-7.94
N4290 X334.771 Y-8.996
N4295 X335.414 Y-10.012
N4300 X336.125 Y-10.981
N4305 X336.902 Y-11.899
N4310 X337.74 Y-12.761
N4315 X338.634 Y-13.564
N4320 X339.581 Y-14.305
N4325 X340.575 Y-14.98
N4330 X341.612 Y-15.588
N4335 X342.689 Y-16.123
N4340 X343.8 Y-16.582
N4345 X344.94 Y-16.964
N4350 X346.103 Y-17.268
N4355 X347.284 Y-17.493
N4360 X348.477 Y-17.639
N4365 X349.677 Y-17.704
N4370 X350.879 Y-17.685
N4375 X352.077 Y-17.584
N4380 X353.265 Y-17.401
N4385 X354.438 Y-17.139
N4390 X355.592 Y-16.8
N4395 X356.72 Y-16.386
N4400 X357.818 Y-15.896
N4405 X358.881 Y-15.334
N4410 X359.905 Y-14.705
N4415 X360.888 Y-14.014
N4420 X361.828 Y-13.264
N4425 X362.719 Y-12.457
N4430 X363.557 Y-11.595
N4435 X364.341 Y-10.684
N4440 X365.069 Y-9.727
N4445 X365.738 Y-8.728
N4450 X366.346 Y-7.691
N4455 X366.889 Y-6.619
N4460 X367.364 Y-5.515
N4465 X367.771 Y-4.383
N4470 X368.109 Y-3.23
N4475 X368.377 Y-2.058
N4480 X368.571 Y-0.872
N4485 X368.689 Y0.325
N4490 X368.731 Y1.526
N4495 X368.699 Y2.728
N4500 X368.594 Y3.925
N4505 X368.413 Y5.114
N4510 X368.156 Y6.288
N4515 X367.824 Y7.443
N4520 X367.42 Y8.575
N4525 X366.946 Y9.68
N4530 X366.404 Y10.753
N4535 X365.795 Y11.79
N4540 X365.12 Y12.784
N4545 X364.383 Y13.734
N4550 X363.589 Y14.637
N4555 X362.742 Y15.489
N4560 X361.842 Y16.287
N4565 X360.894 Y17.025
N4570 X359.9 Y17.702
N4575 X358.867 Y18.317
N4580 X357.798 Y18.867
N4585 X356.698 Y19.351
N4590 X355.57 Y19.766
N4595 X354.418 Y20.109
N4600 X353.247 Y20.381
N4605 X352.062 Y20.582
N4610 X350.867 Y20.713
N4615 X349.666 Y20.773
N4620 X348.464 Y20.759
N4625 X347.265 Y20.672
N4630 X346.073 Y20.514
N4635 X344.893 Y20.286
N4640 X343.728 Y19.99
N4645 X342.583 Y19.625
N4650 X341.462 Y19.191
N4655 X340.368 Y18.691
N4660 X339.306 Y18.129
N4665 X338.277 Y17.506
N4670 X337.286 Y16.827
N4675 X336.336 Y16.09
N4680 X335.432 Y15.297
N4685 X334.576 Y14.454
N4690 X333.77 Y13.562
N4695 X333.015 Y12.626
N4700 X332.315 Y11.649
N4705 X331.674 Y10.632
N4710 X331.093 Y9.58
N4715 X330.572 Y8.496
N4720 X330.115 Y7.385
N4725 X329.72 Y6.249
N4730 X329.391 Y5.093
N4735 X329.13 Y3.919
N4740 X328.937 Y2.733
N4745 X328.812 Y1.537
N4750 X328.755 Y0.337
N4755 X328.764 Y-0.866
N4760 X328.841 Y-2.065
N4765 X328.988 Y-3.258
N4770 X329.203 Y-4.441
N4775 X329.486 Y-5.609
N4780 X329.834 Y-6.76
N4785 X330.245 Y-7.89
N4790 X330.718 Y-8.995
N4795 X331.255 Y-10.07
N4800 X331.852 Y-11.113
N4805 X332.508 Y-12.121
N4810 X333.219 Y-13.09
N4815 X333.983 Y-14.018
N4820 X334.798 Y-14.902
N4825 X335.663 Y-15.736
N4830 X336.574 Y-16.521
N4835 X337.528 Y-17.253
N4840 X338.521 Y-17.93
N4845 X339.55 Y-18.551
N4850 X340.613 Y-19.113
N4855 X341.706 Y-19.612
N4860 X342.827 Y-20.048
N4865 X343.97 Y-20.421
N4870 X345.131 Y-20.729
N4875 X346.308 Y-20.973
N4880 X347.497 Y-21.15
N4885 X348.695 Y-21.258
N4890 X349.896 Y-21.296
N4895 X351.098 Y-21.267
N4900 X352.296 Y-21.172
N4905 X353.487 Y-21.01
N4910 X354.668 Y-20.782
N4915 X355.833 Y-20.487
N4920 X356.98 Y-20.126
N4925 X358.105 Y-19.703
N4930 X359.205 Y-19.219
N4935 X360.278 Y-18.677
N4940 X361.321 Y-18.079
N4945 X362.33 Y-17.425
N4950 X363.302 Y-16.718
N4955 X364.235 Y-15.96
N4960 X365.127 Y-15.155
N4965 X365.977 Y-14.304
N4970 X366.783 Y-13.412
N4975 X367.541 Y-12.479
N4980 X368.248 Y-11.507
N4985 X368.905 Y-10.5
N4990 X369.508 Y-9.46
N4995 X370.057 Y-8.391
N5000 X370.552 Y-7.296
N5005 X370.99 Y-6.176
N5010 X371.368 Y-5.035
N5015 X371.685 Y-3.875
N5020 X371.941 Y-2.701
N5025 X372.136 Y-1.515
N5030 X372.269 Y-0.32
N5035 X372.341 Y0.88
N5040 X372.348 Y2.082
N5045 X372.291 Y3.283
N5050 X372.17 Y4.479
N5055 X371.986 Y5.667
N5060 X371.74 Y6.843
N5065 X371.433 Y8.006
N5070 X371.065 Y9.15
N5075 X370.635 Y10.273
N5080 X370.146 Y11.371
N5085 X369.599 Y12.441
N5090 X368.996 Y13.482
N5095 X368.341 Y14.489
N5100 X367.633 Y15.461
N5105 X366.874 Y16.393
N5110 X366.066 Y17.283
N5115 X365.212 Y18.129
N5120 X364.316 Y18.93
N5125 X363.379 Y19.683
N5130 X362.404 Y20.386
N5135 X361.393 Y21.037
N5140 X360.349 Y21.633
N5145 X359.275 Y22.173
N5150 X358.175 Y22.657
N5155 X357.051 Y23.085
N5160 X355.907 Y23.454
N5165 X354.746 Y23.763
N5170 X353.57 Y24.012
N5175 X352.382 Y24.199
N5180 X351.187 Y24.326
N5185 X349.986 Y24.392
N5190 X348.784 Y24.398
N5195 X347.583 Y24.344
N5200 X346.387 Y24.227
N5205 X345.198 Y24.05
N5210 X344.02 Y23.813
N5215 X342.855 Y23.517
N5220 X341.706 Y23.163
N5225 X340.576 Y22.753
N5230 X339.468 Y22.286
N5235 X338.385 Y21.765
N5240 X337.329 Y21.189
N5245 X336.304 Y20.563
N5250 X335.31 Y19.886
N5255 X334.351 Y19.161
N5260 X333.428 Y18.391
N5265 X332.545 Y17.575
N5270 X331.704 Y16.716
N5275 X330.907 Y15.816
N5280 X330.154 Y14.879
N5285 X329.449 Y13.906
N5290 X328.791 Y12.9
N5295 X328.182 Y11.863
N5300 X327.626 Y10.797
N5305 X327.123 Y9.705
N5310 X326.674 Y8.59
N5315 X326.281 Y7.454
N5320 X325.942 Y6.301
N5325 X325.659 Y5.133
N5330 X325.434 Y3.952
N5335 X325.267 Y2.761
N5340 X325.158 Y1.564
N5345 X325.108 Y0.363
N5350 X325.116 Y-0.839
N5355 X325.181 Y-2.039
N5360 X325.304 Y-3.235
N5365 X325.485 Y-4.423
N5370 X325.725 Y-5.601
N5375 X326.021 Y-6.766
N5380 X326.374 Y-7.916
N5385 X326.781 Y-9.047
N5390 X327.242 Y-10.157
N5395 X327.755 Y-11.244
N5400 X328.321 Y-12.304
N5405 X328.939 Y-13.336
N5410 X329.605 Y-14.336
N5415 X330.319 Y-15.303
N5420 X331.079 Y-16.235
N5425 X331.882 Y-17.129
N5430 X332.727 Y-17.984
N5435 X333.613 Y-18.797
N5440 X334.538 Y-19.565
N5445 X335.499 Y-20.288
N5450 X336.493 Y-20.963
N5455 X337.518 Y-21.59
N5460 X338.573 Y-22.168
N5465 X339.653 Y-22.694
N5470 X340.759 Y-23.167
N5475 X341.886 Y-23.585
N5480 X343.032 Y-23.949
N5485 X344.193 Y-24.257
N5490 X345.369 Y-24.509
N5495 X346.555 Y-24.705
N5500 X347.749 Y-24.844
N5505 X348.948 Y-24.923
N5510 X350.15 Y-24.944
N5515 X351.352 Y-24.908
N5520 X352.55 Y-24.814
N5525 X353.743 Y-24.664
N5530 X354.927 Y-24.457
N5535 X356.1 Y-24.194
N5540 X357.259 Y-23.874
N5545 X358.401 Y-23.499
N5550 X359.524 Y-23.071
N5555 X360.626 Y-22.591
N5560 X361.705 Y-22.061
N5565 X362.759 Y-21.482
N5570 X363.785 Y-20.855
N5575 X364.78 Y-20.181
N5580 X365.743 Y-19.461
N5585 X366.672 Y-18.699
N5590 X367.567 Y-17.896
N5595 X368.424 Y-17.053
N5600 X369.243 Y-16.173
N5605 X370.023 Y-15.258
N5610 X370.759 Y-14.308
N5615 X371.452 Y-13.326
N5620 X372.1 Y-12.313
N5625 X372.702 Y-11.273
N5630 X373.258 Y-10.207
N5635 X373.766 Y-9.118
N5640 X374.226 Y-8.007
N5645 X374.634 Y-6.876
N5650 X374.991 Y-5.728
N5655 X375.295 Y-4.565
N5660 X375.546 Y-3.39
N5665 X375.745 Y-2.204
N5670 X375.891 Y-1.011
N5675 X375.983 Y0.188
N5680 X376.021 Y1.389
N5685 X376.003 Y2.591
N5690 X375.929 Y3.791
N5695 X375.802 Y4.986
N5700 X375.62 Y6.175
N5705 X375.385 Y7.354
N5710 X375.098 Y8.521
N5715 X374.757 Y9.674
N5720 X374.363 Y10.809
N5725 X373.917 Y11.925
N5730 X373.42 Y13.02
N5735 X372.874 Y14.091
N5740 X372.281 Y15.137
N5745 X371.641 Y16.154
N5750 X370.955 Y17.142
N5755 X370.225 Y18.097
N5760 X369.451 Y19.016
N5765 X368.636 Y19.9
N5770 X367.782 Y20.746
N5775 X366.891 Y21.553
N5780 X365.965 Y22.319
N5785 X365.005 Y23.043
N5790 X364.013 Y23.723
N5795 X362.991 Y24.356
N5800 X361.942 Y24.941
N5805 X360.867 Y25.48
N5810 X359.769 Y25.97
N5815 X358.651 Y26.411
N5820 X357.514 Y26.802
N5825 X356.361 Y27.143
N5830 X355.194 Y27.43
N5835 X354.015 Y27.665
N5840 X352.827 Y27.847
N5845 X351.632 Y27.977
N5850 X350.432 Y28.055
N5855 X349.231 Y28.08
N5860 X348.029 Y28.053
N5865 X346.829 Y27.973
N5870 X345.635 Y27.839
N5875 X344.447 Y27.652
N5880 X343.269 Y27.414
N5885 X342.102 Y27.125
N5890 X340.949 Y26.787
N5895 X339.811 Y26.399
N5900 X338.691 Y25.962
N5905 X337.591 Y25.476
N5910 X336.514 Y24.942
N5915 X335.461 Y24.363
N5920 X334.434 Y23.738
N5925 X333.434 Y23.071
N5930 X332.464 Y22.361
N5935 X331.524 Y21.611
N5940 X330.618 Y20.821
N5945 X329.748 Y19.992
N5950 X328.914 Y19.126
N5955 X328.118 Y18.225
N5960 X327.361 Y17.292
N5965 X326.644 Y16.327
N5970 X325.967 Y15.333
N5975 X325.334 Y14.311
N5980 X324.746 Y13.263
N5985 X324.203 Y12.19
N5990 X323.707 Y11.095
N5995 X323.258 Y9.98
N6000 X322.856 Y8.847
N6005 X322.502 Y7.699
N6010 X322.196 Y6.536
N6015 X321.939 Y5.362
N6020 X321.734 Y4.177
N6025 X321.58 Y2.985
N6030 X321.476 Y1.788
N6035 X321.423 Y0.587
N6040 X321.42 Y-0.616
N6045 X321.467 Y-1.817
N6050 X321.564 Y-3.015
N6055 X321.712 Y-4.208
N6060 X321.912 Y-5.393
N6065 X322.162 Y-6.569
N6070 X322.461 Y-7.733
N6075 X322.808 Y-8.884
N6080 X323.203 Y-10.02
N6085 X323.645 Y-11.138
N6090 X324.133 Y-12.236
N6095 X324.668 Y-13.313
N6100 X325.249 Y-14.365
N6105 X325.873 Y-15.392
N6110 X326.54 Y-16.392
N6115 X327.249 Y-17.364
N6120 X327.997 Y-18.305
N6125 X328.783 Y-19.214
N6130 X329.607 Y-20.089
N6135 X330.467 Y-20.929
N6140 X331.363 Y-21.73
N6145 X332.292 Y-22.494
N6150 X333.252 Y-23.217
N6155 X334.241 Y-23.9
N6160 X335.257 Y-24.542
N6165 X336.3 Y-25.141
N6170 X337.366 Y-25.695
N6175 X338.456 Y-26.203
N6180 X339.566 Y-26.664
N6185 X340.694 Y-27.079
N6190 X341.839 Y-27.445
N6195 X342.998 Y-27.764
N6200 X344.169 Y-28.035
N6205 X345.351 Y-28.256
N6210 X346.541 Y-28.427
N6215 X347.737 Y-28.547
N6220 X348.937 Y-28.617
N6225 X350.139 Y-28.636
N6230 X351.341 Y-28.605
N6235 X352.54 Y-28.524
N6240 X353.735 Y-28.394
N6245 X354.924 Y-28.215
N6250 X356.104 Y-27.986
N6255 X357.273 Y-27.706
N6260 X358.43 Y-27.379
N6265 X359.572 Y-27.004
N6270 X360.698 Y-26.583
N6275 X361.806 Y-26.116
N6280 X362.894 Y-25.606
N6285 X363.961 Y-25.052
N6290 X365.004 Y-24.455
N6295 X366.022 Y-23.815
N6300 X367.013 Y-23.135
N6305 X367.976 Y-22.416
N6310 X368.91 Y-21.659
N6315 X369.814 Y-20.866
N6320 X370.685 Y-20.038
N6325 X371.524 Y-19.177
N6330 X372.328 Y-18.283
N6335 X373.094 Y-17.357
N6340 X373.824 Y-16.401
N6345 X374.514 Y-15.418
N6350 X375.167 Y-14.408
N6355 X375.779 Y-13.373
N6360 X376.35 Y-12.316
N6365 X376.881 Y-11.237
N6370 X377.368 Y-10.138
N6375 X377.81 Y-9.02
N6380 X378.208 Y-7.886
N6385 X378.56 Y-6.736
N6390 X378.866 Y-5.574
N6395 X379.127 Y-4.4
N6400 X379.342 Y-3.218
N6405 X379.511 Y-2.028
N6410 X379.632 Y-0.832
N6415 X379.705 Y0.368
N6420 X379.729 Y1.57
N6425 X379.705 Y2.772
N6430 X379.633 Y3.972
N6435 X379.514 Y5.168
N6440 X379.348 Y6.359
N6445 X379.135 Y7.542
N6450 X378.875 Y8.716
N6455 X378.568 Y9.878
N6460 X378.213 Y11.026
N6465 X377.813 Y12.16
N6470 X377.367 Y13.276
N6475 X376.878 Y14.374
N6480 X376.346 Y15.452
N6485 X375.772 Y16.508
N6490 X375.156 Y17.541
N6495 X374.499 Y18.548
N6500 X373.802 Y19.527
N6505 X373.065 Y20.477
N6510 X372.291 Y21.397
N6515 X371.482 Y22.285
N6520 X370.638 Y23.142
N6525 X369.762 Y23.964
N6530 X368.854 Y24.752
N6535 X367.914 Y25.502
N6540 X366.945 Y26.214
N6545 X365.949 Y26.886
N6550 X364.926 Y27.518
N6555 X363.88 Y28.109
N6560 X362.811 Y28.66
N6565 X361.722 Y29.168
N6570 X360.613 Y29.634
N6575 X359.488 Y30.055
N6580 X358.346 Y30.431
N6585 X357.19 Y30.762
N6590 X356.022 Y31.046
N6595 X354.844 Y31.286
N6600 X353.658 Y31.479
N6605 X352.465 Y31.627
N6610 X351.267 Y31.729
N6615 X350.066 Y31.785
N6620 X348.864 Y31.793
N6625 X347.663 Y31.754
N6630 X346.464 Y31.668
N6635 X345.269 Y31.536
N6640 X344.08 Y31.358
N6645 X342.899 Y31.135
N6650 X341.727 Y30.868
N6655 X340.566 Y30.556
N6660 X339.418 Y30.2
N6665 X338.284 Y29.799
N6670 X337.168 Y29.354
N6675 X336.069 Y28.867
N6680 X334.989 Y28.338
N6685 X333.93 Y27.769
N6690 X332.893 Y27.161
N6695 X331.88 Y26.514
N6700 X330.892 Y25.83
N6705 X329.931 Y25.107
N6710 X328.999 Y24.348
N6715 X328.096 Y23.554
N6720 X327.224 Y22.726
N6725 X326.384 Y21.867
N6730 X325.577 Y20.976
N6735 X324.803 Y20.056
N6740 X324.064 Y19.108
N6745 X323.361 Y18.133
N6750 X322.697 Y17.131
N6755 X322.071 Y16.104
N6760 X321.485 Y15.055
N6765 X320.938 Y13.984
N6770 X320.432 Y12.894
N6775 X319.966 Y11.786
N6780 X319.542 Y10.661
N6785 X319.159 Y9.522
N6790 X318.821 Y8.368
N6795 X318.526 Y7.203
N6800 X318.276 Y6.027
N6805 X318.071 Y4.842
N6810 X317.909 Y3.651
N6815 X317.792 Y2.455
N6820 X317.719 Y1.255
N6825 X317.69 Y0.053
N6830 X317.706 Y-1.149
N6835 X317.767 Y-2.349
N6840 X317.875 Y-3.547
N6845 X318.027 Y-4.739
N6850 X318.224 Y-5.925
N6855 X318.464 Y-7.103
N6860 X318.748 Y-8.271
N6865 X319.074 Y-9.428
N6870 X319.443 Y-10.572
N6875 X319.854 Y-11.702
N6880 X320.309 Y-12.815
N6885 X320.804 Y-13.91
N6890 X321.341 Y-14.985
N6895 X321.917 Y-16.04
N6900 X322.532 Y-17.073
N6905 X323.184 Y-18.083
N6910 X323.873 Y-19.069
N6915 X324.597 Y-20.028
N6920 X325.357 Y-20.959
N6925 X326.153 Y-21.86
N6930 X326.981 Y-22.731
N6935 X327.841 Y-23.571
N6940 X328.732 Y-24.378
N6945 X329.652 Y-25.152
N6950 X330.6 Y-25.891
N6955 X331.574 Y-26.596
N6960 X332.574 Y-27.263
N6965 X333.598 Y-27.893
N6970 X334.645 Y-28.483
N6975 X335.714 Y-29.033
N6980 X336.802 Y-29.543
N6985 X337.909 Y-30.013
N6990 X339.032 Y-30.442
N6995 X340.17 Y-30.829
N7000 X341.321 Y-31.175
N7005 X342.485 Y-31.477
N7010 X343.659 Y-31.735
N7015 X344.842 Y-31.948
N7020 X346.032 Y-32.117
N7025 X347.228 Y-32.242
N7030 X348.427 Y-32.323
N7035 X349.629 Y-32.359
N7040 X350.831 Y-32.352
N7045 X352.032 Y-32.301
N7050 X353.23 Y-32.205
N7055 X354.424 Y-32.064
N7060 X355.612 Y-31.878
N7065 X356.792 Y-31.649
N7070 X357.962 Y-31.376
N7075 X359.123 Y-31.062
N7080 X360.271 Y-30.705
N7085 X361.405 Y-30.308
N7090 X362.525 Y-29.87
N7095 X363.627 Y-29.391
N7100 X364.712 Y-28.872
N7105 X365.776 Y-28.314
N7110 X366.82 Y-27.718
N7115 X367.842 Y-27.084
N7120 X368.84 Y-26.415
N7125 X369.815 Y-25.711
N7130 X370.764 Y-24.974
N7135 X371.687 Y-24.204
N7140 X372.582 Y-23.401
N7145 X373.447 Y-22.566
N7150 X374.282 Y-21.701
N7155 X375.085 Y-20.807
N7160 X375.857 Y-19.885
N7165 X376.596 Y-18.937
N7170 X377.302 Y-17.964
N7175 X377.973 Y-16.967
N7180 X378.61 Y-15.947
N7185 X379.21 Y-14.906
N7190 X379.773 Y-13.844
N7195 X380.297 Y-12.762
N7200 X380.783 Y-11.662
N7205 X381.23 Y-10.546
N7210 X381.638 Y-9.416
N7215 X382.006 Y-8.271
N7220 X382.334 Y-7.115
N7225 X382.622 Y-5.948
N7230 X382.868 Y-4.771
N7235 X383.072 Y-3.586
N7240 X383.234 Y-2.395
N7245 X383.353 Y-1.199
N7250 X383.429 Y0.001
N7255 X383.463 Y1.202
N7260 X383.455 Y2.404
N7265 X383.406 Y3.605
N7270 X383.314 Y4.804
N7275 X383.2 Y5.817
N7280 X383.178 Y5.965
N7285 X383.147 Y6.112
N7290 X383.107 Y6.256
N7295 X382.994 Y6.616
N7300 X382.845 Y7.193
N7305 X382.307 Y9.293
N7310 X382.22 Y9.593
N7315 X382.042 Y10.193
N7320 X381.94 Y10.493
N7325 X381.394 Y11.993
N7330 X381.284 Y12.292
N7335 X381.061 Y12.892
N7340 X380.941 Y13.192
N7345 X379.694 Y15.79
N7350 X379.646 Y15.892
N7355 X379.376 Y16.492
N7360 X379.249 Y16.792
N7365 X379.149 Y17.092
N7370 X379.101 Y17.234
N7375 X378.627 Y18.339
N7380 X378.085 Y19.412
N7385 X377.484 Y20.453
N7390 X376.833 Y21.463
N7395 X376.136 Y22.443
N7400 X375.398 Y23.391
N7405 X374.621 Y24.309
N7410 X374.319 Y24.639
N7415 X374.059 Y24.881
N7420 X373.763 Y25.077
N7425 X373.439 Y25.223
N7430 X373.096 Y25.314
N7435 X372.796 Y25.39
N7440 X372.47 Y25.491
N7445 X372.196 Y25.603
N7450 X371.596 Y25.913
N7455 X371.293 Y26.091
N7460 X370.996 Y26.294
N7465 X368.597 Y28.014
N7470 X368.332 Y28.191
N7475 X367.853 Y28.491
N7480 X367.697 Y28.584
N7485 X366.197 Y29.45
N7490 X365.897 Y29.622
N7495 X365.297 Y29.955
N7500 X365.23 Y29.99
N7505 X362.298 Y31.319
N7510 X361.966 Y31.49
N7515 X361.698 Y31.632
N7520 X361.406 Y31.79
N7525 X361.098 Y32.004
N7530 X360.988 Y32.09
N7535 X360.404 Y32.529
N7540 X359.581 Y33.049
N7545 X358.583 Y33.572
N7550 X357.477 Y34.044
N7555 X356.34 Y34.434
N7560 X355.181 Y34.752
N7565 X354.006 Y35.006
N7570 X353.889 Y35.026
N7575 X353.515 Y35.058
N7580 X353.142 Y35.035
N7585 X352.775 Y34.955
N7590 X352.425 Y34.821
N7595 X352.1 Y34.636
N7600 X351.882 Y34.49
N7605 X351.5 Y34.275
N7610 X351.332 Y34.19
N7615 X350.6 Y33.895
N7620 X350. Y33.75
N7625 X349.7 Y33.697
N7630 X349.1 Y33.635
N7635 X348.8 Y33.609
N7640 X346.401 Y33.426
N7645 X346.101 Y33.395
N7650 X345.501 Y33.318
N7655 X345.287 Y33.29
N7660 X343.401 Y32.957
N7665 X342.801 Y32.849
N7670 X342.501 Y32.794
N7675 X342.126 Y32.69
N7680 X339.202 Y31.872
N7685 X338.891 Y31.79
N7690 X338.302 Y31.695
N7695 X338.002 Y31.66
N7700 X337.402 Y31.649
N7705 X337.375 Y31.652
N7710 X337.013 Y31.665
N7715 X336.274 Y31.632
N7720 X335.423 Y31.526
N7725 X334.448 Y31.323
N7730 X333.316 Y30.992
N7735 X332.194 Y30.562
N7740 X331.103 Y30.056
N7745 X330.544 Y29.755
N7750 X330.211 Y29.534
N7755 X329.922 Y29.258
N7760 X329.687 Y28.935
N7765 X329.514 Y28.576
N7770 X329.407 Y28.191
N7775 X329.257 Y27.591
N7780 X329.146 Y27.291
N7785 X329.021 Y26.991
N7790 X329.004 Y26.953
N7795 X328.859 Y26.691
N7800 X328.491 Y26.091
N7805 X328.404 Y25.964
N7810 X328.26 Y25.791
N7815 X327.804 Y25.3
N7820 X327.699 Y25.191
N7825 X325.705 Y23.24
N7830 X325.561 Y23.091
N7835 X325.008 Y22.491
N7840 X324.755 Y22.191
N7845 X323.497 Y20.691
N7850 X323.305 Y20.441
N7855 X322.827 Y19.792
N7860 X321.505 Y17.861
N7865 X321.179 Y17.392
N7870 X320.964 Y17.092
N7875 X320.905 Y17.018
N7880 X320.306 Y16.401
N7885 X320.185 Y16.284
N7890 X320.064 Y16.192
N7895 X320.006 Y16.151
N7900 X319.395 Y15.673
N7905 X318.867 Y15.186
N7910 X318.312 Y14.586
N7915 X317.717 Y13.829
N7920 X317.089 Y12.882
N7925 X316.507 Y11.83
N7930 X316.002 Y10.739
N7935 X315.897 Y10.468
N7940 X315.78 Y10.066
N7945 X315.737 Y9.65
N7950 X315.769 Y9.233
N7955 X315.875 Y8.829
N7960 X316.052 Y8.45
N7965 X316.084 Y8.393
N7970 X316.236 Y8.093
N7975 X316.378 Y7.793
N7980 X316.57 Y7.193
N7985 X316.644 Y6.893
N7990 X316.744 Y6.293
N7995 X316.755 Y5.993
N8000 X316.762 Y5.693
N8005 X316.759 Y5.393
N8010 X316.705 Y4.793
N8015 X316.677 Y4.493
N8020 X316.441 Y2.094
N8025 X316.417 Y1.794
N8030 X316.397 Y0.894
N8035 Y-0.906
N8040 X316.418 Y-1.806
N8045 X316.442 Y-2.106
N8050 X316.679 Y-4.506
N8055 X316.707 Y-4.806
N8060 X316.759 Y-5.405
N8065 X316.762 Y-5.705
N8070 X316.754 Y-6.005
N8075 X316.742 Y-6.305
N8080 X316.642 Y-6.905
N8085 X316.566 Y-7.205
N8090 X316.494 Y-7.492
N8095 X316.389 Y-8.123
N8100 X316.324 Y-8.884
N8105 X316.32 Y-9.778
N8110 X316.398 Y-10.804
N8115 X316.585 Y-11.992
N8120 X316.865 Y-13.161
N8125 X317.072 Y-13.827
N8130 X317.206 Y-14.164
N8135 X317.391 Y-14.476
N8140 X317.623 Y-14.756
N8145 X317.895 Y-14.997
N8150 X318.201 Y-15.192
N8155 X318.534 Y-15.338
N8160 X318.806 Y-15.432
N8165 X319.106 Y-15.583
N8170 X319.406 Y-15.74
N8175 X319.655 Y-15.904
N8180 X320.079 Y-16.204
N8185 X320.192 Y-16.29
N8190 X320.306 Y-16.401
N8195 X320.905 Y-17.02
N8200 X320.974 Y-17.104
N8205 X321.205 Y-17.43
N8210 X321.505 Y-17.861
N8215 X322.705 Y-19.615
N8220 X322.836 Y-19.804
N8225 X323.305 Y-20.44
N8230 X323.507 Y-20.704
N8235 X324.805 Y-22.25
N8240 X325.019 Y-22.503
N8245 X325.572 Y-23.103
N8250 X325.705 Y-23.24
N8255 X327.711 Y-25.203
N8260 X327.804 Y-25.298
N8265 X328.271 Y-25.803
N8270 X328.404 Y-25.964
N8275 X328.499 Y-26.103
N8280 X328.866 Y-26.703
N8285 X329.004 Y-26.953
N8290 X329.027 Y-27.003
N8295 X329.131 Y-27.225
N8300 X329.444 Y-27.772
N8305 X329.86 Y-28.382
N8310 X330.391 Y-29.04
N8315 X331.082 Y-29.767
N8320 X331.964 Y-30.557
N8325 X332.921 Y-31.285
N8330 X333.623 Y-31.747
N8335 X333.953 Y-31.928
N8340 X334.307 Y-32.053
N8345 X334.677 Y-32.12
N8350 X335.053 Y-32.127
N8355 X335.425 Y-32.073
N8360 X335.784 Y-31.96
N8365 X335.903 Y-31.912
N8370 X336.203 Y-31.83
N8375 X336.503 Y-31.755
N8380 X336.802 Y-31.712
N8385 X337.102 Y-31.675
N8390 X337.402 Y-31.649
N8395 X338.002 Y-31.66
N8400 X338.302 Y-31.695
N8405 X338.602 Y-31.743
N8410 X338.902 Y-31.793
N8415 X339.202 Y-31.873
N8420 X340.102 Y-32.124
N8425 X342.201 Y-32.711
N8430 X342.501 Y-32.794
N8435 X342.801 Y-32.852
N8440 X345.201 Y-33.275
N8445 X345.376 Y-33.302
N8450 X346.101 Y-33.395
N8455 X346.401 Y-33.426
N8460 X348.8 Y-33.609
N8465 X349.1 Y-33.635
N8470 X349.7 Y-33.697
N8475 X350. Y-33.746
N8480 X350.6 Y-33.895
N8485 X351.362 Y-34.202
N8490 X351.9 Y-34.419
N8495 X352.554 Y-34.623
N8500 X353.35 Y-34.803
N8505 X354.295 Y-34.939
N8510 X355.405 Y-35.008
N8515 X356.607 Y-34.985
N8520 X357.804 Y-34.876
N8525 X357.948 Y-34.854
N8530 X358.354 Y-34.753
N8535 X358.736 Y-34.582
N8540 X359.081 Y-34.345
N8545 X359.378 Y-34.05
N8550 X359.617 Y-33.707
N8555 X359.849 Y-33.302
N8560 X359.871 Y-33.266
N8565 X359.898 Y-33.23
N8570 X360.498 Y-32.52
N8575 X360.62 Y-32.402
N8580 X360.798 Y-32.248
N8585 X360.973 Y-32.102
N8590 X361.098 Y-32.004
N8595 X361.398 Y-31.796
N8600 X361.698 Y-31.632
N8605 X361.998 Y-31.474
N8610 X362.298 Y-31.319
N8615 X365.203 Y-30.003
N8620 X365.297 Y-29.952
N8625 X365.897 Y-29.622
N8630 X366.279 Y-29.403
N8635 X367.697 Y-28.584
N8640 X367.834 Y-28.503
N8645 X368.315 Y-28.203
N8650 X368.597 Y-28.014
N8655 X370.996 Y-26.294
N8660 X371.296 Y-26.089
N8665 X371.596 Y-25.913
N8670 X372.196 Y-25.603
N8675 X372.437 Y-25.503
N8680 X372.796 Y-25.391
N8685 X373.096 Y-25.314
N8690 X373.462 Y-25.221
N8695 X374.065 Y-25.014
N8700 X374.734 Y-24.722
N8705 X375.492 Y-24.317
N8710 X376.35 Y-23.765
N8715 X377.306 Y-23.035
N8720 X378.2 Y-22.232
N8725 X378.458 Y-21.967
N8730 X378.706 Y-21.666
N8735 X378.899 Y-21.328
N8740 X379.033 Y-20.962
N8745 X379.103 Y-20.578
N8750 X379.108 Y-20.189
N8755 X379.047 Y-19.804
N8760 X378.963 Y-19.204
N8765 X378.938 Y-18.904
N8770 X378.939 Y-18.304
N8775 X378.975 Y-18.004
N8780 X379.018 Y-17.704
N8785 X379.069 Y-17.404
N8790 X379.145 Y-17.104
N8795 X379.245 Y-16.804
N8800 X379.371 Y-16.504
N8805 X379.64 Y-15.904
N8810 X380.071 Y-15.004
N8815 X380.935 Y-13.205
N8820 X381.055 Y-12.905
N8825 X381.279 Y-12.305
N8830 X381.39 Y-12.005
N8835 X381.936 Y-10.505
N8840 X382.037 Y-10.205
N8845 X382.217 Y-9.605
N8850 X382.304 Y-9.305
N8855 X382.919 Y-6.905
N8860 X382.994 Y-6.618
N8865 X383.185 Y-6.005
N8870 X383.294 Y-5.719
N8875 X383.594 Y-5.098
N8880 X383.796 Y-4.806
N8885 X384.008 Y-4.506
N8890 X384.194 Y-4.248
N8895 X384.232 Y-4.206
N8900 X384.376 Y-4.061
N8905 X384.641 Y-3.766
N8910 X384.945 Y-3.367
N8915 X385.266 Y-2.87
N8920 X385.585 Y-2.273
N8925 X385.908 Y-1.533
N8930 X386.216 Y-0.634
N8935 X386.491 Y0.441
N8940 X386.553 Y0.798
N8945 X386.586 Y1.195
N8950 X386.552 Y1.592
N8955 X386.45 Y1.977
N8960 X386.285 Y2.34
N8965 X386.06 Y2.669
N8970 X385.782 Y2.955
N8975 X385.46 Y3.189
N8980 G3 X383.998 Y2.537 I-0.487 J-0.873
N8985 G1 X382.716 Y-3.11
N8990 G3 X384.376 Y-4.061 I0.975 J-0.221
N8995 G1 X384.494 Y-3.943
N9000 X384.863 Y-3.606
N9005 X385.093 Y-3.414
N9010 X385.268 Y-3.306
N9015 X385.764 Y-3.006
N9020 X385.993 Y-2.877
N9025 X386.293 Y-2.743
N9030 X386.455 Y-2.671
N9035 X386.721 Y-2.525
N9040 X386.985 Y-2.352
N9045 X387.251 Y-2.145
N9050 X387.515 Y-1.904
N9055 X387.75 Y-1.65
N9060 X387.97 Y-1.372
N9065 X388.167 Y-1.077
N9070 X388.338 Y-0.77
N9075 X388.488 Y-0.44
N9080 X388.607 Y-0.112
N9085 X388.704 Y0.245
N9090 X388.738 Y0.612
N9095 X388.7 Y0.978
N9100 X388.593 Y1.331
N9105 X388.42 Y1.656
N9110 X388.189 Y1.942
N9115 X387.906 Y2.179
N9120 X387.584 Y2.358
N9125 X387.233 Y2.471
N9130 G3 X386.102 Y1.797 I-0.181 J-0.984
N9135 G1 X385.033 Y-1.483
N9140 G3 X385.53 Y-2.684 I0.951 J-0.31
N9145 X386.293 Y-2.743 I0.453 J0.891
N9150 G1 X386.593 Y-2.634
N9155 X386.893 Y-2.553
N9160 X387.193 Y-2.48
N9165 X387.493 Y-2.414
N9170 X387.958 Y-2.369
N9175 X388.166 Y-2.338
N9180 X388.353 Y-2.295
N9185 X388.55 Y-2.232
N9190 X388.765 Y-2.145
N9195 X388.968 Y-2.042
N9200 X389.166 Y-1.921
N9205 X389.368 Y-1.774
N9210 X389.548 Y-1.62
N9215 X389.729 Y-1.438
N9220 X389.895 Y-1.241
N9225 X390.04 Y-1.038
N9230 X390.181 Y-0.802
N9235 X390.298 Y-0.568
N9240 X390.398 Y-0.316
N9245 X390.481 Y-0.049
N9250 X390.539 Y0.212
N9255 X390.579 Y0.501
N9260 X390.562 Y0.869
N9265 X390.469 Y1.225
N9270 X390.304 Y1.555
N9275 X390.074 Y1.843
N9280 X389.79 Y2.077
N9285 X389.463 Y2.247
N9290 X389.107 Y2.345
N9295 X388.74 Y2.367
N9300 G3 X388.058 Y2.02 I0.079 J-0.997
N9305 X387.87 Y1.689 I0.761 J-0.649
N9310 G1 X386.948 Y-1.052
N9315 G3 X387.958 Y-2.369 I0.948 J-0.319
N9320 G1 X388.093 Y-2.356
N9325 X388.393 Y-2.352
N9330 X388.993 Y-2.378
N9335 X389.344 Y-2.406
N9340 X389.481 Y-2.417
N9345 X389.636 Y-2.422
N9350 X389.796 Y-2.414
N9355 X389.968 Y-2.392
N9360 X390.155 Y-2.352
N9365 X390.348 Y-2.295
N9370 X390.548 Y-2.218
N9375 X390.755 Y-2.117
N9380 X390.966 Y-1.994
N9385 X391.166 Y-1.854
N9390 X391.352 Y-1.701
N9395 X391.541 Y-1.517
N9400 X391.706 Y-1.328
N9405 X391.859 Y-1.122
N9410 X392.003 Y-0.893
N9415 X392.12 Y-0.665
N9420 X392.237 Y-0.308
N9425 X392.293 Y0.064
N9430 X392.287 Y0.44
N9435 X392.22 Y0.811
N9440 X392.092 Y1.165
N9445 X391.908 Y1.493
N9450 G3 X391.21 Y1.603 I-0.404 J-0.294
N9455 X391.081 Y1.465 I0.294 J-0.404
N9460 G1 X389.116 Y-1.654
N9465 G3 X389.043 Y-1.862 I0.423 J-0.266
N9470 X389.481 Y-2.417 I0.497 J-0.058
N9475 G1 X389.893 Y-2.451
N9480 X390.043 Y-2.458
N9485 X390.192 Y-2.45
N9490 X390.492 Y-2.396
N9495 X390.642 Y-2.363
N9500 X390.792 Y-2.308
N9505 X391.092 Y-2.18
N9510 X391.221 Y-2.106
N9515 X391.392 Y-1.986
N9520 X391.507 Y-1.905
N9525 X391.622 Y-1.806
N9530 X391.692 Y-1.731
N9535 X391.898 Y-1.506
N9540 X391.992 Y-1.369
N9545 X392.088 Y-1.206
N9550 X392.174 Y-1.056
N9555 X392.235 Y-0.906
N9560 X392.335 Y-0.606
N9565 X392.369 Y-0.456
N9570 X392.386 Y-0.306
N9575 X392.412 Y-0.006
N9580 X392.387 Y0.294
N9585 X392.338 Y0.594
N9590 X392.292 Y0.735
N9595 X392.239 Y0.894
N9600 X392.18 Y1.044
N9605 X392.096 Y1.194
N9610 X391.992 Y1.369
N9615 X391.908 Y1.494
N9620 X391.692 Y1.731
N9625 X391.634 Y1.794
N9630 X391.513 Y1.901
N9635 X391.392 Y1.986
N9640 X391.239 Y2.094
N9645 X391.092 Y2.18
N9650 X390.792 Y2.308
N9655 X390.648 Y2.361
N9660 X390.492 Y2.396
N9665 X390.192 Y2.45
N9670 X390.043 Y2.458
N9675 X389.893 Y2.451
N9680 X389.197 Y2.394
N9685 X388.993 Y2.378
N9690 X388.74 Y2.367
N9695 G3 X388.058 Y2.02 I0.079 J-0.997
N9700 G1 X387.979 Y1.928 Z444.407
N9705 X387.902 Y1.838 Z444.429
N9710 X387.827 Y1.75 Z444.465
N9715 X387.756 Y1.666 Z444.515
N9720 X387.689 Y1.588 Z444.577
N9725 X387.627 Y1.515 Z444.651
N9730 X387.572 Y1.45 Z444.737
N9735 X387.523 Y1.394 Z444.832
N9740 X387.483 Y1.346 Z444.935
N9745 X387.451 Y1.309 Z445.045
N9750 X387.427 Y1.281 Z445.161
N9755 X387.413 Y1.265 Z445.279
N9760 X387.408 Y1.259 Z445.4
N9765 G0 Z459.4
N9770 X350.287 Y-32.794
N9775 Z446.4
N9780 G1 Z445.4 F1398.
N9785 X350.291 Y-32.8 Z445.279
N9790 X350.302 Y-32.819 Z445.161
N9795 X350.321 Y-32.85 Z445.045
N9800 X350.346 Y-32.892 Z444.935
N9805 X350.379 Y-32.946 Z444.832
N9810 X350.417 Y-33.009 Z444.737
N9815 X350.461 Y-33.083 Z444.651
N9820 X350.51 Y-33.164 Z444.577
N9825 X350.563 Y-33.253 Z444.515
N9830 X350.62 Y-33.347 Z444.465
N9835 X350.68 Y-33.446 Z444.429
N9840 X350.741 Y-33.547 Z444.407
N9845 X350.803 Y-33.651 Z444.4
N9850 G3 X351.362 Y-34.202 I1.356 J0.816
N9855 G1 X351.5 Y-34.276
N9860 X351.901 Y-34.502
N9865 X352.1 Y-34.636
N9870 X352.299 Y-34.802
N9875 X352.869 Y-35.288
N9880 X352.89 Y-35.309
N9885 X353.209 Y-35.702
N9890 X353.383 Y-35.896
N9895 X353.627 Y-36.127
N9900 X353.902 Y-36.349
N9905 X354.246 Y-36.584
N9910 X354.659 Y-36.819
N9915 X355.078 Y-37.015
N9920 X355.53 Y-37.184
N9925 X355.954 Y-37.304
N9930 X356.407 Y-37.395
N9935 X356.829 Y-37.444
N9940 X356.981 Y-37.449
N9945 X357.342 Y-37.428
N9950 X357.692 Y-37.338
N9955 X358.019 Y-37.183
N9960 X358.31 Y-36.969
N9965 X358.555 Y-36.703
N9970 X358.746 Y-36.396
N9975 X358.874 Y-36.058
N9980 X358.936 Y-35.702
N9985 X358.989 Y-35.402
N9990 G3 X358.039 Y-34.261 I-0.99 J0.141
N9995 G1 X354.047 Y-34.1
N10000 G3 X353.016 Y-34.961 I-0.04 J-0.999
N10005 X353.209 Y-35.702 I0.99 J-0.138
N10010 G1 X353.452 Y-36.002
N10015 X353.599 Y-36.22
N10020 X353.651 Y-36.302
N10025 X353.814 Y-36.602
N10030 X353.899 Y-36.764
N10035 X353.955 Y-36.902
N10040 X354.132 Y-37.367
N10045 X354.212 Y-37.55
N10050 X354.315 Y-37.74
N10055 X354.447 Y-37.945
N10060 X354.598 Y-38.142
N10065 X354.769 Y-38.331
N10070 X354.966 Y-38.517
N10075 X355.166 Y-38.677
N10080 X355.397 Y-38.833
N10085 X355.634 Y-38.967
N10090 X355.879 Y-39.081
N10095 X356.15 Y-39.181
N10100 X356.412 Y-39.254
N10105 X356.7 Y-39.311
N10110 X356.985 Y-39.343
N10115 X357.268 Y-39.352
N10120 X357.281
N10125 X357.62 Y-39.302
N10130 X357.944 Y-39.189
N10135 X358.24 Y-39.017
N10140 X358.497 Y-38.791
N10145 X358.707 Y-38.52
N10150 X358.861 Y-38.214
N10155 X358.954 Y-37.884
N10160 X358.982 Y-37.542
N10165 X358.944 Y-37.202
N10170 X358.917 Y-36.902
N10175 G3 X358.539 Y-36.236 I-0.992 J-0.124
N10180 X357.919 Y-36.025 I-0.614 J-0.789
N10185 G1 X355.072 Y-36.044
N10190 G3 X354.132 Y-37.367 I0.007 J-1.
N10195 G1 X354.199 Y-37.543
N10200 X354.261 Y-37.802
N10205 X354.327 Y-38.102
N10210 X354.384 Y-38.402
N10215 X354.407 Y-38.702
N10220 X354.43 Y-38.883
N10225 X354.461 Y-39.036
N10230 X354.511 Y-39.204
N10235 X354.577 Y-39.376
N10240 X354.663 Y-39.555
N10245 X354.772 Y-39.743
N10250 X354.902 Y-39.931
N10255 X355.051 Y-40.112
N10260 X355.21 Y-40.277
N10265 X355.399 Y-40.444
N10270 X355.592 Y-40.588
N10275 X355.804 Y-40.722
N10280 X356.033 Y-40.841
N10285 X356.26 Y-40.938
N10290 X356.517 Y-41.023
N10295 X356.769 Y-41.085
N10300 X357.03 Y-41.127
N10305 X357.304 Y-41.149
N10310 X357.565
N10315 X357.93 Y-41.085
N10320 X358.277 Y-40.954
N10325 X358.593 Y-40.761
N10330 X358.868 Y-40.513
N10335 X359.092 Y-40.218
N10340 X359.258 Y-39.886
N10345 X359.358 Y-39.53
N10350 X359.391 Y-39.161
N10355 Y-39.151
N10360 X359.373 Y-39.002
N10365 X359.298 Y-38.688
N10370 X359.146 Y-38.102
N10375 X359.07 Y-37.802
N10380 X358.944 Y-37.202
N10385 G3 X358.491 Y-36.585 I-0.971 J-0.239
N10390 X357.544 Y-36.537 I-0.518 J-0.856
N10395 G1 X354.976 Y-37.758
N10400 G3 X354.671 Y-37.983 I0.43 J-0.903
N10405 X354.407 Y-38.702 I0.735 J-0.678
N10410 G1 X354.429 Y-39.002
N10415 X354.455 Y-39.301
N10420 X354.499 Y-39.633
N10425 X354.54 Y-39.901
N10430 X354.638 Y-40.201
N10435 X354.766 Y-40.501
N10440 X354.799 Y-40.556
N10445 X354.957 Y-40.801
N10450 X355.021 Y-40.888
N10455 X355.099 Y-40.976
N10460 X355.224 Y-41.101
N10465 X355.399 Y-41.265
N10470 X355.6 Y-41.401
N10475 X355.699 Y-41.465
N10480 X355.849 Y-41.552
N10485 X355.999 Y-41.612
N10490 X356.236 Y-41.701
N10495 X356.299 Y-41.721
N10500 X356.599 Y-41.774
N10505 X356.899 Y-41.804
N10510 X357.199 Y-41.785
N10515 X357.349 Y-41.771
N10520 X357.499 Y-41.736
N10525 X357.799 Y-41.648
N10530 X357.949 Y-41.586
N10535 X358.098 Y-41.505
N10540 X358.288 Y-41.401
N10545 X358.398 Y-41.322
N10550 X358.657 Y-41.101
N10555 X358.698 Y-41.062
N10560 X358.912 Y-40.801
N10565 X358.998 Y-40.686
N10570 X359.058 Y-40.594
N10575 X359.105 Y-40.501
N10580 X359.244 Y-40.201
N10585 X359.298 Y-40.031
N10590 X359.327 Y-39.901
N10595 X359.386 Y-39.601
N10600 X359.392 Y-39.301
N10605 X359.391 Y-39.161
N10610 G3 X359.325 Y-39.099 I-0.094 J-0.035
N10615 G1 X359.209 Y-39.066 Z444.407
N10620 X359.094 Y-39.034 Z444.429
N10625 X358.984 Y-39.003 Z444.465
N10630 X358.878 Y-38.973 Z444.515
N10635 X358.778 Y-38.945 Z444.577
N10640 X358.687 Y-38.919 Z444.651
N10645 X358.604 Y-38.896 Z444.737
N10650 X358.533 Y-38.876 Z444.832
N10655 X358.473 Y-38.859 Z444.935
N10660 X358.425 Y-38.845 Z445.045
N10665 X358.39 Y-38.835 Z445.161
N10670 X358.369 Y-38.83 Z445.279
N10675 X358.362 Y-38.828 Z445.4
N10680 G0 Z459.4
N10685 X317.757 Y-5.893
N10690 Z446.4
N10695 G1 Z445.4 F1398.
N10700 X317.752 Y-5.898 Z445.279
N10705 X317.735 Y-5.913 Z445.161
N10710 X317.708 Y-5.937 Z445.045
N10715 X317.671 Y-5.969 Z444.935
N10720 X317.624 Y-6.011 Z444.832
N10725 X317.569 Y-6.06 Z444.737
N10730 X317.505 Y-6.117 Z444.651
N10735 X317.433 Y-6.179 Z444.577
N10740 X317.356 Y-6.248 Z444.515
N10745 X317.273 Y-6.321 Z444.465
N10750 X317.187 Y-6.397 Z444.429
N10755 X317.098 Y-6.476 Z444.407
N10760 X317.008 Y-6.555 Z444.4
N10765 G3 X316.566 Y-7.205 I1.048 J-1.186
N10770 G1 X316.374 Y-7.805
N10775 X316.229 Y-8.105
N10780 X316.077 Y-8.405
N10785 X315.903 Y-8.705
N10790 X315.695 Y-9.005
N10795 X315.506 Y-9.263
N10800 X315.472 Y-9.305
N10805 X315.31 Y-9.5
N10810 X315.142 Y-9.739
N10815 X314.966 Y-10.037
N10820 X314.789 Y-10.402
N10825 X314.631 Y-10.805
N10830 X314.496 Y-11.258
N10835 X314.394 Y-11.731
N10840 X314.335 Y-12.181
N10845 X314.312 Y-12.637
N10850 X314.325 Y-13.081
N10855 X314.372 Y-13.509
N10860 X314.468 Y-13.838
N10865 X314.624 Y-14.144
N10870 X314.833 Y-14.417
N10875 X315.089 Y-14.645
N10880 X315.383 Y-14.823
N10885 X315.704 Y-14.942
N10890 X316.042 Y-15.001
N10895 X316.386 Y-14.996
N10900 G3 X317.044 Y-14.605 I-0.142 J0.99
N10905 X317.243 Y-13.983 I-0.801 J0.599
N10910 G1 X317.154 Y-10.013
N10915 G3 X315.472 Y-9.305 I-1. J-0.022
N10920 G1 X315.171 Y-9.605
N10925 X314.866 Y-9.905
N10930 X314.737 Y-10.024
N10935 X314.607 Y-10.125
N10940 X314.307 Y-10.325
N10945 X314.036 Y-10.505
N10950 X314.007 Y-10.519
N10955 X313.875 Y-10.591
N10960 X313.708 Y-10.71
N10965 X313.53 Y-10.861
N10970 X313.352 Y-11.038
N10975 X313.181 Y-11.239
N10980 X313.032 Y-11.445
N10985 X312.888 Y-11.682
N10990 X312.769 Y-11.917
N10995 X312.665 Y-12.173
N11000 X312.581 Y-12.438
N11005 X312.521 Y-12.702
N11010 X312.479 Y-12.99
N11015 X312.461 Y-13.264
N11020 X312.466 Y-13.557
N11025 X312.493 Y-13.842
N11030 X312.544 Y-14.124
N11035 X312.554 Y-14.162
N11040 X312.68 Y-14.495
N11045 X312.873 Y-14.794
N11050 X313.124 Y-15.045
N11055 X313.423 Y-15.239
N11060 X313.755 Y-15.365
N11065 X314.106 Y-15.42
N11070 X314.461 Y-15.399
N11075 X314.804 Y-15.304
N11080 G3 X315.37 Y-14.788 I-0.34 J0.94
N11085 X315.464 Y-14.345 I-0.906 J0.424
N11090 G1 X315.409 Y-11.416
N11095 G3 X314.007 Y-10.519 I-1. J-0.019
N11100 G1 X313.407 Y-10.808
N11105 X313.107 Y-10.927
N11110 X312.521 Y-11.105
N11115 X312.38 Y-11.155
N11120 X312.229 Y-11.227
N11125 X312.068 Y-11.319
N11130 X311.905 Y-11.431
N11135 X311.742 Y-11.562
N11140 X311.578 Y-11.719
N11145 X311.417 Y-11.899
N11150 X311.27 Y-12.093
N11155 X311.141 Y-12.295
N11160 X311.018 Y-12.527
N11165 X310.918 Y-12.757
N11170 X310.837 Y-12.997
N11175 X310.771 Y-13.258
N11180 X310.729 Y-13.508
N11185 X310.706 Y-13.775
N11190 X310.705 Y-14.046
N11195 X310.724 Y-14.303
N11200 X310.767 Y-14.58
N11205 X310.887 Y-14.931
N11210 X311.072 Y-15.254
N11215 X311.314 Y-15.536
N11220 X311.605 Y-15.767
N11225 X311.934 Y-15.94
N11230 X312.289 Y-16.047
N11235 X312.659 Y-16.085
N11240 X313.029 Y-16.054
N11245 X313.107 Y-16.039
N11250 X313.407 Y-15.928
N11255 X313.467 Y-15.904
N11260 X313.707 Y-15.798
N11265 X314.307 Y-15.507
N11270 X314.607 Y-15.382
N11275 X314.804 Y-15.304
N11280 G3 X315.336 Y-14.754 I-0.398 J0.917
N11285 X315.224 Y-13.812 I-0.93 J0.367
N11290 G1 X313.595 Y-11.496
N11295 G3 X313.28 Y-11.207 I-0.818 J-0.575
N11300 X312.521 Y-11.105 I-0.502 J-0.865
N11305 G1 X312.507 Y-11.109
N11310 X312.207 Y-11.183
N11315 X311.907 Y-11.262
N11320 X311.607 Y-11.36
N11325 X311.48 Y-11.405
N11330 X311.307 Y-11.494
N11335 X311.007 Y-11.675
N11340 X310.967 Y-11.705
N11345 X310.707 Y-11.941
N11350 X310.641 Y-12.005
N11355 X310.407 Y-12.315
N11360 X310.312 Y-12.46
N11365 X310.242 Y-12.605
N11370 X310.118 Y-12.905
N11375 X310.107 Y-12.935
N11380 X310.048 Y-13.205
N11385 X310.003 Y-13.504
N11390 X310.008 Y-13.804
N11395 X310.014 Y-13.954
N11400 X310.04 Y-14.104
N11405 X310.114 Y-14.404
N11410 X310.165 Y-14.554
N11415 X310.236 Y-14.704
N11420 X310.394 Y-15.004
N11425 X310.407 Y-15.023
N11430 X310.628 Y-15.304
N11435 X310.707 Y-15.393
N11440 X310.955 Y-15.604
N11445 X311.007 Y-15.647
N11450 X311.157 Y-15.753
N11455 X311.307 Y-15.831
N11460 X311.449 Y-15.904
N11465 X311.607 Y-15.973
N11470 X311.907 Y-16.057
N11475 X312.057 Y-16.093
N11480 X312.207 Y-16.109
N11485 X312.507 Y-16.123
N11490 X312.657 Y-16.117
N11495 X312.807 Y-16.094
N11500 X313.029 Y-16.054
N11505 G3 X313.657 Y-15.616 I-0.214 J0.977
N11510 G1 X313.722 Y-15.515 Z444.407
N11515 X313.786 Y-15.415 Z444.429
N11520 X313.849 Y-15.318 Z444.465
N11525 X313.908 Y-15.225 Z444.515
N11530 X313.964 Y-15.138 Z444.577
N11535 X314.015 Y-15.058 Z444.651
N11540 X314.061 Y-14.986 Z444.737
N11545 X314.101 Y-14.923 Z444.832
N11550 X314.135 Y-14.871 Z444.935
N11555 X314.162 Y-14.829 Z445.045
N11560 X314.181 Y-14.799 Z445.161
N11565 X314.193 Y-14.78 Z445.279
N11570 X314.197 Y-14.774 Z445.4
N11575 G0 Z459.4
N11580 X338.919 Y30.783
N11585 Z446.4
N11590 G1 Z445.4 F1398.
N11595 X338.913 Y30.787 Z445.279
N11600 X338.895 Y30.8 Z445.161
N11605 X338.866 Y30.821 Z445.045
N11610 X338.826 Y30.85 Z444.935
N11615 X338.775 Y30.886 Z444.832
N11620 X338.715 Y30.93 Z444.737
N11625 X338.645 Y30.98 Z444.651
N11630 X338.568 Y31.035 Z444.577
N11635 X338.484 Y31.095 Z444.515
N11640 X338.395 Y31.16 Z444.465
N11645 X338.301 Y31.227 Z444.429
N11650 X338.205 Y31.296 Z444.407
N11655 X338.107 Y31.366 Z444.4
N11660 G3 X337.375 Y31.652 I-0.923 J-1.286
N11665 G1 X337.102 Y31.675
N11670 X336.802 Y31.712
N11675 X336.503 Y31.754
N11680 X336.203 Y31.828
N11685 X335.903 Y31.912
N11690 X335.603 Y32.033
N11695 X335.303 Y32.166
N11700 X335.003 Y32.299
N11705 X334.921 Y32.349
N11710 X334.771 Y32.431
N11715 X334.476 Y32.564
N11720 X334.154 Y32.678
N11725 X333.758 Y32.784
N11730 X333.307 Y32.866
N11735 X332.802 Y32.917
N11740 X332.291 Y32.927
N11745 X331.8 Y32.897
N11750 X331.322 Y32.829
N11755 X330.874 Y32.728
N11760 X330.52 Y32.582
N11765 X330.198 Y32.374
N11770 X329.919 Y32.112
N11775 X329.692 Y31.803
N11780 X329.523 Y31.459
N11785 X329.42 Y31.09
N11790 X329.385 Y30.708
N11795 X329.419 Y30.327
N11800 G3 X330.635 Y29.568 I0.977 J0.213
N11805 G1 X334.607 Y30.545
N11810 G3 X335.348 Y31.714 I-0.239 J0.971
N11815 X334.921 Y32.349 I-0.98 J-0.197
N11820 G1 X334.703 Y32.484
N11825 X334.403 Y32.672
N11830 X334.379 Y32.69
N11835 X334.103 Y32.923
N11840 X333.703 Y33.29
N11845 X333.503 Y33.481
N11850 X333.478 Y33.514
N11855 X333.382 Y33.629
N11860 X333.233 Y33.774
N11865 X333.052 Y33.926
N11870 X332.857 Y34.064
N11875 X332.652 Y34.185
N11880 X332.417 Y34.3
N11885 X332.185 Y34.391
N11890 X331.929 Y34.469
N11895 X331.665 Y34.526
N11900 X331.403 Y34.562
N11905 X331.115 Y34.577
N11910 X330.842 Y34.569
N11915 X330.55 Y34.538
N11920 X330.265 Y34.484
N11925 X329.986 Y34.407
N11930 X329.922 Y34.384
N11935 X329.606 Y34.234
N11940 X329.324 Y34.027
N11945 X329.086 Y33.771
N11950 X328.901 Y33.475
N11955 X328.775 Y33.149
N11960 X328.712 Y32.806
N11965 X328.715 Y32.456
N11970 X328.784 Y32.114
N11975 X328.916 Y31.79
N11980 G3 X329.52 Y31.32 I0.869 J0.494
N11985 X330.006 Y31.309 I0.265 J0.964
N11990 G1 X332.883 Y31.962
N11995 G3 X333.647 Y32.768 I-0.221 J0.975
N12000 X333.478 Y33.514 I-0.985 J0.17
N12005 G1 X332.97 Y34.19
N12010 X332.799 Y34.49
N12015 X332.641 Y34.79
N12020 X332.57 Y34.922
N12025 X332.484 Y35.054
N12030 X332.376 Y35.192
N12035 X332.252 Y35.329
N12040 X332.105 Y35.465
N12045 X331.934 Y35.601
N12050 X331.751 Y35.723
N12055 X331.556 Y35.831
N12060 X331.335 Y35.932
N12065 X331.117 Y36.011
N12070 X330.879 Y36.077
N12075 X330.633 Y36.123
N12080 X330.392 Y36.149
N12085 X330.126 Y36.156
N12090 X329.872 Y36.143
N12095 X329.61 Y36.108
N12100 X329.346 Y36.05
N12105 X329.097 Y35.974
N12110 X328.834 Y35.871
N12115 X328.591 Y35.752
N12120 X328.301 Y35.538
N12125 X328.058 Y35.27
N12130 X327.874 Y34.959
N12135 X327.756 Y34.618
N12140 X327.707 Y34.26
N12145 X327.73 Y33.9
N12150 X327.825 Y33.551
N12155 X327.987 Y33.229
N12160 X328.104 Y33.044
N12165 X328.516 Y32.462
N12170 X328.704 Y32.195
N12175 X328.916 Y31.79
N12180 G3 X329.52 Y31.32 I0.869 J0.494
N12185 X330.522 Y31.608 I0.265 J0.964
N12190 G1 X332.459 Y33.72
N12195 G3 X332.65 Y34.025 I-0.737 J0.676
N12200 X332.641 Y34.79 I-0.929 J0.371
N12205 G1 X332.603 Y34.869
N12210 X332.506 Y35.09
N12215 X332.381 Y35.39
N12220 X332.303 Y35.543
N12225 X332.224 Y35.69
N12230 X332.056 Y35.99
N12235 X332.003 Y36.06
N12240 X331.808 Y36.29
N12245 X331.703 Y36.399
N12250 X331.461 Y36.59
N12255 X331.403 Y36.633
N12260 X331.254 Y36.731
N12265 X331.104 Y36.803
N12270 X330.918 Y36.89
N12275 X330.804 Y36.934
N12280 X330.504 Y37.006
N12285 X330.354 Y37.038
N12290 X330.204 Y37.05
N12295 X329.904 Y37.054
N12300 X329.754 Y37.045
N12305 X329.604 Y37.017
N12310 X329.304 Y36.952
N12315 X329.139 Y36.89
N12320 X329.004 Y36.83
N12325 X328.854 Y36.762
N12330 X328.704 Y36.672
N12335 X328.591 Y36.59
N12340 X328.404 Y36.45
N12345 X328.245 Y36.29
N12350 X328.104 Y36.131
N12355 X327.995 Y35.99
N12360 X327.804 Y35.656
N12365 X327.744 Y35.523
N12370 X327.701 Y35.39
N12375 X327.613 Y35.09
N12380 X327.578 Y34.79
N12385 X327.566 Y34.49
N12390 X327.603 Y34.19
N12395 X327.627 Y34.04
N12400 X327.672 Y33.89
N12405 X327.779 Y33.59
N12410 X327.804 Y33.533
N12415 X327.948 Y33.29
N12420 X327.987 Y33.229
N12425 G3 X328.628 Y32.81 I0.825 J0.565
N12430 G1 X328.746 Y32.788 Z444.407
N12435 X328.863 Y32.766 Z444.429
N12440 X328.976 Y32.745 Z444.465
N12445 X329.085 Y32.725 Z444.515
N12450 X329.186 Y32.705 Z444.577
N12455 X329.28 Y32.688 Z444.651
N12460 X329.363 Y32.672 Z444.737
N12465 X329.437 Y32.658 Z444.832
N12470 X329.498 Y32.647 Z444.935
N12475 X329.547 Y32.638 Z445.045
N12480 X329.582 Y32.631 Z445.161
N12485 X329.603 Y32.627 Z445.279
N12490 X329.611 Y32.626 Z445.4
N12495 G0 Z459.4
N12500 X378.844 Y15.347
N12505 Z446.4
N12510 G1 Z445.4 F1398.
N12515 X378.846 Y15.354 Z445.279
N12520 X378.852 Y15.375 Z445.161
N12525 X378.862 Y15.409 Z445.045
N12530 X378.876 Y15.457 Z444.935
N12535 X378.894 Y15.517 Z444.832
N12540 X378.914 Y15.588 Z444.737
N12545 X378.938 Y15.67 Z444.651
N12550 X378.965 Y15.761 Z444.577
N12555 X378.994 Y15.861 Z444.515
N12560 X379.024 Y15.966 Z444.465
N12565 X379.057 Y16.077 Z444.429
N12570 X379.09 Y16.191 Z444.407
N12575 X379.123 Y16.307 Z444.4
N12580 G3 X379.149 Y17.092 I-1.52 J0.442
N12585 G1 X379.072 Y17.392
N12590 X379.02 Y17.692
N12595 X378.977 Y17.992
N12600 X378.939 Y18.292
N12605 X378.938 Y18.892
N12610 X378.961 Y19.192
N12615 X379.045 Y19.792
N12620 X379.053 Y19.826
N12625 X379.088 Y20.01
N12630 X379.13 Y20.388
N12635 X379.142 Y20.818
N12640 X379.116 Y21.32
N12645 X379.041 Y21.891
N12650 X378.898 Y22.554
N12655 X378.681 Y23.275
N12660 X378.416 Y23.952
N12665 X378.288 Y24.214
N12670 X378.098 Y24.533
N12675 X377.856 Y24.815
N12680 X377.57 Y25.051
N12685 X377.247 Y25.236
N12690 X376.899 Y25.363
N12695 X376.533 Y25.429
N12700 X376.162 Y25.432
N12705 X375.795 Y25.372
N12710 X375.63 Y25.331
N12715 G3 X375.031 Y24.854 I0.276 J-0.961
N12720 X375.015 Y23.914 I0.875 J-0.485
N12725 G1 X377.2 Y19.641
N12730 G3 X379.053 Y19.826 I0.89 J0.455
N12735 G1 X379.119 Y20.092
N12740 X379.21 Y20.392
N12745 X379.329 Y20.691
N12750 X379.605 Y21.291
N12755 X379.694 Y21.447
N12760 X379.785 Y21.591
N12765 X379.894 Y21.756
N12770 X379.985 Y21.91
N12775 X380.097 Y22.14
N12780 X380.197 Y22.395
N12785 X380.282 Y22.675
N12790 X380.343 Y22.958
N12795 X380.381 Y23.248
N12800 X380.397 Y23.553
N12805 X380.389 Y23.846
N12810 X380.355 Y24.162
N12815 X380.298 Y24.456
N12820 X380.213 Y24.767
N12825 X380.106 Y25.058
N12830 X379.972 Y25.352
N12835 X379.932 Y25.422
N12840 X379.721 Y25.725
N12845 X379.453 Y25.979
N12850 X379.14 Y26.174
N12855 X378.794 Y26.302
N12860 X378.429 Y26.359
N12865 X378.06 Y26.342
N12870 X377.703 Y26.251
N12875 X377.37 Y26.091
N12880 X377.295 Y26.045
N12885 G3 X376.928 Y24.817 I0.552 J-0.834
N12890 G1 X378.161 Y21.943
N12895 G3 X379.894 Y21.756 I0.919 J0.394
N12900 G1 X379.983 Y21.891
N12905 X379.994 Y21.906
N12910 X380.228 Y22.191
N12915 X380.594 Y22.584
N12920 X380.806 Y22.791
N12925 X380.894 Y22.866
N12930 X381.008 Y22.964
N12935 X381.126 Y23.087
N12940 X381.239 Y23.227
N12945 X381.351 Y23.392
N12950 X381.458 Y23.58
N12955 X381.552 Y23.781
N12960 X381.63 Y23.988
N12965 X381.697 Y24.225
N12970 X381.744 Y24.459
N12975 X381.772 Y24.694
N12980 X381.781 Y24.954
N12985 X381.77 Y25.2
N12990 X381.738 Y25.455
N12995 X381.684 Y25.716
N13000 X381.613 Y25.959
N13005 X381.514 Y26.217
N13010 X381.398 Y26.46
N13015 X381.266 Y26.689
N13020 X381.193 Y26.793
N13025 X380.972 Y27.054
N13030 X380.705 Y27.268
N13035 X380.402 Y27.426
N13040 X380.074 Y27.524
N13045 X379.733 Y27.556
N13050 X379.392 Y27.523
N13055 X379.064 Y27.425
N13060 X378.761 Y27.266
N13065 X378.495 Y27.051
N13070 G3 X378.259 Y26.323 I0.762 J-0.648
N13075 X378.327 Y26.035 I0.997 J0.08
N13080 G1 X379.401 Y23.324
N13085 G3 X380.894 Y22.866 I0.93 J0.368
N13090 G1 X381.494 Y23.307
N13095 X382.094 Y23.73
N13100 X382.243 Y23.846
N13105 X382.318 Y23.911
N13110 X382.394 Y23.993
N13115 X382.637 Y24.291
N13120 X382.694 Y24.381
N13125 X382.804 Y24.591
N13130 X382.879 Y24.741
N13135 X382.933 Y24.891
N13140 X383.014 Y25.191
N13145 X383.042 Y25.341
N13150 X383.052 Y25.491
N13155 X383.063 Y25.791
N13160 X383.023 Y26.091
N13165 X382.994 Y26.264
N13170 X382.96 Y26.391
N13175 X382.843 Y26.691
N13180 X382.781 Y26.83
N13185 X382.694 Y26.969
N13190 X382.679 Y26.991
N13195 X382.464 Y27.291
N13200 X382.394 Y27.363
N13205 X382.154 Y27.591
N13210 X382.094 Y27.639
N13215 X381.794 Y27.829
N13220 X381.686 Y27.891
N13225 X381.494 Y27.968
N13230 X381.194 Y28.07
N13235 X380.894 Y28.117
N13240 X380.594 Y28.141
N13245 X380.294 Y28.116
N13250 X380.144 Y28.098
N13255 X379.994 Y28.06
N13260 X379.694 Y27.966
N13265 X379.527 Y27.891
N13270 X379.245 Y27.73
N13275 X379.095 Y27.622
N13280 X379.059 Y27.591
N13285 X378.795 Y27.344
N13290 X378.495 Y27.051
N13295 G3 X378.259 Y26.323 I0.762 J-0.648
N13300 G1 X378.269 Y26.203 Z444.407
N13305 X378.279 Y26.085 Z444.429
N13310 X378.288 Y25.97 Z444.465
N13315 X378.297 Y25.86 Z444.515
N13320 X378.305 Y25.757 Z444.577
N13325 X378.313 Y25.662 Z444.651
N13330 X378.319 Y25.577 Z444.737
N13335 X378.325 Y25.503 Z444.832
N13340 X378.33 Y25.44 Z444.935
N13345 X378.334 Y25.391 Z445.045
N13350 X378.337 Y25.355 Z445.161
N13355 X378.339 Y25.334 Z445.279
N13360 X378.34 Y25.326 Z445.4
N13365 G0 Z459.4
N13370 X371.378 Y-24.882
N13375 Z446.4
N13380 G1 Z445.4 F1398.
N13385 X371.384 Y-24.885 Z445.279
N13390 X371.405 Y-24.892 Z445.161
N13395 X371.439 Y-24.905 Z445.045
N13400 X371.485 Y-24.922 Z444.935
N13405 X371.544 Y-24.944 Z444.832
N13410 X371.613 Y-24.97 Z444.737
N13415 X371.693 Y-25. Z444.651
N13420 X371.782 Y-25.033 Z444.577
N13425 X371.879 Y-25.069 Z444.515
N13430 X371.982 Y-25.108 Z444.465
N13435 X372.09 Y-25.148 Z444.429
N13440 X372.202 Y-25.189 Z444.407
N13445 X372.315 Y-25.231 Z444.4
N13450 G3 X373.096 Y-25.314 I0.553 J1.483
N13455 G1 X373.709 Y-25.203
N13460 X373.996 Y-25.186
N13465 X374.295 Y-25.175
N13470 X374.595 Y-25.174
N13475 X375.195 Y-25.236
N13480 X375.495 Y-25.297
N13485 X375.731 Y-25.344
N13490 X376.022 Y-25.377
N13495 X376.37 Y-25.389
N13500 X376.776 Y-25.37
N13505 X377.198 Y-25.316
N13510 X377.624 Y-25.226
N13515 X378.042 Y-25.103
N13520 X378.437 Y-24.95
N13525 X378.817 Y-24.767
N13530 X379.175 Y-24.558
N13535 X379.512 Y-24.323
N13540 X379.765 Y-24.073
N13545 X379.967 Y-23.78
N13550 X380.113 Y-23.456
N13555 X380.197 Y-23.11
N13560 X380.216 Y-22.755
N13565 X380.17 Y-22.402
N13570 X380.06 Y-22.064
N13575 X379.891 Y-21.751
N13580 G3 X378.562 Y-21.479 I-0.812 J-0.584
N13585 G1 X375.253 Y-23.48
N13590 G3 X374.896 Y-24.821 I0.517 J-0.856
N13595 X375.495 Y-25.297 I0.875 J0.485
N13600 G1 X375.795 Y-25.372
N13605 X376.095 Y-25.448
N13610 X376.246 Y-25.503
N13615 X376.695 Y-25.698
N13620 X376.901 Y-25.803
N13625 X377.295 Y-26.045
N13630 X377.427 Y-26.117
N13635 X377.626 Y-26.202
N13640 X377.843 Y-26.276
N13645 X378.085 Y-26.337
N13650 X378.321 Y-26.376
N13655 X378.582 Y-26.399
N13660 X378.837 Y-26.4
N13665 X379.096 Y-26.38
N13670 X379.365 Y-26.338
N13675 X379.618 Y-26.277
N13680 X379.887 Y-26.189
N13685 X380.139 Y-26.084
N13690 X380.387 Y-25.955
N13695 X380.632 Y-25.803
N13700 X380.854 Y-25.638
N13705 X381.08 Y-25.441
N13710 X381.106 Y-25.413
N13715 X381.329 Y-25.129
N13720 X381.487 Y-24.804
N13725 X381.572 Y-24.453
N13730 X381.581 Y-24.092
N13735 X381.512 Y-23.737
N13740 X381.37 Y-23.405
N13745 X381.161 Y-23.111
N13750 X380.894 Y-22.868
N13755 G3 X379.718 Y-22.804 I-0.632 J-0.775
N13760 G1 X377.303 Y-24.372
N13765 G3 X377.295 Y-26.045 I0.545 J-0.839
N13770 G1 X377.595 Y-26.229
N13775 X377.816 Y-26.403
N13780 X377.895 Y-26.468
N13785 X378.153 Y-26.703
N13790 X378.195 Y-26.744
N13795 X378.335 Y-26.886
N13800 X378.492 Y-27.031
N13805 X378.617 Y-27.128
N13810 X378.758 Y-27.22
N13815 X378.922 Y-27.311
N13820 X379.105 Y-27.393
N13825 X379.303 Y-27.463
N13830 X379.523 Y-27.522
N13835 X379.763 Y-27.566
N13840 X380.006 Y-27.591
N13845 X380.247 Y-27.595
N13850 X380.512 Y-27.579
N13855 X380.761 Y-27.544
N13860 X381.009 Y-27.489
N13865 X381.267 Y-27.408
N13870 X381.504 Y-27.313
N13875 X381.744 Y-27.194
N13880 X381.978 Y-27.053
N13885 X382.188 Y-26.902
N13890 X382.204 Y-26.889
N13895 X382.478 Y-26.607
N13900 X382.694 Y-26.277
N13905 X382.842 Y-25.912
N13910 X382.917 Y-25.526
N13915 Y-25.132
N13920 X382.842 Y-24.746
N13925 X382.694 Y-24.381
N13930 G3 X381.451 Y-24.029 I-0.829 J-0.559
N13935 G1 X378.658 Y-25.3
N13940 G3 X378.073 Y-26.167 I0.414 J-0.91
N13945 X378.335 Y-26.886 I0.999 J-0.043
N13950 G1 X378.45 Y-27.003
N13955 X378.495 Y-27.052
N13960 X378.795 Y-27.344
N13965 X379.072 Y-27.603
N13970 X379.095 Y-27.622
N13975 X379.17 Y-27.682
N13980 X379.245 Y-27.73
N13985 X379.55 Y-27.903
N13990 X379.694 Y-27.966
N13995 X379.994 Y-28.06
N14000 X380.144 Y-28.098
N14005 X380.294 Y-28.116
N14010 X380.594 Y-28.141
N14015 X380.894 Y-28.117
N14020 X381.194 Y-28.07
N14025 X381.494 Y-27.968
N14030 X381.661 Y-27.903
N14035 X381.794 Y-27.829
N14040 X382.094 Y-27.639
N14045 X382.14 Y-27.603
N14050 X382.394 Y-27.363
N14055 X382.453 Y-27.303
N14060 X382.671 Y-27.003
N14065 X382.694 Y-26.969
N14070 X382.778 Y-26.836
N14075 X382.838 Y-26.703
N14080 X382.956 Y-26.403
N14085 X382.994 Y-26.264
N14090 X383.021 Y-26.103
N14095 X383.063 Y-25.803
N14100 X383.052 Y-25.503
N14105 X383.043 Y-25.353
N14110 X383.017 Y-25.203
N14115 X382.936 Y-24.903
N14120 X382.885 Y-24.753
N14125 X382.81 Y-24.603
N14130 X382.694 Y-24.381
N14135 X382.645 Y-24.303
N14140 X382.394 Y-23.993
N14145 X382.319 Y-23.913
N14150 X382.244 Y-23.847
N14155 X382.094 Y-23.732
N14160 X381.494 Y-23.307
N14165 X380.894 Y-22.868
N14170 G3 X380.145 Y-22.712 I-0.562 J-0.827
N14175 G1 X380.026 Y-22.735 Z444.407
N14180 X379.91 Y-22.757 Z444.429
N14185 X379.796 Y-22.779 Z444.465
N14190 X379.688 Y-22.799 Z444.515
N14195 X379.587 Y-22.819 Z444.577
N14200 X379.493 Y-22.836 Z444.651
N14205 X379.41 Y-22.852 Z444.737
N14210 X379.336 Y-22.866 Z444.832
N14215 X379.275 Y-22.878 Z444.935
N14220 X379.226 Y-22.887 Z445.045
N14225 X379.191 Y-22.894 Z445.161
N14230 X379.17 Y-22.898 Z445.279
N14235 X379.162 Y-22.899 Z445.4
N14240 G0 Z459.4
N14245 X329.094 Y-25.233
N14250 Z446.4
N14255 G1 Z445.4 F1398.
N14260 X329.093 Y-25.24 Z445.279
N14265 X329.09 Y-25.261 Z445.161
N14270 X329.085 Y-25.297 Z445.045
N14275 X329.077 Y-25.346 Z444.935
N14280 X329.068 Y-25.408 Z444.832
N14285 X329.057 Y-25.481 Z444.737
N14290 X329.045 Y-25.566 Z444.651
N14295 X329.031 Y-25.66 Z444.577
N14300 X329.015 Y-25.762 Z444.515
N14305 X328.999 Y-25.871 Z444.465
N14310 X328.982 Y-25.985 Z444.429
N14315 X328.965 Y-26.102 Z444.407
N14320 X328.947 Y-26.222 Z444.4
N14325 G3 X329.027 Y-27.003 I1.565 J-0.234
N14330 G1 X329.15 Y-27.303
N14335 X329.261 Y-27.603
N14340 X329.41 Y-28.203
N14345 X329.464 Y-28.503
N14350 X329.524 Y-29.103
N14355 X329.516 Y-29.403
N14360 X329.518 Y-29.589
N14365 X329.545 Y-29.885
N14370 X329.606 Y-30.242
N14375 X329.704 Y-30.623
N14380 X329.85 Y-31.048
N14385 X330.039 Y-31.48
N14390 X330.267 Y-31.904
N14395 X330.513 Y-32.287
N14400 X330.788 Y-32.646
N14405 X331.085 Y-32.976
N14410 X331.09 Y-32.981
N14415 X331.407 Y-33.229
N14420 X331.764 Y-33.413
N14425 X332.15 Y-33.527
N14430 X332.55 Y-33.568
N14435 X332.95 Y-33.533
N14440 X333.337 Y-33.424
N14445 X333.697 Y-33.245
N14450 X334.018 Y-33.002
N14455 G3 X334.024 Y-31.584 I-0.702 J0.712
N14460 G1 X331.222 Y-28.772
N14465 G3 X329.516 Y-29.403 I-0.708 J-0.706
N14470 G1 X329.504 Y-29.703
N14475 X329.478 Y-30.003
N14480 X329.368 Y-30.602
N14485 X329.304 Y-30.823
N14490 X329.175 Y-31.202
N14495 X329.108 Y-31.422
N14500 X329.06 Y-31.635
N14505 X329.028 Y-31.865
N14510 X329.015 Y-32.089
N14515 X329.021 Y-32.341
N14520 X329.046 Y-32.587
N14525 X329.091 Y-32.829
N14530 X329.162 Y-33.091
N14535 X329.248 Y-33.333
N14540 X329.362 Y-33.584
N14545 X329.496 Y-33.828
N14550 X329.645 Y-34.054
N14555 X329.829 Y-34.288
N14560 X330.021 Y-34.496
N14565 X330.238 Y-34.696
N14570 X330.476 Y-34.883
N14575 X330.786 Y-35.045
N14580 X331.121 Y-35.14
N14585 X331.47 Y-35.166
N14590 X331.816 Y-35.12
N14595 X332.146 Y-35.005
N14600 X332.445 Y-34.825
N14605 X332.701 Y-34.588
N14610 X332.905 Y-34.304
N14615 G3 X332.974 Y-33.541 I-0.885 J0.465
N14620 X332.782 Y-33.192 I-0.955 J-0.297
N14625 G1 X330.865 Y-30.931
N14630 G3 X329.712 Y-30.657 I-0.763 J-0.646
N14635 X329.175 Y-31.202 I0.391 J-0.921
N14640 G1 X329.066 Y-31.502
N14645 X328.704 Y-32.193
N14650 X328.559 Y-32.402
N14655 X328.474 Y-32.522
N14660 X328.393 Y-32.648
N14665 X328.321 Y-32.795
N14670 X328.258 Y-32.955
N14675 X328.203 Y-33.136
N14680 X328.159 Y-33.338
N14685 X328.13 Y-33.552
N14690 X328.118 Y-33.782
N14695 X328.125 Y-34.032
N14700 X328.15 Y-34.272
N14705 X328.197 Y-34.517
N14710 X328.266 Y-34.767
N14715 X328.349 Y-34.998
N14720 X328.46 Y-35.241
N14725 X328.588 Y-35.47
N14730 X328.729 Y-35.681
N14735 X328.901 Y-35.899
N14740 X329.081 Y-36.091
N14745 X329.279 Y-36.273
N14750 X329.356 Y-36.332
N14755 X329.665 Y-36.529
N14760 X330.007 Y-36.663
N14765 X330.367 Y-36.73
N14770 X330.734 Y-36.727
N14775 X331.094 Y-36.655
N14780 X331.433 Y-36.516
N14785 X331.74 Y-36.315
N14790 X332.003 Y-36.06
N14795 X332.048 Y-36.002
N14800 X332.218 Y-35.702
N14805 X332.303 Y-35.543
N14810 X332.374 Y-35.402
N14815 X332.501 Y-35.102
N14820 G3 X332.479 Y-34.337 I-0.934 J0.357
N14825 X332.141 Y-33.927 I-0.913 J-0.408
N14830 G1 X329.842 Y-32.312
N14835 G3 X328.474 Y-32.522 I-0.575 J-0.818
N14840 G1 X328.345 Y-32.702
N14845 X328.104 Y-33.045
N14850 X327.94 Y-33.302
N14855 X327.804 Y-33.534
N14860 X327.775 Y-33.602
N14865 X327.667 Y-33.902
N14870 X327.624 Y-34.052
N14875 X327.601 Y-34.202
N14880 X327.565 Y-34.502
N14885 X327.579 Y-34.802
N14890 X327.615 Y-35.102
N14895 X327.705 Y-35.402
N14900 X327.746 Y-35.529
N14905 X327.804 Y-35.656
N14910 X327.83 Y-35.702
N14915 X328.003 Y-36.002
N14920 X328.104 Y-36.131
N14925 X328.256 Y-36.302
N14930 X328.404 Y-36.451
N14935 X328.608 Y-36.602
N14940 X328.704 Y-36.672
N14945 X328.854 Y-36.762
N14950 X329.004 Y-36.83
N14955 X329.166 Y-36.902
N14960 X329.304 Y-36.952
N14965 X329.604 Y-37.017
N14970 X329.754 Y-37.045
N14975 X329.904 Y-37.054
N14980 X330.204 Y-37.05
N14985 X330.354 Y-37.038
N14990 X330.504 Y-37.006
N14995 X330.804 Y-36.934
N15000 X330.89 Y-36.902
N15005 X331.104 Y-36.803
N15010 X331.254 Y-36.731
N15015 X331.403 Y-36.633
N15020 X331.445 Y-36.602
N15025 X331.703 Y-36.399
N15030 X331.797 Y-36.302
N15035 X332.003 Y-36.06
N15040 G3 X332.173 Y-35.314 I-0.816 J0.578
N15045 G1 X332.153 Y-35.195 Z444.407
N15050 X332.133 Y-35.078 Z444.429
N15055 X332.114 Y-34.964 Z444.465
N15060 X332.095 Y-34.856 Z444.515
N15065 X332.078 Y-34.754 Z444.577
N15070 X332.062 Y-34.66 Z444.651
N15075 X332.048 Y-34.576 Z444.737
N15080 X332.035 Y-34.503 Z444.832
N15085 X332.025 Y-34.441 Z444.935
N15090 X332.016 Y-34.392 Z445.045
N15095 X332.01 Y-34.357 Z445.161
N15100 X332.007 Y-34.335 Z445.279
N15105 X332.006 Y-34.328 Z445.4
N15110 G0 Z459.4
N15115 X321.746 Y16.481
N15120 Z446.4
N15125 G1 Z445.4 F1398.
N15130 X321.739 Z445.279
N15135 X321.717 Y16.479 Z445.161
N15140 X321.681 Y16.476 Z445.045
N15145 X321.632 Y16.473 Z444.935
N15150 X321.57 Y16.468 Z444.832
N15155 X321.495 Y16.462 Z444.737
N15160 X321.41 Y16.455 Z444.651
N15165 X321.315 Y16.448 Z444.577
N15170 X321.212 Y16.44 Z444.515
N15175 X321.103 Y16.432 Z444.465
N15180 X320.988 Y16.423 Z444.429
N15185 X320.869 Y16.413 Z444.407
N15190 X320.749 Y16.404 Z444.4
N15195 G3 X320.006 Y16.151 I0.123 J-1.578
N15200 G1 X319.638 Y15.892
N15205 X319.406 Y15.741
N15210 X319.106 Y15.585
N15215 X318.806 Y15.432
N15220 X318.506 Y15.328
N15225 X318.206 Y15.231
N15230 X317.906 Y15.139
N15235 X317.606 Y15.088
N15240 X317.261 Y15.012
N15245 X316.938 Y14.912
N15250 X316.608 Y14.781
N15255 X316.224 Y14.591
N15260 X315.819 Y14.348
N15265 X315.433 Y14.072
N15270 X315.056 Y13.755
N15275 X314.736 Y13.439
N15280 X314.43 Y13.082
N15285 X314.176 Y12.734
N15290 X314.013 Y12.402
N15295 X313.913 Y12.046
N15300 X313.879 Y11.678
N15305 X313.913 Y11.309
N15310 X314.014 Y10.953
N15315 X314.178 Y10.622
N15320 X314.399 Y10.325
N15325 X314.671 Y10.074
N15330 G3 X316.041 Y10.276 I0.58 J0.814
N15335 G1 X318.529 Y13.484
N15340 G3 X318.346 Y14.892 I-0.79 J0.613
N15345 X317.606 Y15.088 I-0.607 J-0.795
N15350 G1 X317.306 Y15.037
N15355 X317.006 Y15.01
N15360 X316.406 Y14.993
N15365 X315.806 Y15.061
N15370 X315.641 Y15.09
N15375 X315.477 Y15.111
N15380 X315.261 Y15.121
N15385 X315.019 Y15.112
N15390 X314.776 Y15.084
N15395 X314.537 Y15.036
N15400 X314.283 Y14.964
N15405 X314.047 Y14.876
N15410 X313.801 Y14.761
N15415 X313.567 Y14.628
N15420 X313.346 Y14.477
N15425 X313.122 Y14.297
N15430 X312.925 Y14.11
N15435 X312.729 Y13.891
N15440 X312.555 Y13.663
N15445 X312.399 Y13.421
N15450 X312.265 Y13.101
N15455 X312.193 Y12.762
N15460 X312.186 Y12.416
N15465 X312.243 Y12.075
N15470 X312.363 Y11.75
N15475 X312.541 Y11.453
N15480 X312.772 Y11.195
N15485 X313.047 Y10.984
N15490 X313.356 Y10.828
N15495 G3 X314.489 Y11.174 I0.332 J0.943
N15500 G1 X316.235 Y13.515
N15505 G3 X316.272 Y14.657 I-0.802 J0.598
N15510 X315.641 Y15.09 I-0.839 J-0.544
N15515 G1 X315.506 Y15.114
N15520 X314.907 Y15.271
N15525 X314.835 Y15.292
N15530 X314.607 Y15.381
N15535 X314.307 Y15.508
N15540 X314.254 Y15.533
N15545 X314.115 Y15.591
N15550 X313.961 Y15.637
N15555 X313.793 Y15.673
N15560 X313.605 Y15.697
N15565 X313.4 Y15.707
N15570 X313.186 Y15.7
N15575 X312.957 Y15.674
N15580 X312.741 Y15.632
N15585 X312.508 Y15.567
N15590 X312.284 Y15.484
N15595 X312.069 Y15.384
N15600 X311.845 Y15.258
N15605 X311.643 Y15.121
N15610 X311.439 Y14.957
N15615 X311.249 Y14.779
N15620 X311.078 Y14.589
N15625 X310.909 Y14.37
N15630 X310.767 Y14.151
N15635 X310.635 Y13.905
N15640 X310.606 Y13.838
N15645 X310.496 Y13.51
N15650 X310.449 Y13.166
N15655 X310.465 Y12.82
N15660 X310.544 Y12.483
N15665 X310.684 Y12.165
N15670 X310.879 Y11.879
N15675 X311.124 Y11.633
N15680 X311.409 Y11.437
N15685 X311.511 Y11.393
N15690 X311.607 Y11.36
N15695 X311.907 Y11.262
N15700 X312.207 Y11.183
N15705 X312.507 Y11.109
N15710 X313.107 Y10.925
N15715 X313.356 Y10.828
N15720 G3 X314.12 Y10.87 I0.332 J0.943
N15725 X314.687 Y11.736 I-0.432 J0.902
N15730 G1 X314.788 Y14.613
N15735 G3 X314.743 Y14.945 I-0.999 J0.035
N15740 X314.254 Y15.533 I-0.955 J-0.297
N15745 G1 X313.707 Y15.798
N15750 X313.497 Y15.892
N15755 X313.407 Y15.928
N15760 X313.107 Y16.039
N15765 X312.807 Y16.094
N15770 X312.657 Y16.117
N15775 X312.507 Y16.123
N15780 X312.207 Y16.109
N15785 X312.057 Y16.093
N15790 X311.907 Y16.057
N15795 X311.607 Y15.973
N15800 X311.426 Y15.892
N15805 X311.307 Y15.831
N15810 X311.157 Y15.752
N15815 X311.007 Y15.647
N15820 X310.94 Y15.592
N15825 X310.707 Y15.394
N15830 X310.618 Y15.292
N15835 X310.407 Y15.024
N15840 X310.386 Y14.992
N15845 X310.23 Y14.692
N15850 X310.16 Y14.542
N15855 X310.111 Y14.392
N15860 X310.037 Y14.092
N15865 X310.013 Y13.942
N15870 X310.008 Y13.792
N15875 X310.003 Y13.492
N15880 X310.05 Y13.192
N15885 X310.107 Y12.936
N15890 X310.122 Y12.892
N15895 X310.247 Y12.592
N15900 X310.315 Y12.454
N15905 X310.407 Y12.315
N15910 X310.423 Y12.292
N15915 X310.653 Y11.993
N15920 X310.707 Y11.941
N15925 X310.984 Y11.693
N15930 X311.007 Y11.675
N15935 X311.307 Y11.494
N15940 X311.409 Y11.437
N15945 G3 X312.174 Y11.452 I0.364 J0.931
N15950 G1 X312.285 Y11.5 Z444.407
N15955 X312.394 Y11.548 Z444.429
N15960 X312.499 Y11.594 Z444.465
N15965 X312.6 Y11.638 Z444.515
N15970 X312.695 Y11.68 Z444.577
N15975 X312.782 Y11.718 Z444.651
N15980 X312.86 Y11.752 Z444.737
N15985 X312.928 Y11.782 Z444.832
N15990 X312.986 Y11.807 Z444.935
N15995 X313.031 Y11.827 Z445.045
N16000 X313.064 Y11.841 Z445.161
N16005 X313.084 Y11.85 Z445.279
N16010 X313.09 Y11.853 Z445.4
N16015 G0 Z459.4
N16020 X361.76 Y30.495
N16025 Z446.4
N16030 G1 Z445.4 F1398.
N16035 X361.757 Y30.502 Z445.279
N16040 X361.75 Y30.523 Z445.161
N16045 X361.738 Y30.557 Z445.045
N16050 X361.721 Y30.603 Z444.935
N16055 X361.701 Y30.662 Z444.832
N16060 X361.676 Y30.733 Z444.737
N16065 X361.647 Y30.813 Z444.651
N16070 X361.616 Y30.903 Z444.577
N16075 X361.581 Y31. Z444.515
N16080 X361.544 Y31.104 Z444.465
N16085 X361.506 Y31.212 Z444.429
N16090 X361.466 Y31.324 Z444.407
N16095 X361.426 Y31.438 Z444.4
N16100 G3 X360.988 Y32.09 I-1.492 J-0.528
N16105 G1 X360.798 Y32.248
N16110 X360.633 Y32.39
N16115 X360.498 Y32.522
N16120 X359.898 Y33.23
N16125 X359.875 Y33.26
N16130 X359.598 Y33.74
N16135 X359.512 Y33.89
N16140 X359.361 Y34.19
N16145 X359.327 Y34.278
N16150 X359.247 Y34.456
N16155 X359.091 Y34.738
N16160 X358.876 Y35.063
N16165 X358.607 Y35.406
N16170 X358.268 Y35.774
N16175 X357.847 Y36.163
N16180 X357.408 Y36.507
N16185 X356.962 Y36.802
N16190 X356.498 Y37.058
N16195 X356.263 Y37.165
N16200 X355.904 Y37.288
N16205 X355.529 Y37.342
N16210 X355.151 Y37.326
N16215 X354.782 Y37.24
N16220 X354.435 Y37.087
N16225 X354.123 Y36.872
N16230 X353.856 Y36.603
N16235 X353.643 Y36.29
N16240 G3 X353.537 Y35.532 I0.862 J-0.507
N16245 X354.077 Y34.879 I0.968 J0.251
N16250 G1 X357.955 Y33.042
N16255 G3 X359.285 Y33.514 I0.428 J0.904
N16260 X359.327 Y34.278 I-0.902 J0.432
N16265 G1 X359.126 Y34.79
N16270 X358.998 Y35.359
N16275 X358.991 Y35.39
N16280 X358.937 Y35.69
N16285 X358.89 Y36.29
N16290 X358.879 Y36.439
N16295 X358.833 Y36.672
N16300 X358.764 Y36.915
N16305 X358.672 Y37.161
N16310 X358.555 Y37.412
N16315 X358.426 Y37.641
N16320 X358.264 Y37.879
N16325 X358.089 Y38.096
N16330 X357.895 Y38.301
N16335 X357.674 Y38.499
N16340 X357.451 Y38.67
N16345 X357.193 Y38.836
N16350 X356.935 Y38.974
N16355 X356.659 Y39.094
N16360 X356.615 Y39.11
N16365 X356.286 Y39.189
N16370 X355.948 Y39.206
N16375 X355.613 Y39.16
N16380 X355.292 Y39.053
N16385 X354.997 Y38.887
N16390 X354.738 Y38.67
N16395 X354.524 Y38.408
N16400 X354.362 Y38.111
N16405 X354.258 Y37.789
N16410 G3 X354.407 Y37.039 I0.981 J-0.196
N16415 X354.814 Y36.688 I0.832 J0.555
N16420 G1 X357.467 Y35.443
N16425 G3 X358.89 Y36.29 I0.425 J0.905
N16430 G1 X358.898 Y36.59
N16435 X358.916 Y36.89
N16440 X358.942 Y37.19
N16445 X359.039 Y37.655
N16450 X359.073 Y37.872
N16455 X359.085 Y38.036
N16460 X359.084 Y38.22
N16465 X359.067 Y38.415
N16470 X359.032 Y38.62
N16475 X358.976 Y38.841
N16480 X358.904 Y39.054
N16485 X358.811 Y39.269
N16490 X358.696 Y39.485
N16495 X358.57 Y39.682
N16500 X358.415 Y39.887
N16505 X358.249 Y40.072
N16510 X358.065 Y40.247
N16515 X357.86 Y40.414
N16520 X357.651 Y40.556
N16525 X357.413 Y40.693
N16530 X357.174 Y40.805
N16535 X356.92 Y40.901
N16540 X356.653 Y40.977
N16545 X356.279 Y41.013
N16550 X355.905 Y40.973
N16555 X355.548 Y40.857
N16560 X355.222 Y40.67
N16565 X354.94 Y40.421
N16570 X354.715 Y40.121
N16575 X354.556 Y39.78
N16580 X354.47 Y39.415
N16585 X354.454 Y39.289
N16590 X354.429 Y38.989
N16595 X354.383 Y38.389
N16600 X354.325 Y38.089
N16605 X354.258 Y37.789
N16610 G3 X354.417 Y37.041 I0.983 J-0.183
N16615 X355.341 Y36.612 I0.824 J0.566
N16620 G1 X358.167 Y36.897
N16625 G3 X359.039 Y37.655 I-0.1 J0.995
N16630 G1 X359.067 Y37.789
N16635 X359.143 Y38.089
N16640 X359.299 Y38.689
N16645 X359.371 Y38.989
N16650 X359.391 Y39.139
N16655 X359.392 Y39.289
N16660 X359.387 Y39.589
N16665 X359.33 Y39.889
N16670 X359.298 Y40.031
N16675 X359.249 Y40.189
N16680 X359.111 Y40.489
N16685 X359.062 Y40.588
N16690 X358.998 Y40.686
N16695 X358.921 Y40.789
N16700 X358.698 Y41.062
N16705 X358.671 Y41.089
N16710 X358.398 Y41.322
N16715 X358.307 Y41.389
N16720 X358.098 Y41.505
N16725 X357.949 Y41.586
N16730 X357.799 Y41.648
N16735 X357.499 Y41.736
N16740 X357.349 Y41.771
N16745 X357.199 Y41.785
N16750 X356.899 Y41.804
N16755 X356.599 Y41.774
N16760 X356.299 Y41.721
N16765 X356.203 Y41.689
N16770 X355.999 Y41.612
N16775 X355.849 Y41.552
N16780 X355.699 Y41.465
N16785 X355.581 Y41.389
N16790 X355.399 Y41.266
N16795 X355.212 Y41.089
N16800 X355.099 Y40.976
N16805 X355.015 Y40.882
N16810 X354.949 Y40.789
N16815 X354.799 Y40.556
N16820 X354.759 Y40.489
N16825 X354.633 Y40.189
N16830 X354.537 Y39.889
N16835 X354.493 Y39.589
N16840 X354.47 Y39.415
N16845 X354.466 Y39.32 Z444.406
N16850 X354.479 Y39.224 Z444.424
N16855 X354.493 Y39.131 Z444.454
N16860 X354.505 Y39.042 Z444.496
N16865 X354.539 Y38.967 Z444.548
N16870 X354.57 Y38.899 Z444.609
N16875 X354.597 Y38.838 Z444.68
N16880 X354.621 Y38.786 Z444.758
N16885 X354.647 Y38.749 Z444.836
N16890 X354.668 Y38.721 Z444.919
N16895 X354.683 Y38.7 Z445.006
N16900 X354.692 Y38.687 Z445.095
N16905 X354.695 Y38.683 Z445.185
N16910 G0 Z459.4
N16915 X376.052 Y7.737
N16920 Z455.41
N16925 G1 Z454.41 F1398.
N16930 G18 G2 X377.052 Z453.41 I1. K0.
N16935 G17 G3 X382.52 Y8.33 I0. J25.53
N16940 G1 X382.665 Y8.367
N16945 X382.678 Y8.381
N16950 X382.684 Y8.399
N16955 X382.683 Y8.418
N16960 X382.461 Y9.293
N16965 X382.376 Y9.593
N16970 X382.204 Y10.193
N16975 X382.104 Y10.493
N16980 X381.448 Y12.292
N16985 X381.194 Y12.985
N16990 X381.109 Y13.192
N16995 X380.673 Y14.092
N17000 X380.24 Y14.992
N17005 X379.81 Y15.892
N17010 X379.537 Y16.492
N17015 X379.412 Y16.792
N17020 X379.229 Y17.392
N17025 X379.16 Y17.692
N17030 X379.095 Y18.165
N17035 X379.082 Y18.292
N17040 X379.077 Y18.892
N17045 X379.095 Y19.174
N17050 X379.135 Y19.492
N17055 X379.177 Y19.792
N17060 X379.395 Y20.56
N17065 X379.588 Y20.991
N17070 X379.589 Y20.994
N17075 G2 X379.797 Y21.623 I3.697 J-0.872
N17080 X379.85 Y21.73 I0.919 J-0.395
N17085 X379.978 Y21.903 I0.865 J-0.502
N17090 G1 X381.218 Y23.26
N17095 G2 X381.382 Y23.403 I0.738 J-0.675
N17100 X381.481 Y23.464 I0.574 J-0.819
N17105 X382.089 Y23.727 I1.806 J-3.342
N17110 G1 X382.094 Y23.73
N17115 X382.243 Y23.846
N17120 X382.318 Y23.911
N17125 X382.394 Y23.993
N17130 X382.637 Y24.291
N17135 X382.694 Y24.381
N17140 X382.804 Y24.591
N17145 X382.879 Y24.741
N17150 X382.933 Y24.891
N17155 X383.014 Y25.191
N17160 X383.042 Y25.341
N17165 X383.052 Y25.491
N17170 X383.063 Y25.791
N17175 X383.023 Y26.091
N17180 X382.994 Y26.264
N17185 X382.96 Y26.391
N17190 X382.843 Y26.691
N17195 X382.781 Y26.83
N17200 X382.694 Y26.969
N17205 X382.679 Y26.991
N17210 X382.465 Y27.291
N17215 X382.394 Y27.363
N17220 X382.154 Y27.591
N17225 X382.094 Y27.639
N17230 X381.794 Y27.829
N17235 X381.686 Y27.891
N17240 X381.494 Y27.968
N17245 X381.194 Y28.07
N17250 X380.894 Y28.117
N17255 X380.594 Y28.141
N17260 X380.294 Y28.116
N17265 X380.144 Y28.098
N17270 X379.994 Y28.06
N17275 X379.694 Y27.966
N17280 X379.527 Y27.891
N17285 X379.245 Y27.73
N17290 X379.17 Y27.682
N17295 X379.095 Y27.623
N17300 X378.727 Y27.291
N17305 X378.495 Y27.078
N17310 X378.408 Y26.991
N17315 X378.08 Y26.691
N17320 X377.895 Y26.536
N17325 X377.595 Y26.303
N17330 X377.235 Y26.091
N17335 X376.995 Y25.95
N17340 X376.695 Y25.801
N17345 X376.095 Y25.562
N17350 X375.851 Y25.491
N17355 X375.495 Y25.411
N17360 X375.195 Y25.358
N17365 X374.595 Y25.303
N17370 X374.295 Y25.308
N17375 X373.996 Y25.322
N17380 X373.696 Y25.346
N17385 X373.096 Y25.461
N17390 X372.945 Y25.491
N17395 X372.796 Y25.543
N17400 X372.496 Y25.651
N17405 X372.196 Y25.764
N17410 X371.586 Y26.091
N17415 X371.296 Y26.264
N17420 X370.696 Y26.691
N17425 X369.796 Y27.334
N17430 X368.896 Y27.982
N17435 X368.592 Y28.191
N17440 X367.997 Y28.575
N17445 X367.697 Y28.761
N17450 X365.597 Y29.973
N17455 X365.563 Y29.99
N17460 X364.997 Y30.259
N17465 X364.93 Y30.29
N17470 X364.097 Y30.665
N17475 X363.198 Y31.073
N17480 X362.281 Y31.49
N17485 X361.998 Y31.632
N17490 X361.698 Y31.784
N17495 X361.398 Y31.982
N17500 X360.798 Y32.453
N17505 X360.54 Y32.69
N17510 X360.498 Y32.734
N17515 X360.262 Y32.99
N17520 X360.024 Y33.29
N17525 X359.898 Y33.476
N17530 X359.598 Y33.988
N17535 X359.5 Y34.19
N17540 X359.255 Y34.79
N17545 X359.157 Y35.09
N17550 X359.09 Y35.39
N17555 X359.034 Y35.69
N17560 X358.974 Y36.29
N17565 X358.972 Y36.59
N17570 X358.998 Y37.19
N17575 X359.041 Y37.49
N17580 X359.1 Y37.789
N17585 X359.167 Y38.089
N17590 X359.304 Y38.689
N17595 X359.371 Y38.989
N17600 X359.391 Y39.139
N17605 X359.392 Y39.289
N17610 X359.387 Y39.589
N17615 X359.33 Y39.889
N17620 X359.298 Y40.031
N17625 X359.249 Y40.189
N17630 X359.111 Y40.489
N17635 X359.062 Y40.588
N17640 X358.998 Y40.686
N17645 X358.921 Y40.789
N17650 X358.698 Y41.062
N17655 X358.671 Y41.089
N17660 X358.398 Y41.322
N17665 X358.307 Y41.389
N17670 X358.098 Y41.506
N17675 X357.949 Y41.586
N17680 X357.799 Y41.648
N17685 X357.499 Y41.736
N17690 X357.349 Y41.771
N17695 X357.199 Y41.785
N17700 X356.899 Y41.804
N17705 X356.599 Y41.774
N17710 X356.299 Y41.721
N17715 X356.202 Y41.689
N17720 X355.999 Y41.613
N17725 X355.849 Y41.552
N17730 X355.699 Y41.465
N17735 X355.581 Y41.389
N17740 X355.399 Y41.266
N17745 X355.212 Y41.089
N17750 X355.099 Y40.976
N17755 X355.015 Y40.882
N17760 X354.949 Y40.789
N17765 X354.799 Y40.556
N17770 X354.759 Y40.489
N17775 X354.633 Y40.189
N17780 X354.537 Y39.889
N17785 X354.493 Y39.589
N17790 X354.449 Y39.289
N17795 X354.384 Y38.689
N17800 X354.339 Y38.389
N17805 X354.266 Y38.089
N17810 X354.191 Y37.789
N17815 X354.1 Y37.49
N17820 X353.853 Y36.89
N17825 X353.703 Y36.59
N17830 X353.599 Y36.425
N17835 X353.511 Y36.29
N17840 X353.306 Y35.99
N17845 X352.999 Y35.62
N17850 X352.79 Y35.39
N17855 X352.699 Y35.299
N17860 X352.4 Y35.048
N17865 X352.1 Y34.805
N17870 X351.8 Y34.611
N17875 X351.609 Y34.49
N17880 X351.5 Y34.431
N17885 X351.2 Y34.295
N17890 X350.6 Y34.049
N17895 X349.947 Y33.89
N17900 X349.7 Y33.848
N17905 X349.1 Y33.784
N17910 X348.8 Y33.758
N17915 X347.6 Y33.665
N17920 X347.001 Y33.619
N17925 X346.401 Y33.575
N17930 X346.101 Y33.545
N17935 X345.501 Y33.473
N17940 X345.201 Y33.431
N17945 X343.101 Y33.06
N17950 X342.709 Y32.99
N17955 X342.501 Y32.952
N17960 X342.201 Y32.868
N17965 X341.577 Y32.69
N17970 X340.509 Y32.39
N17975 X339.802 Y32.193
N17980 X338.902 Y31.947
N17985 X338.602 Y31.884
N17990 X338.302 Y31.84
N17995 X338.002 Y31.808
N18000 X337.402 Y31.795
N18005 X337.102 Y31.819
N18010 X336.802 Y31.856
N18015 X336.503 Y31.897
N18020 X335.795 Y32.09
N18025 X335.603 Y32.173
N18030 X335.303 Y32.304
N18035 X335.3 Y32.305
N18040 G2 X334.326 Y32.663 I0.87 J3.879
N18045 X334.05 Y32.876 I0.464 J0.886
N18050 G1 X332.676 Y34.385
N18055 G2 X332.49 Y34.68 I0.74 J0.673
N18060 X332.399 Y34.925 I3.679 J1.504
N18065 X332.226 Y35.683 I3.77 J1.259
N18070 G1 X332.225 Y35.69
N18075 X332.056 Y35.99
N18080 X332.003 Y36.06
N18085 X331.808 Y36.29
N18090 X331.703 Y36.399
N18095 X331.461 Y36.59
N18100 X331.403 Y36.633
N18105 X331.254 Y36.731
N18110 X331.104 Y36.803
N18115 X330.918 Y36.89
N18120 X330.804 Y36.934
N18125 X330.504 Y37.006
N18130 X330.354 Y37.038
N18135 X330.204 Y37.05
N18140 X329.904 Y37.054
N18145 X329.754 Y37.045
N18150 X329.604 Y37.017
N18155 X329.304 Y36.952
N18160 X329.139 Y36.89
N18165 X329.004 Y36.83
N18170 X328.854 Y36.762
N18175 X328.704 Y36.672
N18180 X328.591 Y36.59
N18185 X328.404 Y36.45
N18190 X328.245 Y36.29
N18195 X328.104 Y36.131
N18200 X327.995 Y35.99
N18205 X327.804 Y35.656
N18210 X327.744 Y35.523
N18215 X327.701 Y35.39
N18220 X327.613 Y35.09
N18225 X327.578 Y34.79
N18230 X327.566 Y34.49
N18235 X327.603 Y34.19
N18240 X327.627 Y34.04
N18245 X327.672 Y33.89
N18250 X327.779 Y33.59
N18255 X327.804 Y33.533
N18260 X327.948 Y33.29
N18265 X328.135 Y32.99
N18270 X328.327 Y32.69
N18275 X328.523 Y32.39
N18280 X328.697 Y32.09
N18285 X329.004 Y31.468
N18290 X329.103 Y31.19
N18295 X329.195 Y30.89
N18300 X329.274 Y30.59
N18305 X329.373 Y29.99
N18310 X329.392 Y29.69
N18315 X329.399 Y29.39
N18320 X329.4 Y29.091
N18325 X329.33 Y28.491
N18330 X329.304 Y28.321
N18335 X329.111 Y27.591
N18340 X329.004 Y27.324
N18345 X328.854 Y26.991
N18350 X328.704 Y26.71
N18355 X328.309 Y26.091
N18360 X328.104 Y25.837
N18365 X328.065 Y25.791
N18370 X327.804 Y25.51
N18375 X327.486 Y25.191
N18380 X326.569 Y24.291
N18385 X325.405 Y23.156
N18390 X325.339 Y23.091
N18395 X325.105 Y22.846
N18400 X323.296 Y20.691
N18405 X323.07 Y20.392
N18410 X322.852 Y20.092
N18415 X322.705 Y19.879
N18420 X322.033 Y18.892
N18425 X321.416 Y17.992
N18430 X321.002 Y17.392
N18435 X320.769 Y17.092
N18440 X320.605 Y16.908
N18445 X320.306 Y16.598
N18450 X320.199 Y16.492
N18455 X320.006 Y16.329
N18460 X319.83 Y16.192
N18465 X319.706 Y16.105
N18470 X319.406 Y15.907
N18475 X318.805 Y15.592
N18480 X318.506 Y15.459
N18485 X317.996 Y15.292
N18490 X317.906 Y15.266
N18495 X317.306 Y15.154
N18500 X317.303 Y15.153
N18505 G2 X316.692 Y14.971 I-1.347 J3.402
N18510 X316.55 Y14.952 I-0.201 J0.98
N18515 X316.296 Y14.969 I-0.059 J0.998
N18520 G1 X314.273 Y15.37
N18525 G2 X313.908 Y15.523 I0.194 J0.981
N18530 X313.413 Y15.924 I2.048 J3.032
N18535 G1 X313.407 Y15.928
N18540 X313.107 Y16.039
N18545 X312.807 Y16.094
N18550 X312.657 Y16.118
N18555 X312.507 Y16.123
N18560 X312.207 Y16.109
N18565 X312.057 Y16.093
N18570 X311.907 Y16.057
N18575 X311.607 Y15.973
N18580 X311.426 Y15.892
N18585 X311.307 Y15.831
N18590 X311.157 Y15.752
N18595 X311.007 Y15.647
N18600 X310.94 Y15.592
N18605 X310.707 Y15.394
N18610 X310.618 Y15.292
N18615 X310.407 Y15.024
N18620 X310.386 Y14.992
N18625 X310.23 Y14.692
N18630 X310.16 Y14.542
N18635 X310.111 Y14.392
N18640 X310.037 Y14.092
N18645 X310.013 Y13.942
N18650 X310.007 Y13.792
N18655 X310.003 Y13.492
N18660 X310.05 Y13.192
N18665 X310.107 Y12.936
N18670 X310.122 Y12.892
N18675 X310.247 Y12.592
N18680 X310.315 Y12.454
N18685 X310.407 Y12.315
N18690 X310.423 Y12.292
N18695 X310.653 Y11.993
N18700 X310.707 Y11.94
N18705 X310.984 Y11.693
N18710 X311.007 Y11.675
N18715 X311.307 Y11.494
N18720 X311.409 Y11.437
N18725 X311.511 Y11.393
N18730 X311.607 Y11.36
N18735 X311.907 Y11.261
N18740 X312.207 Y11.171
N18745 X312.507 Y11.081
N18750 X312.807 Y10.989
N18755 X313.107 Y10.881
N18760 X313.301 Y10.793
N18765 X314.007 Y10.429
N18770 X314.353 Y10.193
N18775 X314.607 Y9.999
N18780 X314.734 Y9.893
N18785 X314.907 Y9.725
N18790 X315.207 Y9.42
N18795 X315.325 Y9.293
N18800 X315.506 Y9.065
N18805 X315.562 Y8.993
N18810 X315.806 Y8.627
N18815 X315.93 Y8.393
N18820 X316.23 Y7.793
N18825 X316.288 Y7.643
N18830 X316.339 Y7.493
N18835 X316.427 Y7.193
N18840 X316.496 Y6.893
N18845 X316.595 Y6.293
N18850 X316.606 Y5.993
N18855 X316.613 Y5.693
N18860 X316.609 Y5.393
N18865 X316.556 Y4.793
N18870 X316.529 Y4.493
N18875 X316.441 Y3.594
N18880 X316.351 Y2.694
N18885 X316.29 Y2.094
N18890 X316.266 Y1.794
N18895 X316.244 Y0.894
N18900 Y-0.906
N18905 X316.267 Y-1.806
N18910 X316.291 Y-2.106
N18915 X316.383 Y-3.006
N18920 X316.472 Y-3.906
N18925 X316.53 Y-4.506
N18930 X316.557 Y-4.806
N18935 X316.61 Y-5.405
N18940 X316.613 Y-5.705
N18945 X316.606 Y-6.005
N18950 X316.594 Y-6.305
N18955 X316.493 Y-6.905
N18960 X316.424 Y-7.205
N18965 X316.335 Y-7.505
N18970 X316.283 Y-7.655
N18975 X316.225 Y-7.805
N18980 X315.924 Y-8.405
N18985 X315.806 Y-8.628
N18990 X315.554 Y-9.005
N18995 X315.314 Y-9.305
N19000 X315.207 Y-9.421
N19005 X314.907 Y-9.725
N19010 X314.719 Y-9.905
N19015 X314.607 Y-9.998
N19020 X314.336 Y-10.205
N19025 X314.007 Y-10.429
N19030 X313.277 Y-10.805
N19035 X313.107 Y-10.88
N19040 X312.807 Y-10.98
N19045 X312.507 Y-11.079
N19050 X312.429 Y-11.105
N19055 X312.207 Y-11.171
N19060 X311.907 Y-11.261
N19065 X311.607 Y-11.36
N19070 X311.479 Y-11.405
N19075 X311.307 Y-11.494
N19080 X311.007 Y-11.675
N19085 X310.967 Y-11.705
N19090 X310.707 Y-11.94
N19095 X310.641 Y-12.005
N19100 X310.407 Y-12.315
N19105 X310.312 Y-12.46
N19110 X310.242 Y-12.605
N19115 X310.118 Y-12.905
N19120 X310.107 Y-12.935
N19125 X310.048 Y-13.205
N19130 X310.002 Y-13.504
N19135 X310.008 Y-13.804
N19140 X310.014 Y-13.954
N19145 X310.04 Y-14.104
N19150 X310.114 Y-14.404
N19155 X310.164 Y-14.554
N19160 X310.236 Y-14.704
N19165 X310.394 Y-15.004
N19170 X310.407 Y-15.023
N19175 X310.627 Y-15.304
N19180 X310.707 Y-15.393
N19185 X310.955 Y-15.604
N19190 X311.007 Y-15.647
N19195 X311.157 Y-15.753
N19200 X311.307 Y-15.831
N19205 X311.449 Y-15.904
N19210 X311.607 Y-15.973
N19215 X311.907 Y-16.057
N19220 X312.057 Y-16.093
N19225 X312.207 Y-16.109
N19230 X312.507 Y-16.123
N19235 X312.657 Y-16.118
N19240 X312.807 Y-16.094
N19245 X313.107 Y-16.039
N19250 X313.407 Y-15.928
N19255 X313.467 Y-15.904
N19260 X313.707 Y-15.805
N19265 X314.176 Y-15.604
N19270 X314.307 Y-15.548
N19275 X314.607 Y-15.431
N19280 X314.907 Y-15.334
N19285 X315.506 Y-15.189
N19290 X315.806 Y-15.145
N19295 X316.106 Y-15.116
N19300 X316.406 Y-15.091
N19305 X317.006 Y-15.119
N19310 X317.306 Y-15.154
N19315 X317.906 Y-15.266
N19320 X318.031 Y-15.304
N19325 X318.506 Y-15.461
N19330 X318.806 Y-15.592
N19335 X319.406 Y-15.907
N19340 X319.706 Y-16.105
N19345 X319.846 Y-16.204
N19350 X320.006 Y-16.328
N19355 X320.213 Y-16.504
N19360 X320.306 Y-16.598
N19365 X320.605 Y-16.91
N19370 X320.779 Y-17.104
N19375 X321.011 Y-17.404
N19380 X321.836 Y-18.604
N19385 X322.654 Y-19.804
N19390 X322.705 Y-19.879
N19395 X322.861 Y-20.104
N19400 X323.08 Y-20.404
N19405 X323.307 Y-20.704
N19410 X324.805 Y-22.489
N19415 X325.405 Y-23.133
N19420 X325.658 Y-23.403
N19425 X326.581 Y-24.303
N19430 X327.504 Y-25.209
N19435 X327.804 Y-25.51
N19440 X328.076 Y-25.803
N19445 X328.104 Y-25.837
N19450 X328.317 Y-26.103
N19455 X328.699 Y-26.703
N19460 X328.701 Y-26.705
N19465 G2 X329.184 Y-27.319 I-3.146 J-2.979
N19470 X329.53 Y-27.961 I-3.63 J-2.365
N19475 X329.606 Y-28.473 I-0.918 J-0.398
N19480 G1 X329.416 Y-30.129
N19485 X329.227 Y-31.78
N19490 G2 X329.037 Y-32.261 I-0.993 J0.114
N19495 X328.552 Y-32.812 I-3.483 J2.577
N19500 X327.946 Y-33.297 I-2.998 J3.128
N19505 G1 X327.94 Y-33.302
N19510 X327.804 Y-33.534
N19515 X327.775 Y-33.602
N19520 X327.667 Y-33.902
N19525 X327.624 Y-34.052
N19530 X327.601 Y-34.202
N19535 X327.565 Y-34.502
N19540 X327.579 Y-34.802
N19545 X327.615 Y-35.102
N19550 X327.704 Y-35.402
N19555 X327.746 Y-35.529
N19560 X327.804 Y-35.656
N19565 X327.83 Y-35.702
N19570 X328.003 Y-36.002
N19575 X328.104 Y-36.131
N19580 X328.256 Y-36.302
N19585 X328.404 Y-36.451
N19590 X328.607 Y-36.602
N19595 X328.704 Y-36.672
N19600 X328.854 Y-36.762
N19605 X329.004 Y-36.83
N19610 X329.166 Y-36.902
N19615 X329.304 Y-36.952
N19620 X329.604 Y-37.017
N19625 X329.754 Y-37.045
N19630 X329.904 Y-37.054
N19635 X330.204 Y-37.05
N19640 X330.354 Y-37.038
N19645 X330.504 Y-37.006
N19650 X330.804 Y-36.934
N19655 X330.89 Y-36.902
N19660 X331.104 Y-36.803
N19665 X331.254 Y-36.731
N19670 X331.403 Y-36.633
N19675 X331.445 Y-36.602
N19680 X331.703 Y-36.399
N19685 X331.798 Y-36.302
N19690 X332.003 Y-36.06
N19695 X332.048 Y-36.002
N19700 X332.218 Y-35.702
N19705 X332.303 Y-35.543
N19710 X332.376 Y-35.402
N19715 X332.524 Y-35.102
N19720 X332.603 Y-34.944
N19725 X332.675 Y-34.802
N19730 X332.853 Y-34.502
N19735 X332.903 Y-34.419
N19740 X333.036 Y-34.202
N19745 X333.27 Y-33.902
N19750 X333.506 Y-33.602
N19755 X333.803 Y-33.315
N19760 X334.157 Y-33.002
N19765 X334.403 Y-32.811
N19770 X334.557 Y-32.702
N19775 X334.703 Y-32.612
N19780 X335.003 Y-32.436
N19785 X335.764 Y-32.102
N19790 X335.903 Y-32.06
N19795 X336.503 Y-31.893
N19800 X336.802 Y-31.856
N19805 X337.243 Y-31.802
N19810 X337.402 Y-31.795
N19815 X338.002 Y-31.808
N19820 X338.302 Y-31.841
N19825 X338.602 Y-31.886
N19830 X338.902 Y-31.947
N19835 X339.802 Y-32.193
N19840 X340.702 Y-32.444
N19845 X341.902 Y-32.782
N19850 X342.201 Y-32.868
N19855 X342.501 Y-32.952
N19860 X342.801 Y-33.007
N19865 X343.701 Y-33.166
N19870 X345.201 Y-33.431
N19875 X345.501 Y-33.473
N19880 X346.101 Y-33.545
N19885 X346.401 Y-33.575
N19890 X347.301 Y-33.642
N19895 X348.5 Y-33.734
N19900 X348.8 Y-33.758
N19905 X349.1 Y-33.784
N19910 X349.7 Y-33.848
N19915 X350. Y-33.903
N19920 X350.6 Y-34.049
N19925 X351.2 Y-34.295
N19930 X351.5 Y-34.431
N19935 X351.631 Y-34.502
N19940 X351.8 Y-34.61
N19945 X352.095 Y-34.802
N19950 X352.097 Y-34.803
N19955 G2 X352.79 Y-35.165 I-1.526 J-3.77
N19960 X353.021 Y-35.327 I-2.218 J-3.408
N19965 X353.314 Y-35.679 I-0.602 J-0.798
N19970 G1 X353.925 Y-36.905
N19975 X354.533 Y-38.127
N19980 G2 X354.638 Y-38.573 I-0.895 J-0.446
